public/assets/luts/disposable.cube
TITLE "Generated by Resolve"
LUT_3D_SIZE 65
0.0164034 0.0164034 0.0164034
0.0164034 0.0164034 0.0164034
0.0164034 0.0164034 0.0164034
0.0164034 0.0164034 0.0164034
0.0164034 0.0164034 0.0164034
0.0164034 0.0164034 0.0164034
0.0164034 0.0164034 0.0164034
0.0164187 0.0164034 0.016434
0.0194095 0.0161898 0.0163577
0.0265354 0.0157473 0.0162814
0.0365148 0.0152438 0.0161898
0.0483711 0.0146944 0.016083
0.0605173 0.0140993 0.0159609
0.072343 0.0135042 0.0158389
0.0848249 0.0128481 0.0157015
0.0975967 0.0121462 0.0155489
0.109987 0.0114443 0.0153964
0.123064 0.0106966 0.0152285
0.137453 0.00987259 0.0150454
0.152636 0.0089723 0.0148165
0.168261 0.00805676 0.0145876
0.185428 0.00704967 0.014313
0.203723 0.00601205 0.0140078
0.223301 0.00494392 0.0136721
0.24416 0.00387579 0.0132753
0.26598 0.00285344 0.0128634
0.289372 0.00190738 0.0123903
0.314824 0.00106813 0.0118563
0.341451 0.000442512 0.0112612
0.370047 7.62951e-05 0.0106203
0.400122 0 0.00991836
0.432456 0 0.00914015
0.465187 0 0.00834669
0.500984 0 0.00746166
0.538231 0 0.00654612
0.575936 0 0.00564584
0.616144 0 0.00479133
0.657053 0 0.00401312
0.697932 0 0.00328069
0.740917 0 0.00254826
0.78352 0 0.00190738
0.825879 0 0.00134279
0.867872 0 0.000869764
0.90898 1.5259e-05 0.000503548
0.948592 1.5259e-05 0.000244144
0.986755 1.5259e-05 9.15541e-05
0.999496 1.5259e-05 7.62951e-05
0.999496 1.5259e-05 7.62951e-05
0.999496 1.5259e-05 7.62951e-05
0.999496 1.5259e-05 7.62951e-05
0.999496 1.5259e-05 7.62951e-05
0.999496 1.5259e-05 7.62951e-05
0.999496 1.5259e-05 7.62951e-05
0.999496 1.5259e-05 7.62951e-05
0.999496 1.5259e-05 7.62951e-05
0.999496 1.5259e-05 7.62951e-05
0.999496 1.5259e-05 7.62951e-05
0.999496 1.5259e-05 7.62951e-05
0.999496 1.5259e-05 7.62951e-05
0.999496 1.5259e-05 7.62951e-05
0.999496 1.5259e-05 7.62951e-05
0.999496 1.5259e-05 7.62951e-05
0.999496 1.5259e-05 7.62951e-05
0.999496 1.5259e-05 7.62951e-05
0.999496 1.5259e-05 7.62951e-05
0.0164034 0.0164034 0.0164034
0.0164034 0.0164034 0.0164034
0.0164034 0.0164034 0.0164034
0.0164034 0.0164034 0.0164034
0.0164034 0.0164034 0.0164034
0.0164034 0.0164034 0.0164034
0.0164034 0.0164034 0.0164034
0.01738 0.0163272 0.0163882
0.0227359 0.0159762 0.0163272
0.0314794 0.0155032 0.0162356
0.0416571 0.0150149 0.016144
0.0531624 0.0144656 0.0160372
0.0652934 0.0138552 0.0159152
0.0772564 0.0132448 0.0157778
0.0897688 0.0125734 0.0156405
0.101747 0.0119173 0.0155032
0.11487 0.0111696 0.0153353
0.128344 0.0103914 0.0151675
0.142733 0.00955215 0.0149691
0.157214 0.0087129 0.0147555
0.172961 0.0077821 0.0145113
0.190249 0.00677501 0.0142367
0.208728 0.00573739 0.0139162
0.228519 0.00466926 0.0135653
0.249393 0.00361639 0.0131838
0.271321 0.00262455 0.0127565
0.295552 0.00167849 0.012253
0.321431 0.000885023 0.0117037
0.348333 0.000335698 0.0111086
0.377096 4.57771e-05 0.0104524
0.408148 0 0.00972
0.44033 0 0.00894179
0.474266 0 0.0081178
0.510582 0 0.00723278
0.547829 0 0.00631724
0.586542 0 0.00538643
0.626596 0 0.00459297
0.668254 0 0.00381476
0.709621 0 0.00308232
0.752178 0 0.00238041
0.795544 0 0.00173953
0.837232 0 0.00120546
0.879133 1.5259e-05 0.000762951
0.920378 1.5259e-05 0.000427253
0.959319 1.5259e-05 0.000198367
0.996963 1.5259e-05 7.62951e-05
0.999496 1.5259e-05 7.62951e-05
0.999496 1.5259e-05 7.62951e-05
0.999496 1.5259e-05 7.62951e-05
0.999496 1.5259e-05 7.62951e-05
0.999496 1.5259e-05 7.62951e-05
0.999496 1.5259e-05 7.62951e-05
0.999496 1.5259e-05 7.62951e-05
0.999496 1.5259e-05 7.62951e-05
0.999496 1.5259e-05 7.62951e-05
0.999496 1.5259e-05 7.62951e-05
0.999496 1.5259e-05 7.62951e-05
0.999496 1.5259e-05 7.62951e-05
0.999496 1.5259e-05 7.62951e-05
0.999496 1.5259e-05 7.62951e-05
0.999496 1.5259e-05 7.62951e-05
0.999496 1.5259e-05 7.62951e-05
0.999496 1.5259e-05 7.62951e-05
0.999496 1.5259e-05 7.62951e-05
0.999496 1.5259e-05 7.62951e-05
0.0164034 0.0164034 0.0164034
0.0164034 0.0164034 0.0164034
0.0164034 0.0164034 0.0164034
0.0164034 0.0164034 0.0164034
0.0164034 0.0164034 0.0164034
0.0164034 0.0164034 0.0164034
0.0164187 0.0164034 0.016434
0.0192416 0.0162051 0.0163577
0.0266423 0.0157473 0.0162814
0.0362402 0.015259 0.0161898
0.046891 0.0147707 0.0160983
0.0585184 0.0142061 0.0159762
0.0700084 0.0136263 0.0158694
0.0818647 0.0130007 0.0157321
0.0936751 0.0123598 0.0155947
0.106233 0.0116579 0.0154421
0.11957 0.0109102 0.0152743
0.132601 0.0101472 0.0151064
0.147112 0.00929274 0.0149081
0.162036 0.00842298 0.0146792
0.17763 0.00750744 0.014435
0.195041 0.00650034 0.0141604
0.21355 0.00546273 0.0138399
0.233326 0.00442512 0.013489
0.254231 0.0033875 0.0130922
0.277241 0.00238041 0.0126345
0.301869 0.00146487 0.0121309
0.328176 0.000717174 0.0115663
0.355016 0.000228885 0.010956
0.384817 1.5259e-05 0.0102693
0.416419 0 0.00952163
0.448478 0 0.00874342
0.483635 0 0.00788891
0.51986 0 0.00700389
0.557702 0 0.00607309
0.596811 0 0.00517281
0.637964 0 0.00437934
0.6795 0 0.00360113
0.721645 0 0.0028687
0.76437 0 0.00218204
0.806882 0 0.00158694
0.849485 0 0.00106813
0.891203 1.5259e-05 0.000656138
0.931044 1.5259e-05 0.000350958
0.970596 1.5259e-05 0.00015259
0.999496 1.5259e-05 7.62951e-05
0.999496 1.5259e-05 7.62951e-05
0.999496 1.5259e-05 7.62951e-05
0.999496 1.5259e-05 7.62951e-05
0.999496 1.5259e-05 7.62951e-05
0.999496 1.5259e-05 7.62951e-05
0.999496 1.5259e-05 7.62951e-05
0.999496 1.5259e-05 7.62951e-05
0.999496 1.5259e-05 7.62951e-05
0.999496 1.5259e-05 7.62951e-05
0.999496 1.5259e-05 7.62951e-05
0.999496 1.5259e-05 7.62951e-05
0.999496 1.5259e-05 7.62951e-05
0.999496 1.5259e-05 7.62951e-05
0.999496 1.5259e-05 7.62951e-05
0.999496 1.5259e-05 7.62951e-05
0.999496 1.5259e-05 7.62951e-05
0.999496 1.5259e-05 7.62951e-05
0.999496 1.5259e-05 7.62951e-05
0.999496 1.5259e-05 7.62951e-05
0.0164034 0.0164034 0.0164034
0.0164034 0.0164034 0.0164034
0.0164034 0.0164034 0.0164034
0.0164034 0.0164034 0.0164034
0.0164034 0.0164034 0.0164034
0.0164034 0.0164034 0.0164034
0.0171817 0.0163424 0.0163882
0.0225376 0.0159762 0.0163272
0.0308232 0.0155184 0.0162356
0.0413062 0.0150301 0.016144
0.0514992 0.0145418 0.0160525
0.0632944 0.013962 0.0159304
0.0747234 0.0133822 0.0158083
0.0863661 0.0127565 0.0156863
0.0982528 0.0121157 0.0155489
0.110521 0.0114137 0.0153964
0.123217 0.0106966 0.0152285
0.136828 0.0099031 0.0150454
0.151339 0.0090486 0.014847
0.16614 0.00817884 0.0146181
0.182513 0.00723278 0.0143587
0.19939 0.0062562 0.0140841
0.218296 0.00521859 0.0137484
0.238621 0.00415045 0.0133822
0.259846 0.0031281 0.0129854
0.283253 0.00213626 0.0125124
0.307881 0.0012665 0.0119936
0.334478 0.000579843 0.011429
0.362432 0.00015259 0.0107881
0.392493 0 0.0101015
0.424369 0 0.00933852
0.457572 0 0.00852979
0.492683 0 0.00766003
0.530083 0 0.00674449
0.567651 0 0.00584421
0.608042 0 0.00495918
0.648966 0 0.00416571
0.69099 0 0.00340276
0.733288 0 0.00268559
0.776226 0 0.00201419
0.818875 0 0.00143435
0.86128 0 0.000946059
0.902831 1.5259e-05 0.000564584
0.942916 1.5259e-05 0.000289921
0.981521 1.5259e-05 0.000106813
0.999496 1.5259e-05 7.62951e-05
0.999496 1.5259e-05 7.62951e-05
0.999496 1.5259e-05 7.62951e-05
0.999496 1.5259e-05 7.62951e-05
0.999496 1.5259e-05 7.62951e-05
0.999496 1.5259e-05 7.62951e-05
0.999496 1.5259e-05 7.62951e-05
0.999496 1.5259e-05 7.62951e-05
0.999496 1.5259e-05 7.62951e-05
0.999496 1.5259e-05 7.62951e-05
0.999496 1.5259e-05 7.62951e-05
0.999496 1.5259e-05 7.62951e-05
0.999496 1.5259e-05 7.62951e-05
0.999496 1.5259e-05 7.62951e-05
0.999496 1.5259e-05 7.62951e-05
0.999496 1.5259e-05 7.62951e-05
0.999496 1.5259e-05 7.62951e-05
0.999496 1.5259e-05 7.62951e-05
0.999496 1.5259e-05 7.62951e-05
0.999496 1.5259e-05 7.62951e-05
0.0164034 0.0164187 0.016434
0.0164034 0.0164034 0.0164034
0.0164034 0.0164034 0.0164034
0.0164034 0.0164034 0.0164034
0.0164034 0.0164034 0.0164034
0.0164034 0.0164034 0.0164034
0.0187228 0.0162356 0.0163729
0.0260777 0.0157778 0.0162814
0.0357519 0.0152895 0.0161898
0.0461585 0.0148013 0.0160983
0.0562448 0.014313 0.0160067
0.0675059 0.0137484 0.0158846
0.0787366 0.0131685 0.0157626
0.0904707 0.0125429 0.0156405
0.102785 0.0118563 0.0154879
0.115145 0.0111543 0.0153353
0.127749 0.0104372 0.0151675
0.140841 0.00967422 0.0149844
0.155398 0.00881971 0.014786
0.170626 0.00791943 0.0145418
0.187304 0.00694286 0.0142824
0.204761 0.00595102 0.0139925
0.223789 0.00491341 0.0136568
0.243931 0.00387579 0.0132906
0.265553 0.0028687 0.0128634
0.288884 0.00192264 0.0123903
0.314397 0.00108339 0.0118563
0.341192 0.000457771 0.0112764
0.370016 7.62951e-05 0.0106203
0.400412 0 0.0099031
0.433143 0 0.0091249
0.466361 0 0.00831617
0.502663 0 0.00741588
0.540017 0 0.00650034
0.578759 0 0.00556954
0.618982 0 0.00474556
0.661006 0 0.00393683
0.702419 0 0.00320439
0.745892 0 0.00247196
0.788952 0 0.00183108
0.831006 0 0.00128176
0.87393 0 0.000808728
0.91519 1.5259e-05 0.000457771
0.954345 1.5259e-05 0.000228885
0.992706 1.5259e-05 7.62951e-05
0.999496 1.5259e-05 7.62951e-05
0.999496 1.5259e-05 7.62951e-05
0.999496 1.5259e-05 7.62951e-05
0.999496 1.5259e-05 7.62951e-05
0.999496 1.5259e-05 7.62951e-05
0.999496 1.5259e-05 7.62951e-05
0.999496 1.5259e-05 7.62951e-05
0.999496 1.5259e-05 7.62951e-05
0.999496 1.5259e-05 7.62951e-05
0.999496 1.5259e-05 7.62951e-05
0.999496 1.5259e-05 7.62951e-05
0.999496 1.5259e-05 7.62951e-05
0.999496 1.5259e-05 7.62951e-05
0.999496 1.5259e-05 7.62951e-05
0.999496 1.5259e-05 7.62951e-05
0.999496 1.5259e-05 7.62951e-05
0.999496 1.5259e-05 7.62951e-05
0.999496 1.5259e-05 7.62951e-05
0.999496 1.5259e-05 7.62951e-05
0.999496 1.5259e-05 7.62951e-05
0.0129244 0.0240177 0.015671
0.0148165 0.0195315 0.016083
0.0161746 0.016846 0.0163577
0.0164034 0.0164034 0.0164034
0.0164034 0.0164034 0.0164034
0.0168002 0.0163729 0.0164034
0.0215763 0.0160372 0.0163424
0.0294652 0.0155947 0.0162509
0.0398413 0.0150912 0.0161593
0.0504311 0.0146029 0.0160525
0.0608225 0.0140841 0.0159609
0.0720836 0.0135195 0.0158389
0.0834974 0.0129091 0.0157168
0.0950637 0.0122835 0.0155795
0.106493 0.0116426 0.0154421
0.119051 0.0109407 0.0152895
0.13167 0.0102083 0.0151217
0.145312 0.00939956 0.0149233
0.159854 0.00854505 0.0147097
0.174838 0.00767529 0.0144808
0.191562 0.00669871 0.0142061
0.209781 0.00567636 0.013901
0.229053 0.00463874 0.0135653
0.249653 0.00360113 0.0131838
0.270939 0.00263981 0.0127565
0.295201 0.00169375 0.0122683
0.321233 0.000885023 0.0117189
0.348379 0.000335698 0.0111086
0.377478 4.57771e-05 0.0104524
0.408972 0 0.00970474
0.441321 0 0.00892653
0.476158 0 0.00807202
0.513008 0 0.00717174
0.55079 0 0.00624094
0.589639 0 0.0053254
0.631006 0 0.00451667
0.672786 0 0.0037232
0.715221 0 0.00297551
0.758267 0 0.00228885
0.801495 0 0.00166323
0.844083 0 0.00112917
0.886198 1.5259e-05 0.000701915
0.926925 1.5259e-05 0.000381476
0.966491 1.5259e-05 0.000167849
0.999496 1.5259e-05 7.62951e-05
0.999496 1.5259e-05 7.62951e-05
0.999496 1.5259e-05 7.62951e-05
0.999496 1.5259e-05 7.62951e-05
0.999496 1.5259e-05 7.62951e-05
0.999496 1.5259e-05 7.62951e-05
0.999496 1.5259e-05 7.62951e-05
0.999496 1.5259e-05 7.62951e-05
0.999496 1.5259e-05 7.62951e-05
0.999496 1.5259e-05 7.62951e-05
0.999496 1.5259e-05 7.62951e-05
0.999496 1.5259e-05 7.62951e-05
0.999496 1.5259e-05 7.62951e-05
0.999496 1.5259e-05 7.62951e-05
0.999496 1.5259e-05 7.62951e-05
0.999496 1.5259e-05 7.62951e-05
0.999496 1.5259e-05 7.62951e-05
0.999496 1.5259e-05 7.62951e-05
0.999496 1.5259e-05 7.62951e-05
0.999496 1.5259e-05 7.62951e-05
0.999496 1.5259e-05 7.62951e-05
0.00839246 0.0396277 0.0145571
0.0102083 0.032578 0.0150301
0.0121157 0.0262455 0.0154879
0.0140383 0.0213016 0.0159152
0.0158541 0.0174411 0.0162966
0.0180056 0.0162814 0.0163882
0.0244907 0.0158694 0.0162966
0.0339971 0.0153658 0.0162051
0.044358 0.0148928 0.0161135
0.0548867 0.014374 0.016022
0.0652018 0.0138705 0.0159152
0.0762341 0.0133059 0.0157931
0.0874647 0.0126955 0.015671
0.0990311 0.0120699 0.0155337
0.110826 0.0113985 0.0153964
0.122927 0.0107118 0.0152285
0.135592 0.0099794 0.0150607
0.149081 0.00918593 0.0148775
0.163546 0.00833143 0.0146639
0.179263 0.00741588 0.0144198
0.196399 0.00642405 0.0141299
0.214374 0.00543221 0.0138247
0.233524 0.00440986 0.0134737
0.2551 0.00334173 0.013077
0.27834 0.00233463 0.0126192
0.302708 0.00143435 0.0121157
0.328389 0.000717174 0.0115511
0.355596 0.000228885 0.010956
0.38584 1.5259e-05 0.0102541
0.417685 0 0.00949111
0.450645 0 0.00869764
0.486259 0 0.00782788
0.523384 0 0.00691234
0.56173 0 0.00598154
0.601724 0 0.00508125
0.643168 0 0.00427253
0.685527 0 0.00349432
0.727825 0 0.00276188
0.77171 0 0.00207523
0.814221 0 0.00149538
0.856901 0 0.000991836
0.899397 1.5259e-05 0.000579843
0.939284 1.5259e-05 0.00030518
0.978256 1.5259e-05 0.000122072
0.999496 1.5259e-05 7.62951e-05
0.999496 1.5259e-05 7.62951e-05
0.999496 1.5259e-05 7.62951e-05
0.999496 1.5259e-05 7.62951e-05
0.999496 1.5259e-05 7.62951e-05
0.999496 1.5259e-05 7.62951e-05
0.999496 1.5259e-05 7.62951e-05
0.999496 1.5259e-05 7.62951e-05
0.999496 1.5259e-05 7.62951e-05
0.999496 1.5259e-05 7.62951e-05
0.999496 1.5259e-05 7.62951e-05
0.999496 1.5259e-05 7.62951e-05
0.999496 1.5259e-05 7.62951e-05
0.999496 1.5259e-05 7.62951e-05
0.999496 1.5259e-05 7.62951e-05
0.999496 1.5259e-05 7.62951e-05
0.999496 1.5259e-05 7.62951e-05
0.999496 1.5259e-05 7.62951e-05
0.999496 1.5259e-05 7.62951e-05
0.999496 1.5259e-05 7.62951e-05
0.999496 1.5259e-05 7.62951e-05
0.00445563 0.0583963 0.0133059
0.0059968 0.0504768 0.0138399
0.00773632 0.0425116 0.014374
0.00958267 0.0348669 0.0148775
0.0115206 0.0280919 0.0153353
0.0164645 0.0220951 0.0157778
0.0264744 0.0172122 0.0161746
0.0376898 0.015198 0.0161746
0.0488746 0.0146792 0.0160678
0.059266 0.0141604 0.0159762
0.069276 0.0136568 0.0158694
0.080354 0.013077 0.0157473
0.0914626 0.0124819 0.0156252
0.103014 0.011841 0.0154879
0.114595 0.0111849 0.0153506
0.126635 0.0104982 0.0151827
0.139361 0.00975052 0.0150149
0.153124 0.00894179 0.0148165
0.167727 0.00808728 0.0145876
0.183536 0.00717174 0.0143435
0.200412 0.00619516 0.0140688
0.218906 0.00517281 0.0137484
0.239231 0.00411994 0.0133669
0.26099 0.00306706 0.0129549
0.284367 0.00209049 0.0124971
0.30898 0.00123598 0.0119783
0.335683 0.000549325 0.0113985
0.363943 0.000137331 0.0107576
0.394064 0 0.0100557
0.426856 0 0.00927749
0.460761 0 0.0084535
0.49662 0 0.00756847
0.534798 0 0.00663767
0.573144 0 0.00570687
0.614298 0 0.00483711
0.65597 0 0.00404364
0.697704 0 0.00328069
0.741527 0 0.00254826
0.784909 0 0.00189212
0.827771 0 0.00132753
0.870588 0 0.000839246
0.912215 1.5259e-05 0.000488289
0.951705 1.5259e-05 0.000228885
0.990662 1.5259e-05 7.62951e-05
0.999496 1.5259e-05 7.62951e-05
0.999496 1.5259e-05 7.62951e-05
0.999496 1.5259e-05 7.62951e-05
0.999496 1.5259e-05 7.62951e-05
0.999496 1.5259e-05 7.62951e-05
0.999496 1.5259e-05 7.62951e-05
0.999496 1.5259e-05 7.62951e-05
0.999496 1.5259e-05 7.62951e-05
0.999496 1.5259e-05 7.62951e-05
0.999496 1.5259e-05 7.62951e-05
0.999496 1.5259e-05 7.62951e-05
0.999496 1.5259e-05 7.62951e-05
0.999496 1.5259e-05 7.62951e-05
0.999496 1.5259e-05 7.62951e-05
0.999496 1.5259e-05 7.62951e-05
0.999496 1.5259e-05 7.62951e-05
0.999496 1.5259e-05 7.62951e-05
0.999496 1.5259e-05 7.62951e-05
0.999496 1.5259e-05 7.62951e-05
0.999496 1.5259e-05 7.62951e-05
0.999496 1.5259e-05 7.62951e-05
0.00157168 0.0781415 0.0119173
0.00262455 0.0697032 0.0125124
0.00393683 0.0613107 0.0131075
0.00543221 0.053254 0.0136568
0.00750744 0.0448463 0.0142061
0.0133059 0.0362554 0.0146639
0.0232242 0.0278325 0.0151064
0.0361639 0.0213779 0.0159609
0.0511482 0.0160678 0.0159152
0.0632944 0.013962 0.0159304
0.0735485 0.0134432 0.0158236
0.0839551 0.0128939 0.0157168
0.0952163 0.0122835 0.0155795
0.106661 0.0116426 0.0154421
0.118761 0.010956 0.0152895
0.130663 0.0102693 0.0151369
0.143618 0.00950637 0.0149538
0.157412 0.00869764 0.0147555
0.17171 0.0078584 0.0145266
0.187945 0.00691234 0.0142672
0.20557 0.00590524 0.0139773
0.224399 0.00488289 0.0136416
0.244694 0.00384527 0.0132753
0.267155 0.0027924 0.0128328
0.290517 0.0018616 0.0123598
0.315953 0.00103761 0.0118257
0.343923 0.000396735 0.0112154
0.373159 6.10361e-05 0.010544
0.404349 0 0.00981155
0.436683 0 0.00903334
0.470802 0 0.00820935
0.507927 0 0.00729381
0.546151 0 0.00636301
0.585718 0 0.00540169
0.626749 0 0.00459297
0.669123 0 0.0037995
0.711604 0 0.00303655
0.755001 0 0.00233463
0.799146 0 0.00169375
0.841505 0 0.00115969
0.88397 1.5259e-05 0.000717174
0.925353 1.5259e-05 0.000396735
0.964843 1.5259e-05 0.000167849
0.999496 1.5259e-05 7.62951e-05
0.999496 1.5259e-05 7.62951e-05
0.999496 1.5259e-05 7.62951e-05
0.999496 1.5259e-05 7.62951e-05
0.999496 1.5259e-05 7.62951e-05
0.999496 1.5259e-05 7.62951e-05
0.999496 1.5259e-05 7.62951e-05
0.999496 1.5259e-05 7.62951e-05
0.999496 1.5259e-05 7.62951e-05
0.999496 1.5259e-05 7.62951e-05
0.999496 1.5259e-05 7.62951e-05
0.999496 1.5259e-05 7.62951e-05
0.999496 1.5259e-05 7.62951e-05
0.999496 1.5259e-05 7.62951e-05
0.999496 1.5259e-05 7.62951e-05
0.999496 1.5259e-05 7.62951e-05
0.999496 1.5259e-05 7.62951e-05
0.999496 1.5259e-05 7.62951e-05
0.999496 1.5259e-05 7.62951e-05
0.999496 1.5259e-05 7.62951e-05
0.999496 1.5259e-05 7.62951e-05
0.999496 1.5259e-05 7.62951e-05
0.000122072 0.0995193 0.0107576
0.000518807 0.0904707 0.0110323
0.00120546 0.0816968 0.0116579
0.00221256 0.0727245 0.0122988
0.0041352 0.06392 0.0128939
0.00962844 0.0543374 0.0134279
0.0187991 0.044831 0.0139162
0.0320897 0.0350042 0.0144198
0.0465553 0.0265812 0.0158999
0.0619516 0.0199283 0.0156405
0.0759442 0.0145266 0.0156405
0.0879988 0.012665 0.015671
0.0993057 0.0120546 0.0155337
0.110597 0.0114137 0.0153964
0.122087 0.0107576 0.0152438
0.134127 0.0100557 0.0150912
0.147539 0.00927749 0.0148928
0.161624 0.0084535 0.0146792
0.176486 0.00758373 0.0144503
0.193057 0.00662242 0.0141909
0.211078 0.00560006 0.0138857
0.229709 0.00460822 0.01355
0.250919 0.00354009 0.0131533
0.273564 0.00251774 0.0127108
0.297337 0.00161746 0.0122225
0.324041 0.000823987 0.0116579
0.352178 0.000274662 0.0110323
0.381994 1.5259e-05 0.0103456
0.414328 0 0.00958267
0.447089 0 0.0087892
0.483101 0 0.00790417
0.519219 0 0.00701915
0.558038 0 0.00607309
0.598199 0 0.00514229
0.640391 0 0.00433356
0.682857 0 0.00354009
0.725353 0 0.00280766
0.769604 0 0.00210575
0.812543 0 0.00151064
0.855421 0 0.0010071
0.898207 1.5259e-05 0.000595102
0.938354 1.5259e-05 0.00030518
0.977569 1.5259e-05 0.000122072
0.999496 1.5259e-05 7.62951e-05
0.999496 1.5259e-05 7.62951e-05
0.999496 1.5259e-05 7.62951e-05
0.999496 1.5259e-05 7.62951e-05
0.999496 1.5259e-05 7.62951e-05
0.999496 1.5259e-05 7.62951e-05
0.999496 1.5259e-05 7.62951e-05
0.999496 1.5259e-05 7.62951e-05
0.999496 1.5259e-05 7.62951e-05
0.999496 1.5259e-05 7.62951e-05
0.999496 1.5259e-05 7.62951e-05
0.999496 1.5259e-05 7.62951e-05
0.999496 1.5259e-05 7.62951e-05
0.999496 1.5259e-05 7.62951e-05
0.999496 1.5259e-05 7.62951e-05
0.999496 1.5259e-05 7.62951e-05
0.999496 1.5259e-05 7.62951e-05
0.999496 1.5259e-05 7.62951e-05
0.999496 1.5259e-05 7.62951e-05
0.999496 1.5259e-05 7.62951e-05
0.999496 1.5259e-05 7.62951e-05
0.999496 1.5259e-05 7.62951e-05
0 0.122484 0.0114137
0 0.112856 0.00959792
4.57771e-05 0.103197 0.0101015
0.000320439 0.093904 0.0107729
0.00155642 0.0840467 0.0114443
0.00579843 0.0741283 0.0120241
0.01355 0.0637675 0.0126192
0.0256962 0.0535744 0.0131533
0.041825 0.0429389 0.0140078
0.0568399 0.0327153 0.0159762
0.0721599 0.0247044 0.0154269
0.0877394 0.0170596 0.0153658
0.102678 0.0121309 0.0154574
0.114458 0.0112001 0.0153506
0.126299 0.0105135 0.0151827
0.138445 0.00981155 0.0150301
0.15169 0.00903334 0.0148318
0.165911 0.00819409 0.0146181
0.180941 0.00732433 0.0143893
0.197711 0.00634775 0.0141146
0.21593 0.00534066 0.0137942
0.235523 0.00430304 0.0134432
0.257313 0.00323491 0.0130312
0.280293 0.00224308 0.0125734
0.305287 0.00135805 0.0120546
0.331609 0.000640879 0.01149
0.360708 0.000167849 0.0108339
0.391974 0 0.0101015
0.423697 0 0.00935378
0.458488 0 0.00849927
0.494118 0 0.00762951
0.532067 0 0.00669871
0.571557 0 0.00573739
0.611994 0 0.00488289
0.653956 0 0.00407416
0.696056 0 0.00331121
0.740261 0 0.00256352
0.783993 0 0.00190738
0.827283 0 0.00132753
0.870253 0 0.000854505
0.912123 1.5259e-05 0.000488289
0.951812 1.5259e-05 0.000228885
0.990951 1.5259e-05 7.62951e-05
0.999496 1.5259e-05 7.62951e-05
0.999496 1.5259e-05 7.62951e-05
0.999496 1.5259e-05 7.62951e-05
0.999496 1.5259e-05 7.62951e-05
0.999496 1.5259e-05 7.62951e-05
0.999496 1.5259e-05 7.62951e-05
0.999496 1.5259e-05 7.62951e-05
0.999496 1.5259e-05 7.62951e-05
0.999496 1.5259e-05 7.62951e-05
0.999496 1.5259e-05 7.62951e-05
0.999496 1.5259e-05 7.62951e-05
0.999496 1.5259e-05 7.62951e-05
0.999496 1.5259e-05 7.62951e-05
0.999496 1.5259e-05 7.62951e-05
0.999496 1.5259e-05 7.62951e-05
0.999496 1.5259e-05 7.62951e-05
0.999496 1.5259e-05 7.62951e-05
0.999496 1.5259e-05 7.62951e-05
0.999496 1.5259e-05 7.62951e-05
0.999496 1.5259e-05 7.62951e-05
0.999496 1.5259e-05 7.62951e-05
0.999496 1.5259e-05 7.62951e-05
0 0.149569 0.0128939
0 0.138994 0.00981155
0 0.128969 0.00836194
0 0.118532 0.0089723
0.000137331 0.108171 0.00965896
0.00222782 0.0972 0.0103304
0.00793469 0.0864729 0.0109865
0.018204 0.0752728 0.0116274
0.0339666 0.0643626 0.0122377
0.0517739 0.0529793 0.0132906
0.0662089 0.0421607 0.0160067
0.0834821 0.0309606 0.0152895
0.100465 0.0211185 0.0151064
0.116762 0.0135805 0.0149996
0.130602 0.0102693 0.0151369
0.142962 0.00953689 0.0149538
0.156451 0.00875868 0.0147707
0.171084 0.00788891 0.0145418
0.186648 0.00698863 0.0142977
0.203891 0.00601205 0.0140078
0.222217 0.00500496 0.0136873
0.242344 0.00396735 0.0133211
0.264729 0.00289921 0.0128786
0.288746 0.00192264 0.0124056
0.313664 0.00109865 0.0118715
0.341558 0.000442512 0.0112612
0.370855 7.62951e-05 0.010605
0.402411 0 0.00985733
0.435935 0 0.0090486
0.470649 0 0.00820935
0.507774 0 0.00729381
0.546456 0 0.00634775
0.58674 0 0.00538643
0.628565 0 0.00456245
0.67071 0 0.00376898
0.71284 0 0.00302129
0.756619 0 0.00230411
0.800732 0 0.00166323
0.843702 0 0.00112917
0.886366 1.5259e-05 0.000701915
0.927367 1.5259e-05 0.000381476
0.967422 1.5259e-05 0.000167849
0.999496 1.5259e-05 7.62951e-05
0.999496 1.5259e-05 7.62951e-05
0.999496 1.5259e-05 7.62951e-05
0.999496 1.5259e-05 7.62951e-05
0.999496 1.5259e-05 7.62951e-05
0.999496 1.5259e-05 7.62951e-05
0.999496 1.5259e-05 7.62951e-05
0.999496 1.5259e-05 7.62951e-05
0.999496 1.5259e-05 7.62951e-05
0.999496 1.5259e-05 7.62951e-05
0.999496 1.5259e-05 7.62951e-05
0.999496 1.5259e-05 7.62951e-05
0.999496 1.5259e-05 7.62951e-05
0.999496 1.5259e-05 7.62951e-05
0.999496 1.5259e-05 7.62951e-05
0.999496 1.5259e-05 7.62951e-05
0.999496 1.5259e-05 7.62951e-05
0.999496 1.5259e-05 7.62951e-05
0.999496 1.5259e-05 7.62951e-05
0.999496 1.5259e-05 7.62951e-05
0.999496 1.5259e-05 7.62951e-05
0.999496 1.5259e-05 7.62951e-05
0.999496 1.5259e-05 7.62951e-05
0 0.179675 0.0144961
0 0.168811 0.010956
0 0.157519 0.00823987
0 0.146502 0.00706493
0 0.134997 0.00767529
0.000198367 0.123339 0.00840772
0.00299077 0.111666 0.0091249
0.0102693 0.0999008 0.00985733
0.0230716 0.0882734 0.010544
0.0420233 0.0766918 0.0112001
0.0609751 0.0645609 0.0122072
0.0775311 0.0516518 0.0157321
0.0955673 0.0390021 0.0152895
0.113725 0.0262913 0.0149233
0.130434 0.0171206 0.0146792
0.147341 0.010544 0.0147097
0.161852 0.00843824 0.0146792
0.176883 0.00755322 0.0144503
0.19321 0.00660716 0.0141909
0.210636 0.00563058 0.0138857
0.23006 0.00459297 0.0135348
0.250919 0.00354009 0.0131533
0.27274 0.00256352 0.012726
0.297658 0.0016022 0.0122225
0.32398 0.000823987 0.0116579
0.352163 0.000274662 0.0110323
0.382589 1.5259e-05 0.0103304
0.414755 0 0.00956741
0.449027 0 0.00874342
0.485054 0 0.0078584
0.523018 0 0.0069276
0.562509 0 0.00596628
0.602823 0 0.005066
0.645212 0 0.00424201
0.688258 0 0.00344854
0.731334 0 0.00271611
0.775082 0 0.00202945
0.81915 0 0.00143435
0.861982 0 0.0009308
0.903548 1.5259e-05 0.000549325
0.944228 1.5259e-05 0.000274662
0.983307 1.5259e-05 0.000106813
0.999496 1.5259e-05 7.62951e-05
0.999496 1.5259e-05 7.62951e-05
0.999496 1.5259e-05 7.62951e-05
0.999496 1.5259e-05 7.62951e-05
0.999496 1.5259e-05 7.62951e-05
0.999496 1.5259e-05 7.62951e-05
