public/assets/luts/disposable.cube
TITLE "Generated by Resolve"
LUT_3D_SIZE 9
0.0164034 0.0164034 0.0164034
0.0194095 0.0161898 0.0163577
0.109987 0.0114443 0.0153964
0.24416 0.00387579 0.0132753
0.465187 0 0.00834669
0.78352 0 0.00190738
0.999496 1.5259e-05 7.62951e-05
0.999496 1.5259e-05 7.62951e-05
0.999496 1.5259e-05 7.62951e-05
0.00157168 0.0781415 0.0119173
0.0511482 0.0160678 0.0159152
0.143618 0.00950637 0.0149538
0.290517 0.0018616 0.0123598
0.546151 0 0.00636301
0.88397 1.5259e-05 0.000717174
0.999496 1.5259e-05 7.62951e-05
0.999496 1.5259e-05 7.62951e-05
0.999496 1.5259e-05 7.62951e-05
0 0.325063 0.0180819
0 0.205875 0.00271611
0.16144 0.0762798 0.0146181
0.372824 6.10361e-05 0.0105592
0.676524 0 0.00366217
0.999496 1.5259e-05 7.62951e-05
0.999496 1.5259e-05 7.62951e-05
0.999496 1.5259e-05 7.62951e-05
0.999496 1.5259e-05 7.62951e-05
0 0.699489 0.00613413
0 0.563088 0
0.00630198 0.389563 0
0.464134 0.192142 0.00408942
0.845228 1.5259e-05 9.15541e-05
0.999496 1.5259e-05 7.62951e-05
0.999496 1.5259e-05 7.62951e-05
0.999496 1.5259e-05 7.62951e-05
0.999496 1.5259e-05 7.62951e-05
0 0.970687 0.0966812
0 0.91281 0
0 0.812085 0
0.429023 0.648249 0
0.9281 0.439002 0.0489052
0.997345 0.211688 0.00334173
0.999298 0.00767529 0.000167849
0.999496 1.5259e-05 7.62951e-05
0.999496 1.5259e-05 7.62951e-05
0 1 0.345235
0 1 0.000640879
0 1 0
0.379232 0.960204 0
0.899489 0.876219 0.0499733
0.98291 0.787564 0.166155
0.976623 0.709102 0.187823
0.979232 0.643931 0.160418
0.982788 0.58674 0.127062
0 1 0.585214
0 1 0.29781
0 1 0
0.585336 1 0
0.935241 0.994293 0.000122072
0.995575 0.975097 0.0625467
0.994873 0.959686 0.0774853
0.994125 0.943832 0.0914626
0.993301 0.925948 0.105821
0 1 0.780377
0 1 0.554101
0 1 0.179324
0.773098 1 0
0.981186 0.998901 0.0179141
0.996674 0.99855 0.0365911
0.996674 0.998459 0.0366979
0.996582 0.996475 0.0390326
0.996475 0.994049 0.0419318
0 1 0.903243
0 1 0.761456
0.430472 1 0.477653
0.890288 1 0.00131228
0.996674 0.99855 0.0365911
0.996674 0.99855 0.0365911
0.996674 0.99855 0.0365911
0.996674 0.99855 0.0365911
0.996674 0.99855 0.0365911
0.01561 0.0163119 0.0303655
0.0164034 0.0164034 0.0164034
0.042237 0.0149844 0.0161288
0.152331 0.00898756 0.0148318
0.341039 0.000457771 0.0112764
0.637171 0 0.0043946
0.981476 1.5259e-05 0.000106813
0.999496 1.5259e-05 7.62951e-05
0.999496 1.5259e-05 7.62951e-05
0.00199893 0.0641184 0.0880598
0.0166171 0.0163729 0.0170596
0.0673381 0.0137636 0.0158846
0.187823 0.00691234 0.0142672
0.412695 0 0.00961318
0.742596 0 0.002533
0.999496 1.5259e-05 7.62951e-05
0.999496 1.5259e-05 7.62951e-05
0.999496 1.5259e-05 7.62951e-05
0 0.290288 0.162829
0 0.177874 0.0598611
0.0772259 0.0601511 0.0145418
0.259358 0.00314336 0.0129854
0.541497 0 0.00646983
0.895888 1.5259e-05 0.000610361
0.999496 1.5259e-05 7.62951e-05
0.999496 1.5259e-05 7.62951e-05
0.999496 1.5259e-05 7.62951e-05
0 0.653819 0.263951
0 0.519753 0.106004
0 0.362676 0.00297551
0.342138 0.177203 0.0099031
0.731075 0 0.0011902
0.999496 1.5259e-05 7.62951e-05
0.999496 1.5259e-05 7.62951e-05
0.999496 1.5259e-05 7.62951e-05
0.999496 1.5259e-05 7.62951e-05
0 0.949905 0.433829
0 0.888136 0.191379
0 0.791409 0
0.198611 0.638254 0
0.83183 0.422843 0.0500954
0.997742 0.184939 0.00236515
0.99942 0.00109865 0.000106813
0.999496 1.5259e-05 7.62951e-05
0.999496 1.5259e-05 7.62951e-05
0 1 0.656336
0 1 0.409522
0 1 0.0134279
0 0.963546 0
0.811505 0.880278 0
0.982727 0.78529 0.166857
0.976791 0.711254 0.187289
0.978546 0.657588 0.167071
0.981231 0.611292 0.141802
0 1 0.832929
0 1 0.647532
0 1 0.330983
0.284764 1 0
0.873137 0.998322 0
0.995651 0.976547 0.0610666
0.99498 0.962142 0.0751965
0.994354 0.948745 0.0872663
0.993667 0.933974 0.0995346
0 1 0.93463
0 1 0.828702
0 1 0.596857
0.596124 1 0.197986
0.94754 0.999695 0.000808728
0.996674 0.99855 0.0365911
0.996674 0.99855 0.0365911
0.996612 0.997177 0.0382086
0.996521 0.995132 0.04065
0 1 0.981155
0 1 0.932097
0 1 0.799588
0.780392 1 0.518654
0.987106 0.998825 0.104479
0.996674 0.99855 0.0365911
0.996674 0.99855 0.0365911
0.996674 0.99855 0.0365911
0.996674 0.99855 0.0365911
0.00898756 0.0154726 0.160876
0.0146792 0.0162051 0.0516365
0.0164034 0.0164034 0.0164034
0.0771344 0.0132448 0.0157931
0.240818 0.00404364 0.0133364
0.50135 0 0.0074464
0.854902 0 0.0010071
0.999496 1.5259e-05 7.62951e-05
0.999496 1.5259e-05 7.62951e-05
0.00137331 0.0387427 0.230167
0.0126955 0.0159762 0.0925612
0.0171817 0.0163424 0.0167086
0.118395 0.0109712 0.0152895
0.311589 0.00115969 0.0119173
0.606378 0 0.0049897
0.962249 1.5259e-05 0.000183108
0.999496 1.5259e-05 7.62951e-05
0.999496 1.5259e-05 7.62951e-05
0 0.241962 0.340688
0 0.140032 0.162814
0.0340276 0.0397955 0.0488746
0.191959 0.00668345 0.0142061
0.445243 0 0.00883497
0.769284 0 0.002121
0.999496 1.5259e-05 7.62951e-05
0.999496 1.5259e-05 7.62951e-05
0.999496 1.5259e-05 7.62951e-05
0 0.58761 0.514199
0 0.453346 0.304631
0 0.326406 0.138476
0.253056 0.178073 0.0229343
0.659022 0 0.00260929
0.980987 1.5259e-05 9.15541e-05
0.999496 1.5259e-05 7.62951e-05
0.999496 1.5259e-05 7.62951e-05
0.999496 1.5259e-05 7.62951e-05
0 0.915679 0.712779
0 0.842481 0.503105
0 0.751156 0.265293
0 0.632715 0
0.743709 0.42269 0.059968
0.997787 0.180774 0.00224308
0.999283 0.00843824 0.000167849
0.999496 1.5259e-05 7.62951e-05
0.999496 1.5259e-05 7.62951e-05
0 1 0.87274
0 1 0.723705
0 0.999695 0.471351
0 0.962127 0.0565347
0.68426 0.888945 0
0.983536 0.795041 0.163851
0.978195 0.729381 0.182666
0.976852 0.69131 0.183185
0.978607 0.656458 0.166522
0 1 0.957473
0 1 0.882307
0 1 0.708812
0 1 0.387076
0.775509 1 0
0.995804 0.979706 0.0577859
0.995224 0.967407 0.0701915
0.994751 0.957153 0.0798047
0.994202 0.945449 0.0900893
0 1 0.992584
0 1 0.961791
0 1 0.875563
0.227619 1 0.666163
0.885786 1 0.293309
0.996674 0.99855 0.0365911
0.996674 0.99855 0.0365911
0.996658 0.998108 0.0371099
0.996582 0.99649 0.0390173
0 1 1
0 1 0.99353
0 1 0.956985
0.582742 1 0.852171
0.945357 1 0.618097
0.996979 0.998734 0.265522
0.996674 0.99855 0.0365911
0.996674 0.99855 0.0365911
0.996674 0.99855 0.0365911
0 0.0125582 0.408087
0.00479133 0.0147402 0.237812
0.0115206 0.0158236 0.114824
0.0170138 0.0162661 0.0238956
0.161913 0.00842298 0.0146792
0.391638 0 0.0101167
0.73254 0 0.00268559
0.999496 1.5259e-05 7.62951e-05
0.999496 1.5259e-05 7.62951e-05
0 0.0171969 0.496162
0.00216678 0.0140841 0.296132
0.00886549 0.0154574 0.162936
0.054963 0.0139162 0.0701762
0.237034 0.00422675 0.0134127
0.49485 0 0.00761425
0.852369 0 0.00103761
0.999496 1.5259e-05 7.62951e-05
0.999496 1.5259e-05 7.62951e-05
0 0.197848 0.62417
0 0.110597 0.389685
0.00213626 0.0354925 0.214557
0.131991 0.00929274 0.130358
0.374212 6.10361e-05 0.0105287
0.645563 0 0.00422675
0.995361 1.5259e-05 7.62951e-05
0.999496 1.5259e-05 7.62951e-05
0.999496 1.5259e-05 7.62951e-05
0 0.520348 0.788403
0 0.386282 0.567102
0 0.267475 0.334035
0.171069 0.182452 0.167224
0.590448 0 0.00326543
0.852598 0 0.000671397
0.999496 1.5259e-05 7.62951e-05
0.999496 1.5259e-05 7.62951e-05
0.999496 1.5259e-05 7.62951e-05
0 0.872312 0.912581
0 0.777844 0.777768
0 0.668193 0.567697
0 0.57528 0.320134
0.658213 0.463142 0.100557
0.997543 0.198123 0.00280766
0.998642 0.101686 0.00077821
0.998718 0.0915084 0.000671397
0.998993 0.0523384 0.000396735
0 1 0.973892
0 1 0.915328
0 0.97496 0.78291
0 0.943999 0.544503
0.511589 0.900999 0.172259
0.985534 0.818692 0.156283
0.981552 0.771176 0.171069
0.979614 0.747295 0.177859
0.977279 0.717693 0.185687
0 1 0.999039
0 1 0.978149
0 1 0.921614
0 1 0.783902
0.62742 1 0.505135
0.985107 0.98378 0.0639963
0.99556 0.974609 0.0630503
0.995224 0.967437 0.070161
0.994812 0.958373 0.0786908
0 1 1
0 1 1
0 1 0.980514
0 1 0.920913
0.780957 1 0.767681
0.994064 0.999084 0.480827
0.996689 0.998566 0.0487831
0.996674 0.99855 0.0365911
0.996643 0.997879 0.0373846
0 1 1
0 1 1
0 1 1
0.225803 1 0.975692
0.878523 1 0.910307
0.997055 0.999496 0.756832
0.997482 0.998993 0.474189
0.996704 0.998581 0.0693065
0.996674 0.99855 0.0365911
0 0.00621042 0.772366
0 0.00949111 0.593011
0 0.0124208 0.416938
0.00366217 0.0144808 0.261051
0.0842145 0.0120546 0.111574
0.301472 0.00148013 0.0121309
0.62565 0 0.00460822
0.999496 1.5259e-05 7.62951e-05
0.999496 1.5259e-05 7.62951e-05
0 0.00572213 0.848859
0 0.00788891 0.680827
0 0.0108492 0.514549
0.000259403 0.0131075 0.369909
0.155077 0.00740063 0.193668
0.408179 0 0.0227665
0.761242 0 0.00224308
0.999496 1.5259e-05 7.62951e-05
0.999496 1.5259e-05 7.62951e-05
0 0.171069 0.926177
0 0.0971084 0.780865
0 0.0451514 0.620401
0.000198367 0.0166629 0.505501
0.277806 0.00117494 0.306477
0.564309 0 0.0662699
0.929488 1.5259e-05 0.000366217
0.999496 1.5259e-05 7.62951e-05
0.999496 1.5259e-05 7.62951e-05
0 0.481651 0.985977
0 0.359228 0.890883
0 0.263432 0.731548
0 0.225681 0.60061
0.454688 0.125689 0.432929
0.77763 0 0.0869612
0.999496 1.5259e-05 7.62951e-05
0.999496 1.5259e-05 7.62951e-05
0.999496 1.5259e-05 7.62951e-05
0 0.838972 1
0 0.732754 0.967437
0 0.610544 0.865965
0 0.516075 0.688487
0.52462 0.509651 0.522744
0.993011 0.308049 0.0950179
0.996048 0.278737 0.00767529
0.996368 0.263951 0.00640879
0.997238 0.218067 0.00361639
0 1 1
0 0.988846 0.994934
0 0.947433 0.9561
0 0.911833 0.863661
0.263111 0.896498 0.711727
0.975677 0.863447 0.432578
0.987045 0.836271 0.150393
0.984894 0.811063 0.15877
0.982223 0.779293 0.168658
0 1 1
0 1 1
0 1 0.993332
0 1 0.959823
0.383246 1 0.876829
0.954925 0.986816 0.689677
0.996384 0.980697 0.388006
0.995621 0.976043 0.0615854
0.9953 0.969009 0.0686351
0 1 1
0 1 1
0 1 1
0 1 0.993805
0.626612 1 0.958633
0.9626 1 0.875898
0.998291 0.998901 0.69601
0.997269 0.998886 0.396719
0.996674 0.99852 0.0366217
0 1 1
0 1 1
0 1 1
0 1 1
0.786816 1 0.987716
0.975738 1 0.956695
0.999191 0.998428 0.878416
0.998322 0.999146 0.69894
0.997299 0.998901 0.406378
0 0.00239567 1
0 0.00337224 0.939422
0 0.00515755 0.831525
0 0.00793469 0.67837
0 0.0112306 0.471809
0.205859 0.0043183 0.245991
0.524758 0 0.0580301
0.919326 1.5259e-05 0.000427253
0.999496 1.5259e-05 7.62951e-05
0 0.00250248 1
0 0.00270085 0.984421
0 0.00381476 0.910918
0 0.00563058 0.805295
0.000381476 0.00646983 0.62443
0.304952 0.000366217 0.364416
0.673838 0 0.12549
0.999496 1.5259e-05 7.62951e-05
0.999496 1.5259e-05 7.62951e-05
0 0.16582 1
0 0.0990616 1
0 0.0511635 0.970932
0 0.0247044 0.908553
0.0436103 0.00459297 0.780209
0.463584 0 0.508904
0.87071 0 0.212512
0.999619 1.5259e-05 0.00384527
0.999496 1.5259e-05 7.62951e-05
0 0.476692 1
0 0.370459 1
0 0.290135 1
0 0.254337 0.962493
0.0788128 0.220157 0.883833
0.674586 0.0842603 0.640482
1 0 0.316472
1 0 0.0681773
0.999496 1.5259e-05 7.62951e-05
0 0.829923 1
0 0.732601 1
0 0.628473 1
0 0.55848 0.985367
0 0.550134 0.920272
0.841978 0.481529 0.75404
1 0.433005 0.477882
0.993225 0.40058 0.221454
0.994324 0.341482 0.0160372
0 1 1
0 0.98381 1
0 0.942275 1
0 0.905455 0.999283
0 0.884382 0.958465
0.863035 0.856489 0.858366
0.989624 0.872831 0.720851
0.988449 0.855528 0.457923
0.986099 0.825406 0.19057
0 1 1
0 1 1
0 1 1
0 1 1
0 1 0.988952
0.881239 0.987716 0.947784
0.998413 0.982391 0.874647
0.997406 0.97998 0.700389
0.99617 0.975219 0.411124
0 1 1
0 1 1
0 1 1
0 1 1
0.323796 1 0.999817
0.919814 1 0.983551
0.994385 0.998352 0.953124
0.99913 0.997909 0.872267
0.998215 0.997971 0.688289
0 1 1
0 1 1
0 1 1
0 1 1
0.627314 1 1
0.9514 1 0.99501
0.995911 0.998169 0.983673
0.999603 0.998032 0.952636
0.99913 0.998459 0.866331
0 0.00166323 1
0 0.00178531 1
0 0.00207523 1
0 0.00270085 0.983719
0 0.00422675 0.88574
0.0141146 0.00376898 0.69337
0.401266 0 0.430259
0.816114 0 0.184375
0.999588 1.5259e-05 0.00202945
0 0.00262455 1
0 0.00169375 1
0 0.00184634 1
0 0.00215152 1
0 0.00292973 0.968078
0.105028 0.000427253 0.830259
0.544686 0 0.58024
0.970642 0 0.298528
1 0 0.0561837
0 0.175692 1
0 0.114916 1
0 0.0677348 1
0 0.0353552 1
0 0.0137484 1
0.257389 0 0.937102
0.742061 0 0.73846
1 0 0.452857
1 0 0.191058
0 0.494072 1
0 0.401404 1
0 0.328344 1
0 0.28687 1
0 0.258747 1
0.407279 0.188022 0.996338
0.941238 0.00172427 0.871717
1 0 0.637064
1 0 0.360235
0 0.841657 1
0 0.760555 1
0 0.678965 1
0 0.624475 1
0 0.601816 1
0.476066 0.566552 1
1 0.513985 0.951797
1 0.470985 0.80531
1 0.413886 0.556115
0 1 1
0 0.990341 1
0 0.958022 1
0 0.929442 1
0 0.911574 1
0.50808 0.890837 1
0.984924 0.883345 0.977066
1 0.874952 0.908568
0.991592 0.853941 0.753872
0 1 1
0 1 1
0 1 1
0 1 1
0 1 1
0.699794 0.998383 1
0.972885 0.984436 0.988739
0.99852 0.981567 0.963485
0.998245 0.977447 0.887861
0 1 1
0 1 1
0 1 1
0 1 1
0 1 1
0.83093 1 1
0.980362 0.998962 0.995361
0.998764 0.997543 0.985443
0.999588 0.997208 0.954955
0 1 1
0 1 1
0 1 1
0 1 1
0.316732 1 1
0.903349 1 0.999115
0.988571 0.998535 0.997971
0.99942 0.996948 0.995605
0.998734 0.997894 0.983261
0 0.00157168 1
0 0.00157168 1
0 0.00161746 1
0 0.00169375 1
0 0.00192264 1
0 0.00187686 0.994934
0.213291 0 0.875273
0.671992 0 0.650095
1 0 0.372351
0 0.0041352 1
0 0.00157168 1
0 0.00158694 1
0 0.00161746 1
0 0.00172427 1
0 0.000564584 1
0.358373 0 0.963317
0.837171 0 0.797101
1 0 0.532509
0 0.193408 1
0 0.136141 1
0 0.0891585 1
0 0.0545663 1
0 0.0279393 1
0.00302129 0.0027924 1
0.556069 0 1
1 0 0.918975
1 0 0.71548
0 0.524392 1
0 0.440452 1
0 0.370901 1
0 0.324819 1
0 0.29427 1
0.0802472 0.249393 1
0.752056 0.123781 1
1 0 0.99202
1 0 0.871885
0 0.864576 1
0 0.799298 1
0 0.733166 1
0 0.684932 1
0 0.658289 1
0 0.633753 1
0.854688 0.579446 1
1 0.522255 1
1 0.46479 0.956359
0 1 1
0 1 1
0 0.978897 1
0 0.958724 1
0 0.946654 1
0 0.930663 1
0.87068 0.901946 1
1 0.886458 1
1 0.86743 0.978378
0 1 1
0 1 1
0 1 1
0 1 1
0 1 1
0.35613 1 1
0.915282 0.989197 1
0.995636 0.98291 0.997925
1 0.979263 0.988754
0 1 1
0 1 1
0 1 1
0 1 1
0 1 1
0.649836 1 1
0.951919 1 0.998489
0.994827 0.997436 0.998352
0.999786 0.99617 0.996536
0 1 1
0 1 1
0 1 1
0 1 1
0 1 1
0.804532 1 1
0.973648 0.999649 0.998169
0.99765 0.99765 0.998077
0.997833 0.997833 0.997833
0 0.00157168 1
0 0.00157168 1
0 0.00157168 1
0 0.00157168 1
0 0.00158694 1
0 0.00167849 1
0.000122072 1.5259e-05 1
0.491127 0 0.98407
0.945769 0 0.842512
0 0.00706493 1
0 0.00157168 1
0 0.00157168 1
0 0.00157168 1
0 0.00157168 1
0 0.00125124 1
0.164508 0 1
0.669337 0 1
1 0 0.94168
0 0.215869 1
0 0.16022 1
0 0.113039 1
0 0.0763714 1
0 0.0470283 1
0 0.0162051 1
0.362875 0 1
0.868238 0 1
1 0 1
0 0.561288 1
0 0.484215 1
0 0.416541 1
0 0.366232 1
0 0.331594 1
0 0.29482 1
0.530785 0.21387 1
1 0.00608835 1
1 0 1
0 0.890974 1
0 0.837995 1
0 0.783825 1
0 0.740032 1
0 0.711879 1
0 0.687068 1
0.608759 0.637034 1
1 0.566674 1
1 0.503914 1
0 1 1
0 1 1
0 0.997345 1
0 0.982544 1
0 0.972824 1
0 0.959152 1
0.671687 0.925643 1
0.985855 0.898314 1
1 0.878431 1
0 1 1
0 1 1
0 1 1
0 1 1
0 1 1
0 1 1
0.797925 0.998154 1
0.975586 0.985306 0.999878
1 0.980636 0.999741
0 1 1
0 1 1
0 1 1
0 1 1
0 1 1
0.30132 1 1
0.889509 1 0.999298
0.984314 0.998688 0.998047
0.99765 0.997497 0.998032
0 1 1
0 1 1
0 1 1
0 1 1
0 1 1
0.620035 1 1
0.940795 1 0.998627
0.992248 0.99826 0.997925
0.997833 0.997833 0.997833
