public/assets/luts/disposable.cube
TITLE "Generated by Resolve"
LUT_3D_SIZE 5
0.0164034 0.0164034 0.0164034
0.109987 0.0114443 0.0153964
0.465187 0 0.00834669
0.999496 1.5259e-05 7.62951e-05
0.999496 1.5259e-05 7.62951e-05
0 0.325063 0.0180819
0.16144 0.0762798 0.0146181
0.676524 0 0.00366217
0.999496 1.5259e-05 7.62951e-05
0.999496 1.5259e-05 7.62951e-05
0 0.970687 0.0966812
0 0.812085 0
0.9281 0.439002 0.0489052
0.999298 0.00767529 0.000167849
0.999496 1.5259e-05 7.62951e-05
0 1 0.585214
0 1 0
0.935241 0.994293 0.000122072
0.994873 0.959686 0.0774853
0.993301 0.925948 0.105821
0 1 0.903243
0.430472 1 0.477653
0.996674 0.99855 0.0365911
0.996674 0.99855 0.0365911
0.996674 0.99855 0.0365911
0.00898756 0.0154726 0.160876
0.0164034 0.0164034 0.0164034
0.240818 0.00404364 0.0133364
0.854902 0 0.0010071
0.999496 1.5259e-05 7.62951e-05
0 0.241962 0.340688
0.0340276 0.0397955 0.0488746
0.445243 0 0.00883497
0.999496 1.5259e-05 7.62951e-05
0.999496 1.5259e-05 7.62951e-05
0 0.915679 0.712779
0 0.751156 0.265293
0.743709 0.42269 0.059968
0.999283 0.00843824 0.000167849
0.999496 1.5259e-05 7.62951e-05
0 1 0.957473
0 1 0.708812
0.775509 1 0
0.995224 0.967407 0.0701915
0.994202 0.945449 0.0900893
0 1 1
0 1 0.956985
0.945357 1 0.618097
0.996674 0.99855 0.0365911
0.996674 0.99855 0.0365911
0 0.00621042 0.772366
0 0.0124208 0.416938
0.0842145 0.0120546 0.111574
0.62565 0 0.00460822
0.999496 1.5259e-05 7.62951e-05
0 0.171069 0.926177
0 0.0451514 0.620401
0.277806 0.00117494 0.306477
0.929488 1.5259e-05 0.000366217
0.999496 1.5259e-05 7.62951e-05
0 0.838972 1
0 0.610544 0.865965
0.52462 0.509651 0.522744
0.996048 0.278737 0.00767529
0.997238 0.218067 0.00361639
0 1 1
0 1 0.993332
0.383246 1 0.876829
0.996384 0.980697 0.388006
0.9953 0.969009 0.0686351
0 1 1
0 1 1
0.786816 1 0.987716
0.999191 0.998428 0.878416
0.997299 0.998901 0.406378
0 0.00166323 1
0 0.00207523 1
0 0.00422675 0.88574
0.401266 0 0.430259
0.999588 1.5259e-05 0.00202945
0 0.175692 1
0 0.0677348 1
0 0.0137484 1
0.742061 0 0.73846
1 0 0.191058
0 0.841657 1
0 0.678965 1
0 0.601816 1
1 0.513985 0.951797
1 0.413886 0.556115
0 1 1
0 1 1
0 1 1
0.972885 0.984436 0.988739
0.998245 0.977447 0.887861
0 1 1
0 1 1
0.316732 1 1
0.988571 0.998535 0.997971
0.998734 0.997894 0.983261
0 0.00157168 1
0 0.00157168 1
0 0.00158694 1
0.000122072 1.5259e-05 1
0.945769 0 0.842512
0 0.215869 1
0 0.113039 1
0 0.0470283 1
0.362875 0 1
1 0 1
0 0.890974 1
0 0.783825 1
0 0.711879 1
0.608759 0.637034 1
1 0.503914 1
0 1 1
0 1 1
0 1 1
0.797925 0.998154 1
1 0.980636 0.999741
0 1 1
0 1 1
0 1 1
0.940795 1 0.998627
0.997833 0.997833 0.997833
