public/assets/luts/monochrome.cube
TITLE "Generated by Resolve"
LUT_3D_SIZE 9
0.0657511 0.0656443 0.0656443
0.0657664 0.0656748 0.0656596
0.0656748 0.0655833 0.0655833
0.0665599 0.0664225 0.0664073
0.0903487 0.090074 0.0900435
0.0954604 0.0950484 0.0950027
0.1028 0.102464 0.102434
0.562402 0.560967 0.560845
0.634791 0.633524 0.633387
0.0658122 0.0657359 0.0657206
0.0663005 0.0662089 0.0661936
0.0665599 0.0664683 0.066453
0.0671244 0.0670024 0.0669871
0.0903639 0.090074 0.0900435
0.0954604 0.0950484 0.0950027
0.1028 0.102464 0.102434
0.563867 0.562448 0.56231
0.634791 0.633524 0.633387
0.0659495 0.0658732 0.0658732
0.0664225 0.066331 0.066331
0.0674754 0.0673686 0.0673686
0.06981 0.0696727 0.0696727
0.0903639 0.0900893 0.0900435
0.0954604 0.0950484 0.0950027
0.1028 0.102464 0.102434
0.565667 0.564508 0.56437
0.634791 0.633524 0.633387
0.0755779 0.0754711 0.0754559
0.0759442 0.0758221 0.0758221
0.0765393 0.0764172 0.0764019
0.0853895 0.0852064 0.0851911
0.0867781 0.0864576 0.0864271
0.0953231 0.0949111 0.0948806
0.10277 0.102434 0.102403
0.573877 0.572427 0.572305
0.634806 0.633539 0.633417
0.272648 0.271565 0.271473
0.223728 0.222797 0.222721
0.180957 0.18024 0.180179
0.214801 0.213901 0.213825
0.337377 0.336202 0.33611
0.338338 0.337194 0.337102
0.352453 0.351293 0.351186
0.597086 0.595682 0.595575
0.634928 0.633692 0.63357
0.600137 0.598505 0.598352
0.609079 0.607477 0.60734
0.490242 0.488701 0.488563
0.451011 0.449546 0.449424
0.590204 0.588647 0.58851
0.66273 0.661128 0.66099
0.678248 0.676555 0.676417
0.848386 0.846769 0.846632
0.838148 0.8365 0.836347
0.588327 0.586648 0.586496
0.589487 0.587823 0.587671
0.591424 0.589761 0.589609
0.598077 0.596399 0.596262
0.662913 0.661219 0.661067
0.783703 0.781964 0.781811
0.862074 0.860624 0.860517
0.902556 0.901061 0.900923
0.945922 0.944915 0.944823
0.875639 0.874022 0.873884
0.875807 0.874205 0.874067
0.876036 0.874418 0.874281
0.876661 0.875135 0.874998
0.878691 0.877104 0.876997
0.910262 0.908843 0.908721
0.918196 0.916869 0.916762
0.930144 0.928862 0.928756
0.951843 0.950713 0.950622
0.955474 0.954314 0.954208
0.955489 0.95433 0.954223
0.95552 0.95436 0.954269
0.955627 0.954482 0.954376
0.956085 0.955077 0.954986
0.956756 0.955718 0.955642
0.957092 0.955978 0.955901
0.958373 0.957229 0.957137
0.961563 0.960464 0.960372
0.0657359 0.0656443 0.0656291
0.0659495 0.0658885 0.0658732
0.0659342 0.0658732 0.0658579
0.0667582 0.0666209 0.0666056
0.0903639 0.0900893 0.0900587
0.0954604 0.0950484 0.0950027
0.103365 0.102922 0.102876
0.562905 0.561471 0.561349
0.634852 0.6336 0.633478
0.0662242 0.0661326 0.0661173
0.0664073 0.0663157 0.0663005
0.0664073 0.0663157 0.0663157
0.067155 0.0670176 0.0670024
0.0903792 0.0900893 0.0900587
0.0954604 0.0950484 0.0950027
0.10338 0.102937 0.102892
0.564324 0.56289 0.562768
0.634852 0.6336 0.633478
0.0662394 0.0661479 0.0661479
0.0665141 0.0664225 0.0664073
0.0676127 0.0675059 0.0675059
0.069688 0.0695506 0.0695354
0.0903792 0.0901045 0.0900587
0.0954604 0.0950484 0.0950027
0.103426 0.102968 0.102922
0.566262 0.565057 0.564965
0.634852 0.6336 0.633478
0.0755932 0.0754864 0.0754711
0.0759289 0.0758068 0.0757916
0.076524 0.0764019 0.0763867
0.0859693 0.0857862 0.085771
0.086656 0.0863508 0.0863203
0.0953231 0.0949264 0.0948806
0.103609 0.103166 0.10312
0.574685 0.573297 0.573175
0.634867 0.633631 0.633494
0.274922 0.273884 0.273793
0.226581 0.225635 0.225559
0.17908 0.178378 0.178317
0.218418 0.217578 0.217517
0.337591 0.336416 0.336309
0.338109 0.336965 0.336858
0.352071 0.350927 0.35082
0.598123 0.596674 0.596551
0.634989 0.633768 0.633646
0.603021 0.601373 0.601236
0.605982 0.604593 0.604486
0.526482 0.525063 0.524956
0.454322 0.453056 0.452934
0.592554 0.590997 0.59086
0.665827 0.66421 0.664103
0.682185 0.680507 0.680354
0.849577 0.847959 0.847822
0.837125 0.835462 0.835325
0.592111 0.590433 0.590295
0.593301 0.591638 0.591485
0.59501 0.593362 0.59321
0.601511 0.599832 0.599695
0.666087 0.664393 0.66424
0.787762 0.786023 0.78587
0.864073 0.862455 0.862318
0.903288 0.901793 0.901671
0.946044 0.945006 0.94493
0.876402 0.8748 0.874647
0.876509 0.874922 0.874784
0.876646 0.875105 0.874983
0.877333 0.875975 0.875837
0.879362 0.877775 0.877638
0.910887 0.909468 0.909346
0.918669 0.917342 0.917235
0.930465 0.929183 0.929076
0.951934 0.95079 0.950713
0.95552 0.95436 0.954269
0.955535 0.954376 0.954269
0.95555 0.954391 0.954299
0.955642 0.954498 0.954391
0.95613 0.955139 0.955032
0.956802 0.955749 0.955673
0.957153 0.956024 0.955947
0.958389 0.957244 0.957153
0.961563 0.960464 0.960372
0.0657206 0.0656291 0.0656291
0.0657969 0.0657054 0.0657054
0.0663462 0.0662547 0.0662547
0.0673075 0.0671702 0.067155
0.0839399 0.0836805 0.08365
0.095964 0.095552 0.0955215
0.105287 0.104829 0.104784
0.564446 0.562997 0.562875
0.634989 0.633768 0.633646
0.0663157 0.0662242 0.0662089
0.0663767 0.0662852 0.0662699
0.0669108 0.0668193 0.0668193
0.0675059 0.0673686 0.0673533
0.084062 0.0838331 0.0838178
0.0959793 0.0955673 0.0955215
0.105287 0.104829 0.104784
0.565621 0.564431 0.564309
0.634989 0.633768 0.633646
0.0672618 0.0671702 0.067155
0.0675212 0.0674144 0.0674144
0.0678264 0.0677348 0.0677348
0.0686809 0.0685435 0.0685435
0.0847944 0.0844892 0.0844587
0.0959945 0.0955825 0.095552
0.105318 0.104845 0.104799
0.568032 0.566583 0.566461
0.634989 0.633768 0.633646
0.0760204 0.0758984 0.0758831
0.0761273 0.0760052 0.0760052
0.0765698 0.0764477 0.0764324
0.0868086 0.0866407 0.0866255
0.0870527 0.0867933 0.0867628
0.0958724 0.0954604 0.0954299
0.105486 0.105028 0.104967
0.575906 0.574701 0.574609
0.635004 0.633799 0.633677
0.298421 0.297292 0.2972
0.228122 0.227359 0.227298
0.173938 0.173251 0.17319
0.216388 0.215488 0.215396
0.338338 0.337179 0.337072
0.340444 0.3393 0.339193
0.353643 0.352483 0.352392
0.599496 0.598032 0.59791
0.635126 0.633921 0.633799
0.605417 0.604059 0.603922
0.602853 0.601221 0.601083
0.576211 0.574792 0.574685
0.455589 0.454231 0.454139
0.596551 0.595193 0.595087
0.671885 0.670253 0.670115
0.687602 0.685908 0.685756
0.851438 0.849836 0.849699
0.838392 0.836744 0.836606
0.597162 0.59556 0.595453
0.598413 0.59675 0.596597
0.600412 0.598733 0.598596
0.607111 0.605447 0.60531
0.671672 0.669963 0.66981
0.793622 0.791867 0.791714
0.867247 0.865614 0.865476
0.904448 0.902968 0.902846
0.946273 0.945174 0.945098
0.877256 0.875914 0.875776
0.877348 0.876005 0.875853
0.877531 0.876173 0.876036
0.87834 0.876829 0.876722
0.880507 0.87892 0.878782
0.912001 0.910597 0.910475
0.919509 0.918196 0.91809
0.930907 0.929625 0.929519
0.952056 0.950896 0.950805
0.955566 0.954406 0.954314
0.955581 0.954421 0.95433
0.955612 0.954452 0.95436
0.955688 0.954559 0.954452
0.956191 0.9552 0.955108
0.956878 0.95581 0.955734
0.957244 0.9561 0.956024
0.958465 0.957321 0.957229
0.961563 0.960464 0.960372
0.0690929 0.0690013 0.068986
0.068986 0.0688792 0.0688792
0.068925 0.0688334 0.0688182
0.0752575 0.0751202 0.0751049
0.0950484 0.0946517 0.0946212
0.419791 0.418524 0.418418
0.113481 0.112963 0.112902
0.570382 0.568963 0.568826
0.635615 0.634302 0.634195
0.0698558 0.069749 0.0697337
0.069688 0.0695811 0.0695811
0.0695506 0.0694591 0.0694438
0.0750744 0.0749371 0.0749218
0.0950332 0.0946365 0.0945907
0.422263 0.420996 0.42089
0.113359 0.11284 0.112795
0.571679 0.570245 0.570123
0.635645 0.634318 0.634211
0.071397 0.0712902 0.0712749
0.0711681 0.0710613 0.071046
0.0710155 0.0709087 0.0708934
0.0753185 0.075227 0.0752117
0.0948196 0.0944686 0.0944381
0.425223 0.42417 0.424063
0.113237 0.112718 0.112673
0.574075 0.572625 0.572503
0.635645 0.634318 0.634211
0.0900282 0.0898299 0.0898146
0.0896315 0.0894331 0.0894179
0.0889143 0.088716 0.0887007
0.0981765 0.0979324 0.0979019
0.0885328 0.0882124 0.0881819
0.101884 0.101442 0.101396
0.113191 0.112673 0.112612
0.582406 0.580957 0.580835
0.63566 0.634333 0.634226
0.402716 0.401495 0.401389
0.294591 0.29369 0.293584
0.181537 0.180835 0.180774
0.198657 0.197848 0.197772
0.368887 0.367681 0.36759
0.360845 0.35967 0.359579
0.364797 0.363821 0.363714
0.606088 0.604791 0.6047
0.635798 0.634424 0.634333
0.631708 0.630076 0.629938
0.621485 0.619837 0.619684
0.630365 0.628733 0.628595
0.442847 0.441413 0.441291
0.508721 0.507164 0.507027
0.700893 0.699214 0.699062
0.705257 0.703532 0.703395
0.858152 0.856565 0.856428
0.838193 0.83653 0.836393
0.617487 0.615808 0.615656
0.618601 0.616922 0.61677
0.620752 0.619074 0.618936
0.628565 0.626886 0.626749
0.690196 0.688472 0.688334
0.816297 0.814588 0.814435
0.877836 0.876463 0.876356
0.909438 0.908003 0.907881
0.94728 0.94612 0.946014
0.881559 0.879973 0.879835
0.881727 0.88014 0.880003
0.881956 0.880385 0.880247
0.882872 0.8813 0.881163
0.8851 0.883558 0.883421
0.915831 0.914656 0.914565
0.922744 0.921447 0.921355
0.933074 0.931853 0.931731
0.952667 0.951507 0.951415
0.955764 0.954665 0.954559
0.955764 0.954665 0.954559
0.955795 0.954696 0.954589
0.955871 0.954803 0.954696
0.956466 0.955489 0.955383
0.957244 0.9561 0.956024
0.95758 0.956436 0.956329
0.958724 0.95758 0.957488
0.961563 0.960464 0.960372
0.0899214 0.0897078 0.0896773
0.0919661 0.0917372 0.0917067
0.0941634 0.093904 0.0938735
0.107179 0.106905 0.106889
0.17322 0.172396 0.172335
0.376791 0.375677 0.37557
0.160098 0.159319 0.159243
0.58645 0.58529 0.585168
0.638453 0.636927 0.636805
0.0898909 0.0896773 0.089662
0.0901961 0.0899977 0.0899825
0.0907607 0.090547 0.0905165
0.107317 0.107012 0.106996
0.172671 0.171862 0.171786
0.376822 0.375692 0.375586
0.159823 0.159045 0.158968
0.588113 0.586648 0.586526
0.638453 0.636927 0.636805
0.0912947 0.0910658 0.0910506
0.090837 0.0906081 0.0905928
0.0905013 0.0903334 0.0903182
0.100496 0.100191 0.10016
0.173449 0.172625 0.172549
0.376852 0.375723 0.375616
0.158755 0.157992 0.157916
0.5906 0.589136 0.589014
0.638453 0.636927 0.636805
0.124102 0.123659 0.123629
0.12224 0.121828 0.121798
0.119265 0.118853 0.118807
0.115251 0.114855 0.114824
0.167651 0.166888 0.166812
0.227558 0.226703 0.226612
0.149783 0.149081 0.149004
0.599527 0.598047 0.597925
0.638483 0.636973 0.636835
0.39118 0.38999 0.389883
0.389807 0.388602 0.388495
0.390631 0.389441 0.389334
0.406836 0.4056 0.405493
0.528374 0.527001 0.526894
0.267002 0.266056 0.265995
0.226413 0.225406 0.22533
0.629343 0.627848 0.627726
0.638605 0.637095 0.636957
0.765805 0.76408 0.763928
0.761257 0.759838 0.759686
0.737209 0.735515 0.735363
0.541009 0.539452 0.539315
0.588708 0.587106 0.586969
0.778408 0.776699 0.776547
0.781064 0.779675 0.779522
0.881163 0.879622 0.879484
0.840177 0.838529 0.838376
0.674006 0.672602 0.672465
0.675669 0.673976 0.673823
0.678447 0.676722 0.676585
0.687831 0.686122 0.685969
0.736004 0.734234 0.734081
0.869398 0.86804 0.867887
0.906767 0.905303 0.90518
0.925795 0.924498 0.924392
0.95082 0.949828 0.949722
0.895171 0.893645 0.893523
0.895369 0.893858 0.893721
0.895705 0.894179 0.894041
0.896696 0.895171 0.895033
0.89984 0.898344 0.898207
0.929381 0.928084 0.927977
0.933577 0.932509 0.932403
0.94049 0.939467 0.939361
0.955062 0.953902 0.953796
0.956451 0.955474 0.955367
0.956436 0.955459 0.955352
0.956481 0.955505 0.955398
0.956695 0.955673 0.955596
0.957412 0.956268 0.956161
0.958572 0.957427 0.957321
0.958801 0.957656 0.957565
0.959808 0.958663 0.958556
0.961563 0.960464 0.960372
0.126909 0.126421 0.126375
0.128176 0.127779 0.127733
0.128435 0.127962 0.127932
0.386175 0.385168 0.385092
0.606775 0.605295 0.605203
0.465141 0.463996 0.46389
0.236591 0.235554 0.235462
0.605554 0.604364 0.604242
0.644541 0.64332 0.643183
0.124895 0.124422 0.124392
0.126909 0.126436 0.12639
0.128878 0.128374 0.128328
0.400549 0.399298 0.399191
0.606806 0.60531 0.605219
0.473579 0.472267 0.47216
0.236622 0.235599 0.235492
0.607355 0.605859 0.605737
0.644541 0.64332 0.643183
0.122393 0.122011 0.121965
0.12256 0.122225 0.122194
0.126955 0.126467 0.126421
0.429358 0.428 0.427893
0.389029 0.3879 0.387793
0.483345 0.482017 0.48191
0.236667 0.23566 0.235554
0.610056 0.60856 0.608423
0.644541 0.64332 0.643183
0.144518 0.143923 0.143877
0.143282 0.142702 0.142641
0.14136 0.140795 0.140734
0.139498 0.138933 0.138888
0.401877 0.400717 0.400626
0.232364 0.231235 0.231128
0.237842 0.236774 0.236713
0.619821 0.618326 0.618189
0.644556 0.64332 0.643198
0.405661 0.404517 0.40444
0.4047 0.403616 0.40351
0.400839 0.399573 0.399451
0.383368 0.382101 0.381994
0.375998 0.374792 0.374701
0.392233 0.390936 0.390829
0.332372 0.331136 0.331029
0.652445 0.650904 0.650767
0.644663 0.643397 0.64329
0.694026 0.692363 0.692256
0.696483 0.694789 0.694652
0.700954 0.699245 0.699107
0.715648 0.713924 0.713771
0.743221 0.74168 0.741558
0.902922 0.901457 0.90132
0.816251 0.814603 0.81445
0.926528 0.925246 0.925139
0.84358 0.842145 0.841993
0.771374 0.769787 0.76968
0.772686 0.770901 0.770748
0.77435 0.77258 0.772427
0.781079 0.779614 0.779446
0.818082 0.816632 0.81648
0.924819 0.923506 0.9234
0.945586 0.944595 0.944503
0.951537 0.950469 0.950393
0.959136 0.957992 0.9579
0.915206 0.914046 0.913924
0.915389 0.914229 0.914122
0.915663 0.914504 0.914382
0.917189 0.915846 0.915724
0.921431 0.920302 0.920195
0.950103 0.948943 0.948837
0.95375 0.95259 0.952483
0.955764 0.954665 0.954559
0.960769 0.959625 0.959533
0.957748 0.956588 0.956497
0.957809 0.956664 0.956558
0.95787 0.956725 0.956619
0.958099 0.956939 0.956847
0.958984 0.957839 0.957732
0.96144 0.960296 0.960204
0.961471 0.960342 0.960235
0.961517 0.960403 0.960296
0.961563 0.960464 0.960372
0.146731 0.146258 0.146212
0.146838 0.146365 0.146319
0.146975 0.146471 0.146441
0.149111 0.14847 0.148409
0.389944 0.3888 0.388708
0.637781 0.636255 0.636118
0.246098 0.245136 0.245045
0.628473 0.626963 0.626825
0.646479 0.644938 0.644816
0.14699 0.146487 0.146441
0.147127 0.146593 0.146548
0.14725 0.14667 0.146624
0.149416 0.14876 0.148699
0.389975 0.38883 0.388739
0.637781 0.636255 0.636118
0.246098 0.245136 0.245045
0.629114 0.627604 0.627466
0.646479 0.644938 0.6448
0.147509 0.146868 0.146838
0.147662 0.147021 0.146975
0.147753 0.147112 0.147066
0.149859 0.149203 0.149142
0.390005 0.388861 0.388769
0.637781 0.636255 0.636118
0.246098 0.245136 0.245045
0.630457 0.628946 0.628809
0.646479 0.644938 0.6448
0.155673 0.154986 0.154925
0.15581 0.155123 0.155062
0.155703 0.155016 0.154955
0.156817 0.156115 0.156054
0.168093 0.167498 0.167422
0.638224 0.636713 0.636576
0.246098 0.245136 0.245045
0.634958 0.633738 0.6336
0.646494 0.644968 0.644831
0.371923 0.370672 0.370565
0.371893 0.370642 0.370535
0.371786 0.370535 0.370413
0.369848 0.368582 0.368475
0.380102 0.378851 0.378729
0.682582 0.681102 0.680964
0.331365 0.330068 0.329961
0.651896 0.650339 0.650202
0.646586 0.645045 0.644907
0.711635 0.709911 0.709773
0.71281 0.711391 0.711238
0.715908 0.714168 0.714031
0.723369 0.721752 0.721645
0.748959 0.747204 0.747051
0.859052 0.857466 0.857328
0.886915 0.885481 0.88539
0.931121 0.929839 0.929732
0.831418 0.82977 0.829618
0.863554 0.861921 0.861784
0.865141 0.863508 0.863355
0.867643 0.866011 0.865873
0.876493 0.874907 0.874769
0.902037 0.900511 0.900404
0.945464 0.944457 0.94435
0.958465 0.957321 0.957229
0.960662 0.959533 0.959426
0.961456 0.960311 0.96022
0.920256 0.918929 0.918822
0.920363 0.919036 0.918929
0.920699 0.919387 0.91928
0.921798 0.920684 0.920577
0.925841 0.924529 0.924407
0.954162 0.952987 0.952895
0.960784 0.959655 0.959564
0.961212 0.960082 0.959991
0.961501 0.960388 0.960296
0.957855 0.95671 0.956603
0.957885 0.956741 0.956634
0.957961 0.956817 0.95671
0.958236 0.957092 0.956985
0.959106 0.957961 0.95787
0.961456 0.960311 0.96022
0.961471 0.960342 0.960235
0.961517 0.960403 0.960296
0.961563 0.960464 0.960372
0.151263 0.150591 0.15053
0.150561 0.149889 0.149828
0.148745 0.148074 0.148028
0.145525 0.144884 0.144823
0.179934 0.17908 0.179004
0.638727 0.637201 0.637064
0.64712 0.645579 0.645457
0.635721 0.634363 0.634272
0.64654 0.644999 0.644877
0.151202 0.150546 0.150484
0.150469 0.149798 0.149737
0.148653 0.147997 0.147936
0.145418 0.144778 0.144732
0.175479 0.174823 0.174762
0.638727 0.637201 0.637064
0.64712 0.645579 0.645457
0.636088 0.634623 0.634531
0.64654 0.644999 0.644877
0.151171 0.1505 0.150454
0.150561 0.149889 0.149828
0.148608 0.147951 0.14789
0.145418 0.144778 0.144732
0.172442 0.171649 0.171572
0.638727 0.637201 0.637064
0.64712 0.645579 0.645457
0.636774 0.635248 0.635111
0.64654 0.644999 0.644877
0.151064 0.150408 0.150347
0.150317 0.14966 0.149599
0.148409 0.147753 0.147707
0.145373 0.144732 0.144671
0.167071 0.166293 0.166232
0.638727 0.637201 0.637064
0.64712 0.645579 0.645457
0.639094 0.637568 0.63743
0.646571 0.645029 0.644892
0.255665 0.254826 0.254749
0.255772 0.254902 0.254826
0.257359 0.25626 0.256168
0.287098 0.285939 0.285847
0.307652 0.306447 0.30634
0.718929 0.71725 0.717113
0.639261 0.63772 0.637598
0.644068 0.642756 0.642618
0.646632 0.64509 0.644953
0.705516 0.703807 0.703655
0.706462 0.704738 0.704601
0.708003 0.706279 0.706142
0.712139 0.710521 0.710369
0.756588 0.754864 0.754711
0.827085 0.825711 0.825574
0.872221 0.870634 0.870497
0.925856 0.924575 0.924453
0.760082 0.758373 0.758236
0.899962 0.898482 0.89836
0.900236 0.898863 0.898726
0.900908 0.899611 0.899489
0.903609 0.902098 0.901976
0.915419 0.91426 0.914137
0.948913 0.947738 0.947646
0.959579 0.958434 0.958343
0.960906 0.959762 0.95967
0.961471 0.960342 0.960235
0.922866 0.921553 0.921431
0.923049 0.921752 0.92163
0.923308 0.921996 0.921889
0.924224 0.922927 0.922805
0.92784 0.926726 0.926619
0.955093 0.953918 0.953826
0.960983 0.959854 0.959747
0.961288 0.960159 0.960067
0.961517 0.960403 0.960296
0.958358 0.957214 0.957122
0.958358 0.957214 0.957122
0.958389 0.957244 0.957153
0.958556 0.957412 0.957305
0.959503 0.958358 0.958267
0.961471 0.960342 0.960235
0.961486 0.960372 0.960266
0.961532 0.960418 0.960311
0.961563 0.960464 0.960372
0.40737 0.40621 0.406119
0.407706 0.406546 0.406439
0.40824 0.407065 0.406958
0.409415 0.40824 0.408133
0.413993 0.412924 0.412818
0.423484 0.422293 0.422187
0.64712 0.645579 0.645457
0.640864 0.639338 0.6392
0.646571 0.645029 0.644892
0.407446 0.406271 0.40618
0.407706 0.406546 0.406439
0.408103 0.406928 0.406836
0.409415 0.408255 0.408148
0.414008 0.41294 0.412848
0.423484 0.422293 0.422187
0.64712 0.645579 0.645457
0.64094 0.639414 0.639277
0.646571 0.645029 0.644892
0.407462 0.406287 0.406195
0.407767 0.406592 0.4065
0.40824 0.407065 0.406958
0.409415 0.408255 0.408148
0.414023 0.412955 0.412863
0.423484 0.422293 0.422187
0.64712 0.645579 0.645457
0.641108 0.639582 0.639445
0.646571 0.645029 0.644892
0.407492 0.406317 0.406226
0.407797 0.406622 0.406531
0.40824 0.407065 0.406958
0.409461 0.408286 0.408194
0.414023 0.412955 0.412863
0.423484 0.422293 0.422187
0.64712 0.645579 0.645457
0.641657 0.640131 0.639994
0.646586 0.645045 0.644907
0.407691 0.406531 0.406424
0.407996 0.406821 0.406729
0.408392 0.407218 0.407126
0.409537 0.408377 0.40827
0.414084 0.413046 0.41294
0.446296 0.44506 0.444953
0.64712 0.645579 0.645457
0.64361 0.642161 0.642039
0.646632 0.64509 0.644953
0.691402 0.689784 0.689647
0.692302 0.690883 0.690745
0.694621 0.692988 0.692851
0.703456 0.702129 0.701991
0.724529 0.722866 0.722728
0.760357 0.758709 0.758572
0.889921 0.888426 0.888304
0.857893 0.856306 0.856168
0.646876 0.645335 0.645197
0.922545 0.921279 0.921187
0.922667 0.92137 0.921294
0.922942 0.921645 0.921523
0.923827 0.922515 0.922393
0.927825 0.926711 0.926604
0.954696 0.953536 0.953445
0.960662 0.959533 0.959426
0.961196 0.960067 0.95996
0.961501 0.960388 0.960296
0.937026 0.935775 0.935668
0.937118 0.935882 0.935775
0.937957 0.936736 0.936629
0.940291 0.939269 0.939162
0.948058 0.946883 0.946792
0.957671 0.956527 0.956436
0.961227 0.960098 0.959991
0.961395 0.960266 0.960174
0.961532 0.960418 0.960311
0.960143 0.959014 0.958907
0.96022 0.959091 0.958984
0.960235 0.959106 0.958999
0.960449 0.959304 0.959213
0.961196 0.960067 0.95996
0.961501 0.960388 0.960296
0.961517 0.960403 0.960296
0.961547 0.960433 0.960342
0.961563 0.960464 0.960372
