public/assets/luts/monochrome.cube
TITLE "Generated by Resolve"
LUT_3D_SIZE 65
0.0657511 0.0656443 0.0656443
0.0657664 0.0656748 0.0656748
0.0657664 0.0656748 0.0656748
0.0657664 0.0656748 0.0656748
0.0657664 0.0656748 0.0656748
0.0657664 0.0656748 0.0656748
0.0657664 0.0656748 0.0656596
0.0657664 0.0656748 0.0656596
0.0657664 0.0656748 0.0656596
0.0657511 0.0656596 0.0656596
0.0657511 0.0656596 0.0656596
0.0657511 0.0656596 0.0656443
0.0657359 0.0656443 0.0656443
0.0657359 0.0656291 0.0656291
0.0657206 0.0656291 0.0656138
0.0657054 0.0656138 0.0655985
0.0656748 0.0655833 0.0655833
0.0656443 0.0655528 0.0655528
0.0655985 0.065507 0.065507
0.0655985 0.065507 0.065507
0.0657511 0.0656596 0.0656443
0.0657664 0.0656748 0.0656596
0.0657206 0.0656291 0.0656138
0.0657206 0.0656291 0.0656138
0.0665599 0.0664225 0.0664073
0.0681773 0.06804 0.06804
0.0701762 0.0699931 0.0699779
0.0720989 0.0718853 0.07187
0.0739147 0.0737011 0.0736858
0.0758526 0.0756237 0.0756085
0.0783246 0.0780804 0.0780499
0.0854505 0.0851453 0.0851148
0.0903487 0.090074 0.0900435
0.0910353 0.0906844 0.0906386
0.0915847 0.0912184 0.0911879
0.0921187 0.0917525 0.0917067
0.0927749 0.0924086 0.0923629
0.0934768 0.0930953 0.0930495
0.0940414 0.0936599 0.0936141
0.094667 0.0943465 0.094316
0.0954604 0.0950484 0.0950027
0.0960861 0.0956741 0.0956283
0.0968185 0.0964065 0.0963607
0.0979019 0.0974746 0.0974441
0.0988022 0.0984207 0.0983902
0.100099 0.0996567 0.0996109
0.100893 0.10045 0.100404
0.101762 0.10132 0.101274
0.1028 0.102464 0.102434
0.105241 0.104784 0.104738
0.107729 0.10724 0.107195
0.111025 0.110521 0.110475
0.114199 0.11368 0.113634
0.117571 0.117128 0.117098
0.359716 0.358602 0.358511
0.482734 0.481422 0.481315
0.562402 0.560967 0.560845
0.58735 0.585977 0.585885
0.601587 0.600122 0.6
0.611063 0.609567 0.609445
0.617258 0.615763 0.615641
0.622568 0.621073 0.620935
0.627131 0.625635 0.625528
0.631128 0.629633 0.629511
0.634791 0.633524 0.633387
0.0657969 0.0657206 0.0657054
0.0658122 0.0657359 0.0657206
0.0658122 0.0657359 0.0657206
0.0658122 0.0657359 0.0657206
0.0658122 0.0657359 0.0657206
0.0658122 0.0657359 0.0657206
0.0658122 0.0657359 0.0657206
0.0658122 0.0657359 0.0657206
0.0658122 0.0657359 0.0657206
0.0658122 0.0657359 0.0657206
0.0658122 0.0657206 0.0657206
0.0657969 0.0657206 0.0657206
0.0657969 0.0657206 0.0657054
0.0657969 0.0657054 0.0657054
0.0657816 0.0657054 0.0656901
0.0657664 0.0656901 0.0656748
0.0657511 0.0656596 0.0656596
0.0657206 0.0656291 0.0656291
0.0656748 0.0655833 0.0655833
0.0656748 0.0655833 0.065568
0.0658122 0.0657359 0.0657359
0.0658274 0.0657664 0.0657511
0.0657816 0.0657054 0.0656901
0.0657816 0.0656901 0.0656748
0.0665904 0.066453 0.066453
0.0681773 0.06804 0.0680247
0.0701457 0.0699626 0.0699474
0.0720836 0.0718853 0.0718547
0.0738994 0.0736858 0.0736553
0.0758068 0.0755779 0.0755474
0.078233 0.0779889 0.0779583
0.0856031 0.0852979 0.0852522
0.0903639 0.090074 0.0900435
0.0910353 0.0906844 0.0906386
0.0915847 0.0912337 0.0911879
0.0921187 0.0917525 0.0917067
0.0927749 0.0924086 0.0923629
0.0934768 0.0930953 0.0930495
0.0940414 0.0936599 0.0936141
0.094667 0.0943465 0.094316
0.0954604 0.0950484 0.0950027
0.0960861 0.0956741 0.0956283
0.0968185 0.0964065 0.0963607
0.0979019 0.0974746 0.0974441
0.0988022 0.0984207 0.0983902
0.100099 0.0996567 0.0996109
0.100893 0.10045 0.100404
0.101762 0.10132 0.101274
0.102815 0.10248 0.102449
0.105226 0.104768 0.104723
0.107698 0.107225 0.107179
0.110994 0.110506 0.110445
0.114199 0.11368 0.113619
0.117586 0.117144 0.117098
0.121675 0.121126 0.121065
0.482826 0.481514 0.481392
0.562646 0.561227 0.561105
0.58735 0.585977 0.585885
0.601648 0.600183 0.600061
0.611063 0.609567 0.609445
0.617258 0.615763 0.615641
0.622568 0.621073 0.620935
0.627115 0.62562 0.625498
0.631128 0.629633 0.629511
0.634791 0.633524 0.633387
0.0657969 0.0657206 0.0657206
0.0658579 0.0657816 0.0657816
0.0658579 0.0657969 0.0657816
0.0658732 0.0658122 0.0657969
0.0658885 0.0658274 0.0658122
0.0659037 0.0658274 0.0658274
0.0659037 0.0658274 0.0658274
0.0659037 0.0658274 0.0658274
0.0659037 0.0658274 0.0658274
0.0659037 0.0658274 0.0658274
0.0658885 0.0658274 0.0658122
0.0658885 0.0658122 0.0658122
0.0658885 0.0658122 0.0658122
0.0658732 0.0658122 0.0657969
0.0658579 0.0657969 0.0657816
0.0658427 0.0657816 0.0657664
0.0658274 0.0657511 0.0657511
0.0657969 0.0657206 0.0657206
0.0657664 0.0656748 0.0656748
0.0657664 0.0656748 0.0656748
0.0658732 0.0658122 0.0657969
0.0659037 0.0658274 0.0658274
0.0658579 0.0657816 0.0657816
0.0658274 0.0657664 0.0657511
0.0666361 0.0664988 0.0664836
0.0681773 0.06804 0.0680247
0.0701152 0.0699321 0.0699168
0.0720684 0.07187 0.0718547
0.0738689 0.0736553 0.07364
0.0757458 0.0755169 0.0755016
0.0781109 0.0778821 0.0778515
0.0857252 0.0854047 0.0853742
0.0903639 0.090074 0.0900435
0.0910353 0.0906844 0.0906386
0.0915847 0.0912337 0.0911879
0.0921187 0.0917525 0.0917067
0.0927749 0.0924086 0.0923629
0.0934768 0.0930953 0.0930495
0.0940566 0.0936599 0.0936141
0.094667 0.0943465 0.094316
0.0954604 0.0950484 0.0950027
0.0960861 0.0956741 0.0956283
0.0968185 0.0964065 0.0963607
0.0979019 0.0974746 0.0974289
0.0988022 0.0984207 0.0983902
0.100099 0.0996567 0.0996109
0.100893 0.10045 0.100404
0.101762 0.10132 0.101274
0.1028 0.102464 0.102434
0.105241 0.104784 0.104738
0.107698 0.107225 0.107179
0.111025 0.110521 0.110475
0.114183 0.113649 0.113603
0.117647 0.117189 0.117144
0.122454 0.121981 0.121935
0.484047 0.482734 0.482612
0.562753 0.561318 0.561196
0.587503 0.586099 0.586007
0.601663 0.600198 0.600076
0.611078 0.609598 0.609461
0.617258 0.615763 0.615641
0.622568 0.621073 0.620935
0.627115 0.62562 0.625498
0.631128 0.629633 0.629511
0.634791 0.633524 0.633387
0.0657969 0.0657206 0.0657054
0.0658122 0.0657511 0.0657359
0.0659037 0.0658427 0.0658274
0.065919 0.0658579 0.0658427
0.0659342 0.0658732 0.0658579
0.0659495 0.0658732 0.0658732
0.0659648 0.0658885 0.0658885
0.06598 0.0659037 0.0659037
0.0659953 0.065919 0.065919
0.0660105 0.0659342 0.065919
0.0660105 0.0659342 0.065919
0.0660105 0.0659342 0.065919
0.0660105 0.065919 0.065919
0.06598 0.065919 0.0659037
0.0659648 0.0658885 0.0658885
0.0659495 0.0658732 0.0658732
0.065919 0.0658579 0.0658427
0.0658885 0.0658122 0.0658122
0.0658427 0.0657816 0.0657664
0.0658427 0.0657664 0.0657664
0.0659495 0.0658885 0.0658732
0.06598 0.0659037 0.0659037
0.0659342 0.0658732 0.0658579
0.0659037 0.0658274 0.0658274
0.0666819 0.0665599 0.0665446
0.0681773 0.06804 0.06804
0.0700847 0.0699016 0.0698863
0.0720684 0.07187 0.0718395
0.0738537 0.07364 0.0736095
0.0757 0.0754711 0.0754559
0.0779431 0.0777447 0.0777295
0.0858167 0.0854963 0.0854658
0.0903639 0.090074 0.0900435
0.0910353 0.0906844 0.0906386
0.0915847 0.0912337 0.0911879
0.0921187 0.0917525 0.0917067
0.0927749 0.0924086 0.0923629
0.0934768 0.0930953 0.0930495
0.0940414 0.0936599 0.0936141
0.094667 0.0943465 0.094316
0.0954604 0.0950484 0.0950027
0.0960861 0.0956741 0.0956283
0.0968185 0.0964065 0.0963607
0.0979019 0.0974746 0.0974289
0.0988022 0.0984207 0.0983902
0.100099 0.0996567 0.0996109
0.100893 0.10045 0.100404
0.101762 0.10132 0.101274
0.102815 0.10248 0.102434
0.105241 0.104784 0.104738
0.107683 0.10721 0.107164
0.110918 0.110414 0.110353
0.114183 0.113649 0.113603
0.117678 0.117205 0.117174
0.122393 0.121904 0.121859
0.484871 0.483742 0.483635
0.563104 0.561669 0.561547
0.58761 0.586191 0.586084
0.601663 0.600198 0.600076
0.611078 0.609598 0.609461
0.617258 0.615763 0.615641
0.622568 0.621073 0.620935
0.627115 0.62562 0.625498
0.631128 0.629633 0.629511
0.634791 0.633524 0.633387
0.0657969 0.0657206 0.0657054
0.0658274 0.0657511 0.0657511
0.0658732 0.0658122 0.0657969
0.0659648 0.0659037 0.0658885
0.06598 0.0659037 0.0659037
0.0660105 0.065919 0.065919
0.0660258 0.0659342 0.0659342
0.066041 0.0659495 0.0659495
0.0660563 0.0659648 0.0659648
0.0660868 0.0659953 0.06598
0.0661021 0.0660105 0.0659953
0.0661173 0.0660258 0.0660105
0.0661173 0.0660258 0.0660258
0.0661173 0.0660258 0.0660258
0.0661021 0.0660105 0.0660105
0.0660716 0.06598 0.06598
0.066041 0.0659495 0.0659495
0.0659953 0.065919 0.065919
0.0659495 0.0658732 0.0658732
0.0659342 0.0658579 0.0658579
0.0660716 0.0659648 0.0659648
0.0661021 0.0660105 0.0659953
0.0660258 0.0659495 0.0659342
0.0659648 0.0659037 0.0658885
0.066743 0.0666209 0.0666056
0.0681926 0.0680552 0.06804
0.0700542 0.0698711 0.0698558
0.0720226 0.0718242 0.0717937
0.0738231 0.0736248 0.0735943
0.0756542 0.0754253 0.0754101
0.0776074 0.0773632 0.0773327
0.0858778 0.0855573 0.0855268
0.0903639 0.090074 0.0900435
0.0910353 0.0906844 0.0906386
0.0915847 0.0912337 0.0911879
0.0921187 0.0917525 0.0917067
0.0927749 0.0924086 0.0923629
0.0934768 0.0930953 0.0930495
0.0940566 0.0936599 0.0936141
0.094667 0.0943465 0.094316
0.0954604 0.0950484 0.0950027
0.0960861 0.0956741 0.0956283
0.0968185 0.0964065 0.0963607
0.0979019 0.0974746 0.0974289
0.0988022 0.0984207 0.0983902
0.100099 0.0996567 0.0996109
0.100893 0.10045 0.100404
0.101762 0.10132 0.101274
0.102815 0.102464 0.102434
0.105226 0.104768 0.104723
0.107683 0.10721 0.107164
0.110918 0.110414 0.110369
0.114183 0.113664 0.113619
0.117693 0.11722 0.117189
0.121569 0.121019 0.120958
0.48542 0.484367 0.484276
0.563241 0.561807 0.561685
0.587579 0.58616 0.586069
0.601709 0.600244 0.600122
0.611032 0.609552 0.60943
0.617273 0.615778 0.615656
0.622568 0.621073 0.620935
0.627131 0.625635 0.625528
0.631128 0.629633 0.629511
0.634791 0.633524 0.633387
0.0657969 0.0657206 0.0657054
0.0658274 0.0657511 0.0657511
0.0658732 0.0658122 0.0658122
0.0659495 0.0658732 0.0658732
0.066041 0.0659495 0.0659495
0.0660563 0.0659648 0.0659648
0.0660868 0.0659953 0.06598
0.0661173 0.0660105 0.0660105
0.0661173 0.0660258 0.0660258
0.0661326 0.066041 0.066041
0.0661479 0.0660563 0.0660563
0.0661784 0.0660868 0.0660716
0.0662089 0.0661021 0.0661021
0.0662242 0.0661326 0.0661326
0.0662394 0.0661479 0.0661479
0.0662242 0.0661326 0.0661326
0.0661936 0.0661021 0.0660868
0.0661479 0.066041 0.066041
0.0660716 0.06598 0.0659648
0.0660563 0.0659648 0.0659495
0.0661936 0.0661021 0.0661021
0.0662242 0.0661326 0.0661173
0.0661631 0.0660716 0.0660563
0.0660868 0.0659953 0.0659953
0.0668193 0.0666972 0.0666819
0.0682231 0.0680705 0.0680705
0.0700389 0.0698711 0.0698405
0.071931 0.0717327 0.0717174
0.0738231 0.0736095 0.073579
0.0755932 0.0753796 0.0753643
0.0775006 0.0772564 0.0772259
0.085893 0.0855879 0.0855573
0.0903639 0.090074 0.0900435
0.0910353 0.0906844 0.0906386
0.0915847 0.0912337 0.0911879
0.0921187 0.0917525 0.0917067
0.0927749 0.0924086 0.0923629
0.0934768 0.0930953 0.0930495
0.0940566 0.0936599 0.0936141
0.094667 0.0943465 0.094316
0.0954604 0.0950484 0.0950027
0.0960861 0.0956741 0.0956283
0.0968185 0.0964065 0.0963607
0.0979019 0.0974746 0.0974289
0.0988022 0.0984207 0.0983902
0.100099 0.0996567 0.0996109
0.100893 0.10045 0.100404
0.101762 0.10132 0.101274
0.102815 0.102464 0.102434
0.105226 0.104768 0.104723
0.107683 0.107195 0.107149
0.110872 0.110369 0.110323
0.114168 0.113634 0.113588
0.117662 0.117205 0.117159
0.121263 0.120714 0.120668
0.486305 0.485023 0.484932
0.563317 0.561898 0.561776
0.587747 0.586297 0.586191
0.601709 0.600244 0.600122
0.611078 0.609598 0.609461
0.617273 0.615778 0.615656
0.622568 0.621073 0.620935
0.627131 0.625635 0.625528
0.631128 0.629633 0.629511
0.634791 0.633524 0.633387
0.0657969 0.0657206 0.0657054
0.0658274 0.0657664 0.0657511
0.0658885 0.0658122 0.0658122
0.0659495 0.0658732 0.0658732
0.0660258 0.0659342 0.0659342
0.0660868 0.0659953 0.0659953
0.0661326 0.066041 0.066041
0.0661631 0.0660716 0.0660563
0.0661784 0.0660868 0.0660868
0.0662089 0.0661173 0.0661021
0.0662242 0.0661326 0.0661173
0.0662394 0.0661479 0.0661479
0.0662699 0.0661784 0.0661631
0.0663005 0.0662089 0.0661936
0.066331 0.0662394 0.0662394
0.0663615 0.0662699 0.0662547
0.0663462 0.0662547 0.0662394
0.0663005 0.0662089 0.0661936
0.0662242 0.0661326 0.0661326
0.0662089 0.0661173 0.0661021
0.066331 0.0662394 0.0662242
0.0663615 0.0662699 0.0662547
0.0663005 0.0662089 0.0661936
0.0662089 0.0661173 0.0661021
0.0669108 0.0667735 0.0667735
0.0682689 0.0681163 0.068101
0.0700542 0.0698711 0.0698558
0.0719005 0.0717021 0.0716716
0.0738079 0.0735943 0.0735637
0.0755779 0.0753643 0.075349
0.0774243 0.0771801 0.0771649
0.0858778 0.0855726 0.0855421
0.0903639 0.090074 0.0900435
0.0910353 0.0906844 0.0906386
0.0915847 0.0912337 0.0911879
0.0921187 0.0917525 0.0917067
0.0927749 0.0924086 0.0923629
0.0934768 0.0930953 0.0930495
0.0940566 0.0936599 0.0936141
0.094667 0.0943465 0.094316
0.0954604 0.0950484 0.0950027
0.0960861 0.0956741 0.0956283
0.0968185 0.0964065 0.0963607
0.0979019 0.0974746 0.0974289
0.0988022 0.0984207 0.0983902
0.100099 0.0996567 0.0996109
0.100893 0.10045 0.100404
0.101762 0.10132 0.101274
0.102815 0.102464 0.102434
0.105211 0.104753 0.104707
0.107668 0.107195 0.107149
0.110857 0.110353 0.110307
0.114137 0.113619 0.113573
0.117693 0.11722 0.117189
0.121279 0.120729 0.120668
0.487663 0.486336 0.486229
0.563516 0.562081 0.561959
0.5879 0.58645 0.586328
0.60177 0.600305 0.600183
0.611063 0.609567 0.609445
0.617288 0.615808 0.615671
0.622568 0.621073 0.620935
0.627115 0.62562 0.625498
0.631113 0.629618 0.629496
0.634791 0.633524 0.633387
0.0657969 0.0657206 0.0657054
0.0658427 0.0657664 0.0657664
0.0658885 0.0658274 0.0658122
0.0659495 0.0658885 0.0658732
0.0660258 0.0659495 0.0659342
0.0661021 0.0660105 0.0660105
0.0661631 0.0660716 0.0660563
0.0662242 0.0661173 0.0661173
0.0662394 0.0661479 0.0661479
0.0662699 0.0661784 0.0661631
0.0662852 0.0661936 0.0661936
0.0663157 0.0662242 0.0662089
0.066331 0.0662394 0.0662394
0.0663615 0.0662699 0.0662699
0.066392 0.0663005 0.0663005
0.066453 0.0663615 0.0663462
0.0664683 0.0663767 0.0663767
0.066453 0.0663615 0.0663462
0.066392 0.0663005 0.0663005
0.0663615 0.0662699 0.0662547
0.0664988 0.066392 0.066392
0.0665141 0.0664225 0.0664073
0.066453 0.0663615 0.0663462
0.0663462 0.0662547 0.0662547
0.0670176 0.0668803 0.0668803
0.0683299 0.0681773 0.0681621
0.0700847 0.0699016 0.0698863
0.07187 0.0716716 0.0716564
0.0737926 0.073579 0.0735637
0.0755322 0.0753338 0.0753185
0.0773785 0.0771344 0.0771038
0.0858473 0.0855268 0.0854963
0.0903639 0.090074 0.0900435
0.0910353 0.0906844 0.0906386
0.0915847 0.0912337 0.0911879
0.0921187 0.0917525 0.0917067
0.0927749 0.0924086 0.0923629
0.0934768 0.0930953 0.0930495
0.0940566 0.0936599 0.0936141
0.094667 0.0943465 0.094316
0.0954604 0.0950484 0.0950027
0.0960861 0.0956741 0.0956283
0.0968185 0.0964065 0.0963607
0.0979019 0.0974746 0.0974289
0.0988022 0.0984207 0.0983902
0.100099 0.0996567 0.0996109
0.100893 0.10045 0.100404
0.101762 0.10132 0.101274
0.1028 0.102464 0.102434
0.105226 0.104768 0.104723
0.107668 0.107195 0.107149
0.11075 0.110246 0.110201
0.114153 0.113634 0.113588
0.117693 0.11722 0.117189
0.121447 0.120882 0.120836
0.488426 0.487098 0.486992
0.563729 0.56231 0.562173
0.587991 0.586542 0.586404
0.60177 0.600305 0.600183
0.611078 0.609598 0.609461
0.617273 0.615778 0.615656
0.622583 0.621088 0.620966
0.627161 0.625666 0.625544
0.631159 0.629664 0.629526
0.634806 0.633539 0.633417
0.0658122 0.0657359 0.0657206
0.0658427 0.0657816 0.0657664
0.0659037 0.0658274 0.0658274
0.0659648 0.0658885 0.0658885
0.066041 0.0659495 0.0659495
0.0661021 0.0660105 0.0660105
0.0661784 0.0660868 0.0660868
0.0662394 0.0661479 0.0661479
0.0663005 0.0662089 0.0661936
0.066331 0.0662242 0.0662242
0.0663615 0.0662547 0.0662547
0.0663767 0.0662852 0.0662699
0.0664073 0.0663157 0.0663005
0.0664378 0.0663462 0.066331
0.0664683 0.0663767 0.0663767
0.0665141 0.0664225 0.0664073
0.0665599 0.0664683 0.066453
0.0665751 0.0664836 0.0664683
0.0665293 0.0664378 0.0664378
0.0665293 0.0664225 0.0664225
0.0666667 0.0665599 0.0665599
0.0666819 0.0665751 0.0665751
0.0666056 0.0665141 0.0664988
0.0665141 0.0664225 0.0664073
0.0671244 0.0670024 0.0669871
0.0684062 0.0682383 0.0682231
0.0701457 0.0699626 0.0699474
0.0718547 0.0716716 0.0716411
0.0737469 0.0735332 0.073518
0.0755016 0.0753033 0.075288
0.0773327 0.0770886 0.0770581
0.0857862 0.085481 0.0854505
0.0903639 0.090074 0.0900435
0.0910353 0.0906844 0.0906386
0.0915847 0.0912337 0.0911879
0.0921187 0.0917525 0.0917067
0.0927749 0.0924086 0.0923629
0.0934768 0.0930953 0.0930495
0.0940566 0.0936599 0.0936141
0.094667 0.0943465 0.094316
0.0954604 0.0950484 0.0950027
0.0960861 0.0956741 0.0956283
0.0968185 0.0964065 0.0963607
0.0979019 0.0974746 0.0974289
0.0988022 0.0984207 0.0983902
0.100099 0.0996567 0.0996109
0.100893 0.10045 0.100404
0.101762 0.10132 0.101274
0.1028 0.102464 0.102434
0.105226 0.104768 0.104723
0.107652 0.107179 0.107134
0.110643 0.11014 0.110094
0.114137 0.113619 0.113573
0.117723 0.117235 0.117205
0.12166 0.121096 0.12105
0.489143 0.487816 0.487694
0.563867 0.562448 0.56231
0.588006 0.586557 0.586435
0.601846 0.600381 0.600259
0.611078 0.609598 0.609461
0.617288 0.615808 0.615671
0.622583 0.621088 0.620966
0.627115 0.62562 0.625498
0.631159 0.629664 0.629526
0.634791 0.633524 0.633387
0.0658122 0.0657511 0.0657359
0.0658579 0.0657816 0.0657816
0.0659037 0.0658427 0.0658274
0.0659648 0.0659037 0.0658885
0.066041 0.0659495 0.0659495
0.0661173 0.0660105 0.0660105
0.0661936 0.0661021 0.0661021
0.0662699 0.0661784 0.0661631
0.066331 0.0662394 0.0662242
0.066392 0.0663005 0.0662852
0.0664073 0.0663157 0.0663005
0.0664378 0.0663462 0.0663462
0.0664683 0.0663767 0.0663767
0.0664988 0.0664073 0.0664073
0.0665446 0.066453 0.0664378
0.0665751 0.0664836 0.0664683
0.0666209 0.0665293 0.0665141
0.0666819 0.0665904 0.0665751
0.0666819 0.0665904 0.0665751
0.0666819 0.0665904 0.0665751
0.066804 0.0667124 0.0667124
0.0668345 0.066743 0.066743
0.0667735 0.0666819 0.0666667
0.0666819 0.0665751 0.0665751
0.067277 0.067155 0.0671397
0.0684825 0.0683299 0.0683146
0.070222 0.0700389 0.0700236
0.07187 0.0716716 0.0716564
0.0737163 0.0735027 0.0734722
0.0754711 0.075288 0.0752728
0.0773022 0.0770581 0.0770428
0.0856947 0.0853895 0.085359
0.0903639 0.090074 0.0900435
0.0910353 0.0906844 0.0906386
0.0915847 0.0912337 0.0911879
0.0921187 0.0917525 0.0917067
0.0927901 0.0924086 0.0923629
0.0934768 0.0930953 0.0930495
0.0940566 0.0936599 0.0936141
0.094667 0.0943465 0.094316
0.0954604 0.0950484 0.0950027
0.0960861 0.0956741 0.0956283
0.0968185 0.0964065 0.0963607
0.0979019 0.0974746 0.0974289
0.0987869 0.0984207 0.0983902
0.100099 0.0996567 0.0996109
0.100893 0.10045 0.100404
0.101762 0.10132 0.101274
0.1028 0.102464 0.102434
0.105211 0.104753 0.104707
0.107652 0.107179 0.107134
0.110643 0.11014 0.110094
0.114137 0.113603 0.113558
0.117723 0.11725 0.117205
0.121935 0.121386 0.121324
0.489784 0.488457 0.488334
0.563912 0.562478 0.562356
0.588022 0.586572 0.58645
0.601816 0.600336 0.600214
0.611063 0.609567 0.609445
0.617288 0.615808 0.615671
0.622583 0.621088 0.620966
0.627131 0.625635 0.625528
0.631159 0.629664 0.629526
0.634791 0.633524 0.633387
0.0658274 0.0657511 0.0657511
0.0658732 0.0657969 0.0657969
0.065919 0.0658427 0.0658427
0.0659648 0.0659037 0.0658885
0.066041 0.0659495 0.0659495
0.0661173 0.0660258 0.0660105
0.0662089 0.0661021 0.0661021
0.0662852 0.0661936 0.0661784
0.0663615 0.0662547 0.0662547
0.0664073 0.0663157 0.0663157
0.0664683 0.0663767 0.0663767
0.0664988 0.0664073 0.066392
0.0665293 0.0664378 0.0664378
0.0665751 0.0664836 0.0664683
0.0666056 0.0665141 0.0664988
0.0666361 0.0665446 0.0665446
0.0666819 0.0665904 0.0665904
0.0667582 0.0666514 0.0666514
0.066804 0.0667124 0.0666972
0.0668345 0.066743 0.0667277
0.0669871 0.0668803 0.0668803
0.0670024 0.0669108 0.0668956
0.0669413 0.0668498 0.0668345
0.066865 0.0667582 0.0667582
0.0674754 0.0673381 0.0673228
0.0685893 0.0684215 0.0684062
0.0702983 0.0701152 0.0700999
0.0719158 0.0717174 0.0717021
0.0737011 0.0734874 0.0734569
0.0754406 0.0752728 0.0752575
0.0772717 0.0770428 0.0770123
0.0856184 0.0852979 0.0852674
0.0903639 0.090074 0.0900435
0.0910353 0.0906844 0.0906386
0.0915847 0.0912337 0.0911879
0.0921187 0.0917525 0.0917067
0.0927749 0.0924086 0.0923629
0.0934768 0.0930953 0.0930495
0.0940566 0.0936599 0.0936141
0.094667 0.0943465 0.094316
0.0954604 0.0950484 0.0950027
0.0960861 0.0956741 0.0956283
0.0968185 0.0964065 0.0963607
0.0979019 0.0974746 0.0974289
0.0988022 0.0984207 0.0983902
0.100099 0.0996567 0.0996109
0.100893 0.10045 0.100404
0.101762 0.10132 0.101274
0.1028 0.102464 0.102434
0.105211 0.104753 0.104707
0.107652 0.107179 0.107134
0.110613 0.110109 0.110063
0.114092 0.113573 0.113527
0.117723 0.117235 0.117205
0.122042 0.121477 0.121416
0.491051 0.489723 0.489616
0.56408 0.562661 0.562524
0.588159 0.586709 0.586587
0.601831 0.600366 0.600244
0.611124 0.609628 0.609506
0.617304 0.615824 0.615702
0.622583 0.621088 0.620966
0.627131 0.625635 0.625528
0.631128 0.629633 0.629511
0.634806 0.633539 0.633417
0.0658427 0.0657664 0.0657664
0.0658732 0.0658122 0.0657969
0.065919 0.0658579 0.0658427
0.06598 0.0659037 0.0659037
0.066041 0.0659495 0.0659495
0.0661173 0.0660258 0.0660105
0.0662089 0.0661173 0.0661021
0.0663005 0.0662089 0.0661936
0.0663767 0.0662852 0.0662699
0.066453 0.0663462 0.0663462
0.0664988 0.0664073 0.0664073
0.0665599 0.0664683 0.0664683
0.0665904 0.0664988 0.0664988
0.0666361 0.0665446 0.0665293
0.0666819 0.0665904 0.0665751
0.0667277 0.0666209 0.0666209
0.0667735 0.0666819 0.0666667
0.0668345 0.0667277 0.0667277
0.0669108 0.0668193 0.066804
0.0669871 0.0668956 0.0668803
0.0671702 0.0670787 0.0670634
0.0672007 0.0671092 0.0670939
0.0671397 0.0670481 0.0670329
0.0670634 0.0669718 0.0669566
0.067689 0.0675517 0.0675364
0.0687266 0.0685588 0.0685435
0.0704051 0.070222 0.0702068
0.0719921 0.0717937 0.0717784
0.0737011 0.0735027 0.0734722
0.0754253 0.0752575 0.0752422
0.0772564 0.0770123 0.0769818
0.0855116 0.0851911 0.0851606
0.0903639 0.090074 0.0900435
0.0910353 0.0906844 0.0906386
0.0915847 0.0912337 0.0911879
0.0921187 0.0917525 0.0917067
0.0927901 0.0924086 0.0923629
0.0934768 0.0930953 0.0930495
0.0940566 0.0936599 0.0936141
0.094667 0.0943465 0.094316
0.0954604 0.0950484 0.0950027
0.0960861 0.0956741 0.0956283
0.0968185 0.0964065 0.0963607
0.0979019 0.0974746 0.0974289
0.0987869 0.0984207 0.0983902
0.100084 0.0996414 0.0996109
0.100893 0.10045 0.100404
0.101762 0.10132 0.101274
0.1028 0.102464 0.102434
0.105211 0.104753 0.104707
0.107652 0.107179 0.107134
0.110597 0.110109 0.110048
0.114076 0.113542 0.113497
0.117708 0.117235 0.117189
0.122408 0.121935 0.121889
0.491249 0.489921 0.489815
0.564401 0.562966 0.562844
0.588159 0.586709 0.586587
0.601892 0.600427 0.600305
0.611093 0.609613 0.609491
0.617288 0.615808 0.615671
0.622599 0.621103 0.620981
0.627131 0.625635 0.625528
0.631128 0.629633 0.629511
0.634791 0.633524 0.633387
0.0658427 0.0657816 0.0657664
0.0658885 0.0658122 0.0658122
0.0659342 0.0658579 0.0658579
0.06598 0.0659037 0.0659037
0.066041 0.0659495 0.0659495
0.0661173 0.0660258 0.0660105
0.0662089 0.0661173 0.0661173
0.0663005 0.0662089 0.0662089
0.066392 0.0663005 0.0662852
0.0664683 0.0663767 0.0663615
0.0665446 0.0664378 0.0664378
0.0665904 0.0664988 0.0664988
0.0666667 0.0665751 0.0665751
0.0667124 0.0666209 0.0666209
0.0667735 0.0666667 0.0666667
0.0668193 0.0667277 0.0667124
0.066865 0.0667735 0.0667735
0.0669261 0.0668345 0.0668193
0.0670024 0.0669108 0.0668956
0.0671244 0.0670329 0.0670176
0.0673686 0.0672618 0.0672618
0.0674144 0.0673228 0.0673228
0.0673838 0.0672923 0.067277
0.0673381 0.0672465 0.0672465
0.0679637 0.0678416 0.0678264
0.0689403 0.0687724 0.0687572
0.0705425 0.0703899 0.0703593
0.0720989 0.0719005 0.0718853
0.0737469 0.0735332 0.073518
0.0754253 0.0752575 0.0752422
0.0772412 0.076997 0.0769665
0.0853132 0.085008 0.0849775
0.0903639 0.090074 0.0900435
0.0910353 0.0906844 0.0906386
0.0915847 0.0912337 0.0911879
0.0921187 0.0917525 0.0917067
0.0927901 0.0924086 0.0923629
0.0934768 0.0930953 0.0930495
0.0940566 0.0936599 0.0936141
0.094667 0.0943465 0.094316
0.0954604 0.0950484 0.0950027
0.0960861 0.0956741 0.0956283
0.0968185 0.0964065 0.0963607
0.0979019 0.0974746 0.0974289
0.0988022 0.0984207 0.0983902
0.100084 0.0996414 0.0996109
0.100893 0.10045 0.100404
0.101762 0.10132 0.101274
0.1028 0.102464 0.102434
0.105211 0.104753 0.104707
