public/assets/luts/monochrome.cube
TITLE "Generated by Resolve"
LUT_3D_SIZE 5
0.0657511 0.0656443 0.0656443
0.0656748 0.0655833 0.0655833
0.0903487 0.090074 0.0900435
0.1028 0.102464 0.102434
0.634791 0.633524 0.633387
0.0659495 0.0658732 0.0658732
0.0674754 0.0673686 0.0673686
0.0903639 0.0900893 0.0900435
0.1028 0.102464 0.102434
0.634791 0.633524 0.633387
0.272648 0.271565 0.271473
0.180957 0.18024 0.180179
0.337377 0.336202 0.33611
0.352453 0.351293 0.351186
0.634928 0.633692 0.63357
0.588327 0.586648 0.586496
0.591424 0.589761 0.589609
0.662913 0.661219 0.661067
0.862074 0.860624 0.860517
0.945922 0.944915 0.944823
0.955474 0.954314 0.954208
0.95552 0.95436 0.954269
0.956085 0.955077 0.954986
0.957092 0.955978 0.955901
0.961563 0.960464 0.960372
0.0657206 0.0656291 0.0656291
0.0663462 0.0662547 0.0662547
0.0839399 0.0836805 0.08365
0.105287 0.104829 0.104784
0.634989 0.633768 0.633646
0.0672618 0.0671702 0.067155
0.0678264 0.0677348 0.0677348
0.0847944 0.0844892 0.0844587
0.105318 0.104845 0.104799
0.634989 0.633768 0.633646
0.298421 0.297292 0.2972
0.173938 0.173251 0.17319
0.338338 0.337179 0.337072
0.353643 0.352483 0.352392
0.635126 0.633921 0.633799
0.597162 0.59556 0.595453
0.600412 0.598733 0.598596
0.671672 0.669963 0.66981
0.867247 0.865614 0.865476
0.946273 0.945174 0.945098
0.955566 0.954406 0.954314
0.955612 0.954452 0.95436
0.956191 0.9552 0.955108
0.957244 0.9561 0.956024
0.961563 0.960464 0.960372
0.0899214 0.0897078 0.0896773
0.0941634 0.093904 0.0938735
0.17322 0.172396 0.172335
0.160098 0.159319 0.159243
0.638453 0.636927 0.636805
0.0912947 0.0910658 0.0910506
0.0905013 0.0903334 0.0903182
0.173449 0.172625 0.172549
0.158755 0.157992 0.157916
0.638453 0.636927 0.636805
0.39118 0.38999 0.389883
0.390631 0.389441 0.389334
0.528374 0.527001 0.526894
0.226413 0.225406 0.22533
0.638605 0.637095 0.636957
0.674006 0.672602 0.672465
0.678447 0.676722 0.676585
0.736004 0.734234 0.734081
0.906767 0.905303 0.90518
0.95082 0.949828 0.949722
0.956451 0.955474 0.955367
0.956481 0.955505 0.955398
0.957412 0.956268 0.956161
0.958801 0.957656 0.957565
0.961563 0.960464 0.960372
0.146731 0.146258 0.146212
0.146975 0.146471 0.146441
0.389944 0.3888 0.388708
0.246098 0.245136 0.245045
0.646479 0.644938 0.644816
0.147509 0.146868 0.146838
0.147753 0.147112 0.147066
0.390005 0.388861 0.388769
0.246098 0.245136 0.245045
0.646479 0.644938 0.6448
0.371923 0.370672 0.370565
0.371786 0.370535 0.370413
0.380102 0.378851 0.378729
0.331365 0.330068 0.329961
0.646586 0.645045 0.644907
0.863554 0.861921 0.861784
0.867643 0.866011 0.865873
0.902037 0.900511 0.900404
0.958465 0.957321 0.957229
0.961456 0.960311 0.96022
0.957855 0.95671 0.956603
0.957961 0.956817 0.95671
0.959106 0.957961 0.95787
0.961471 0.960342 0.960235
0.961563 0.960464 0.960372
0.40737 0.40621 0.406119
0.40824 0.407065 0.406958
0.413993 0.412924 0.412818
0.64712 0.645579 0.645457
0.646571 0.645029 0.644892
0.407462 0.406287 0.406195
0.40824 0.407065 0.406958
0.414023 0.412955 0.412863
0.64712 0.645579 0.645457
0.646571 0.645029 0.644892
0.407691 0.406531 0.406424
0.408392 0.407218 0.407126
0.414084 0.413046 0.41294
0.64712 0.645579 0.645457
0.646632 0.64509 0.644953
0.922545 0.921279 0.921187
0.922942 0.921645 0.921523
0.927825 0.926711 0.926604
0.960662 0.959533 0.959426
0.961501 0.960388 0.960296
0.960143 0.959014 0.958907
0.960235 0.959106 0.958999
0.961196 0.960067 0.95996
0.961517 0.960403 0.960296
0.961563 0.960464 0.960372
