public/assets/luts/pointandshoot.cube
TITLE "Generated by Resolve"
LUT_3D_SIZE 9
0.10605 0.0693523 0.068925
0.11107 0.0691081 0.068513
0.120745 0.0675212 0.0687266
0.2692 0.0426642 0.0519265
0.80325 0.0154269 0.0210422
0.850904 0.0154421 0.0455177
0.988327 0.275654 0.27187
0.998749 0.814725 0.854566
0.947555 0.934966 0.925689
0.104814 0.0728771 0.0698405
0.107851 0.0735332 0.0711986
0.116014 0.0737621 0.0715496
0.267659 0.049958 0.0549325
0.803326 0.0154269 0.0210117
0.850507 0.0155032 0.0442054
0.98851 0.2869 0.268315
0.998749 0.817517 0.853956
0.94725 0.935439 0.925597
0.0971084 0.0784161 0.064744
0.100618 0.079881 0.0661479
0.113451 0.0821698 0.0733196
0.25684 0.0614481 0.0568704
0.801572 0.0154269 0.0192416
0.849943 0.0157015 0.0415808
0.988342 0.307103 0.260853
0.998749 0.820981 0.852094
0.946838 0.936049 0.925521
0.0756542 0.1552 0.0316625
0.0748913 0.158816 0.0312047
0.0738537 0.164263 0.0317998
0.167193 0.168276 0.0476844
0.675334 0.0756237 0.0385138
0.846799 0.031632 0.0189517
0.984527 0.393378 0.218082
0.993149 0.837613 0.846754
0.944945 0.937758 0.924987
0.0678264 0.388144 0.0173953
0.0678111 0.38677 0.01738
0.0679789 0.397559 0.0175326
0.0814069 0.514855 0.0319524
0.449989 0.565789 0.0494087
0.927031 0.474983 0.0316625
0.990692 0.628916 0.134646
0.982498 0.869642 0.818479
0.939529 0.942382 0.925185
0.10518 0.751049 0.0650034
0.106722 0.762554 0.0673381
0.109041 0.781231 0.0710002
0.113436 0.82887 0.0780194
0.119875 0.85658 0.0811322
0.794598 0.850217 0.0903182
0.933822 0.830014 0.390875
0.950713 0.921889 0.818631
0.936828 0.943603 0.9243
0.12314 0.930831 0.130343
0.123171 0.931121 0.133196
0.123171 0.931502 0.138857
0.122576 0.932067 0.165911
0.426062 0.918883 0.297368
0.690898 0.93959 0.542504
0.903136 0.931701 0.690578
0.928222 0.941802 0.809155
0.937087 0.943771 0.9252
0.681453 0.961532 0.78114
0.681834 0.961486 0.781247
0.682551 0.96144 0.781491
0.685359 0.961364 0.782773
0.74432 0.961975 0.784436
0.866285 0.948821 0.771176
0.923842 0.941726 0.774945
0.931975 0.942519 0.849409
0.937789 0.944778 0.928359
0.696376 0.967819 0.87335
0.697566 0.967926 0.873472
0.703334 0.968292 0.873976
0.748608 0.967956 0.875029
0.885237 0.951354 0.85832
0.932006 0.943038 0.844587
0.932845 0.943053 0.854994
0.93489 0.943252 0.895033
0.938094 0.945586 0.931105
0.105089 0.0692607 0.0715801
0.112108 0.0680095 0.0731518
0.120912 0.0667124 0.0707561
0.282582 0.0390478 0.0506447
0.803494 0.0154269 0.0209812
0.850935 0.0154421 0.0455787
0.988342 0.275502 0.272007
0.998749 0.814603 0.854597
0.947768 0.934737 0.925734
0.106233 0.0731518 0.073167
0.108873 0.0736248 0.0732433
0.11809 0.0734722 0.072694
0.272099 0.0492409 0.0561837
0.803571 0.0154269 0.0209506
0.850568 0.0155032 0.0442512
0.988495 0.286656 0.268376
0.998749 0.817533 0.853971
0.947341 0.935286 0.925643
0.0966812 0.0794232 0.0671855
0.10132 0.0802472 0.0686351
0.11458 0.0820478 0.0756847
0.264286 0.0603647 0.0583352
0.801862 0.0154269 0.0192416
0.849989 0.0157015 0.0416571
0.988342 0.306462 0.261341
0.998749 0.821073 0.852033
0.946777 0.936156 0.925505
0.075639 0.155489 0.032105
0.0749218 0.158907 0.0317845
0.0740063 0.163882 0.0329137
0.173648 0.166415 0.0522316
0.676844 0.0745861 0.0380865
0.846845 0.0315099 0.0189822
0.984527 0.393332 0.218158
0.993179 0.837583 0.846799
0.944671 0.937881 0.924865
0.0677806 0.383444 0.0173648
0.0677806 0.383612 0.0173342
0.0679484 0.396323 0.0175174
0.0815595 0.515694 0.0320439
0.453986 0.565255 0.0494698
0.927062 0.474693 0.031632
0.990692 0.628977 0.134691
0.982483 0.869688 0.818448
0.939483 0.942382 0.9252
0.105577 0.753536 0.0655985
0.107271 0.765866 0.0682383
0.109377 0.783673 0.0715038
0.113466 0.82974 0.0780804
0.119905 0.856596 0.0811322
0.794888 0.850202 0.0903487
0.933822 0.83003 0.390921
0.950729 0.921874 0.818631
0.936828 0.943603 0.9243
0.12314 0.930892 0.13106
0.123186 0.931182 0.133974
0.123171 0.931563 0.139635
0.122576 0.932067 0.166918
0.427161 0.918837 0.29807
0.691295 0.939635 0.542733
0.903151 0.931716 0.690578
0.928222 0.941802 0.80914
0.937087 0.943771 0.9252
0.681468 0.961532 0.78114
0.681987 0.961471 0.781277
0.682628 0.96144 0.781521
0.685481 0.961334 0.782818
0.744411 0.961975 0.784466
0.866316 0.948821 0.771176
0.923842 0.941726 0.774945
0.931975 0.942519 0.849393
0.937789 0.944778 0.928374
0.6972 0.967895 0.873442
0.700816 0.968246 0.873808
0.710903 0.968353 0.874235
0.74847 0.967971 0.875059
0.885054 0.951385 0.858381
0.932006 0.943038 0.844541
0.932845 0.943038 0.854978
0.93489 0.943252 0.895064
0.938094 0.945586 0.931105
0.102907 0.068986 0.0772106
0.107362 0.0672465 0.0783398
0.123369 0.0641794 0.0813611
0.291112 0.0356909 0.0564126
0.804501 0.0154574 0.0364233
0.851438 0.0154574 0.0497749
0.988327 0.275715 0.27216
0.998749 0.814954 0.854551
0.947417 0.93518 0.925643
0.103029 0.0741131 0.0797742
0.106783 0.0734112 0.0785992
0.120134 0.0710613 0.0814527
0.289631 0.0431983 0.0582589
0.804593 0.0154574 0.0367132
0.851087 0.0155032 0.0485542
0.98851 0.286091 0.268849
0.998749 0.817517 0.853956
0.947402 0.93518 0.925643
0.100023 0.0834058 0.081178
0.10518 0.0833906 0.0819715
0.114595 0.0822919 0.0819257
0.274617 0.0591745 0.0651713
0.80325 0.0154879 0.0344091
0.850721 0.0156863 0.0468147
0.988342 0.30695 0.261173
0.998749 0.821042 0.852064
0.94699 0.935866 0.925536
0.0756695 0.157183 0.0353399
0.075288 0.158984 0.0354009
0.0747997 0.162402 0.037583
0.174243 0.165316 0.0728161
0.678492 0.06981 0.0392309
0.847761 0.032517 0.0310521
0.984527 0.393393 0.218265
0.993118 0.837674 0.846738
0.944823 0.937804 0.924926
0.0678416 0.371221 0.0177615
0.0679942 0.367895 0.0179141
0.0677501 0.37554 0.0176547
0.0803998 0.507393 0.0312505
0.459861 0.567452 0.0504311
0.927718 0.473976 0.0326238
0.990707 0.62884 0.134691
0.982498 0.869551 0.818692
0.939513 0.942382 0.9252
0.104036 0.747433 0.0641794
0.105837 0.758144 0.0667124
0.108309 0.776822 0.0708171
0.1131 0.82707 0.0785229
0.120195 0.858869 0.082475
0.795773 0.850065 0.0903487
0.933822 0.829999 0.391058
0.950713 0.921889 0.818631
0.936828 0.943603 0.9243
0.123156 0.931029 0.132296
0.123186 0.931304 0.135454
0.123156 0.93167 0.141375
0.122591 0.932067 0.168475
0.429679 0.918822 0.29987
0.691722 0.939696 0.543038
0.903151 0.931716 0.690593
0.928222 0.941802 0.809155
0.937087 0.943771 0.9252
0.681697 0.961501 0.781216
0.682139 0.961456 0.781323
0.682765 0.961456 0.781613
0.685725 0.961303 0.78291
0.745586 0.961929 0.784421
0.86659 0.948775 0.77113
0.923842 0.941726 0.774945
0.931975 0.942519 0.849439
0.937789 0.944778 0.928374
0.698512 0.967987 0.873549
0.702739 0.968261 0.873854
0.707576 0.968231 0.874022
0.751217 0.967849 0.875013
0.888579 0.950729 0.857389
0.932006 0.943038 0.844541
0.932845 0.943053 0.854963
0.934905 0.943252 0.895048
0.938094 0.945586 0.931105
0.0816815 0.0774395 0.153643
0.0847028 0.075639 0.150698
0.0915389 0.0722972 0.14815
0.325017 0.0215305 0.155367
0.805768 0.0154269 0.111986
0.854871 0.0155184 0.10837
0.988571 0.261845 0.308125
0.998749 0.81474 0.854643
0.947631 0.93489 0.925704
0.080415 0.0832685 0.158618
0.0838788 0.0811933 0.155398
0.0911879 0.0776226 0.151827
0.313329 0.023682 0.156863
0.805646 0.0154116 0.109026
0.855161 0.0155795 0.108186
0.989807 0.277455 0.307744
0.998749 0.817044 0.854261
0.947509 0.935027 0.925689
0.0769818 0.0950942 0.167971
0.0809644 0.0924392 0.163302
0.0897993 0.088304 0.157366
0.297353 0.0337835 0.161837
0.803662 0.0154421 0.0982071
0.855863 0.0157321 0.106966
0.990417 0.298329 0.301946
0.998749 0.820829 0.852232
0.94699 0.935866 0.925536
0.0692607 0.186374 0.167254
0.0694285 0.18497 0.166506
0.0699931 0.181811 0.165301
0.186755 0.168704 0.170657
0.731929 0.0466926 0.0926528
0.855665 0.0340887 0.0918135
0.985748 0.386892 0.258412
0.993118 0.837674 0.846784
0.944823 0.937819 0.924926
0.0679484 0.399741 0.0286412
0.0679484 0.395285 0.0287022
0.0679637 0.393332 0.028809
0.073991 0.467567 0.0361791
0.521599 0.559228 0.0775769
0.936217 0.470039 0.0689708
0.99234 0.622568 0.151965
0.982483 0.869566 0.818753
0.939483 0.942382 0.9252
0.101289 0.740108 0.0740978
0.102052 0.744488 0.0752117
0.104051 0.756649 0.0783856
0.110674 0.810864 0.0890059
0.120729 0.870359 0.101564
0.812833 0.858167 0.113466
0.934859 0.830518 0.400793
0.950759 0.921874 0.818723
0.936828 0.943603 0.9243
0.123873 0.934707 0.181247
0.123796 0.934844 0.184695
0.123674 0.935042 0.190768
0.122744 0.934737 0.219303
0.42005 0.92108 0.361837
0.700084 0.943481 0.568734
0.903227 0.931731 0.690837
0.928237 0.941802 0.809201
0.937087 0.943771 0.9252
0.68249 0.96144 0.781476
0.682811 0.961456 0.781643
0.683497 0.961456 0.781872
0.686427 0.961227 0.783337
0.74847 0.961807 0.784314
0.867216 0.948699 0.771023
0.923858 0.941726 0.775006
0.931975 0.942519 0.84947
0.937789 0.944778 0.928359
0.705699 0.968246 0.87393
0.7178 0.968566 0.874647
0.718654 0.968673 0.874769
0.761364 0.967285 0.874815
0.895354 0.949386 0.855558
0.932006 0.943038 0.844572
0.932845 0.943038 0.855009
0.93489 0.943252 0.895033
0.938094 0.945586 0.931105
0.0683604 0.145312 0.391562
0.0683909 0.143908 0.38764
0.0684367 0.14313 0.385901
0.0992447 0.167315 0.507958
0.791043 0.0135805 0.604044
0.922866 0.407156 0.585687
0.880796 0.0172885 0.474479
0.998749 0.813886 0.869612
0.948043 0.934493 0.925826
0.0680858 0.153002 0.412619
0.0682383 0.150912 0.406973
0.0683452 0.14873 0.40145
0.0827497 0.149645 0.446708
0.791119 0.01355 0.602518
0.845914 0.0122225 0.531746
0.882261 0.0191501 0.475792
0.998749 0.816846 0.86949
0.947478 0.935088 0.925673
0.0670024 0.165362 0.443046
0.0672313 0.162966 0.436469
0.067689 0.159854 0.428214
0.0792554 0.146304 0.42948
0.790417 0.013611 0.585199
0.846448 0.0124971 0.520272
0.885969 0.0246128 0.47924
0.998749 0.821363 0.869032
0.947036 0.93579 0.925566
0.0624857 0.239124 0.528756
0.0631571 0.23534 0.521935
0.0639658 0.229221 0.511223
0.0685588 0.210773 0.482704
0.789487 0.0203555 0.527321
0.847822 0.01561 0.51809
0.962692 0.17467 0.550088
0.995605 0.838605 0.864698
0.945022 0.937728 0.925032
0.0897688 0.566217 0.518151
0.0898604 0.568322 0.521096
0.0902876 0.572244 0.525902
0.0922408 0.584497 0.546777
0.581979 0.563149 0.567849
0.950423 0.318059 0.436133
0.98323 0.56466 0.523339
0.979202 0.869856 0.845838
0.939467 0.942397 0.925216
0.111192 0.816098 0.20174
0.111177 0.81706 0.210513
0.111238 0.819715 0.218524
0.111894 0.833875 0.236179
0.122805 0.872694 0.253681
0.836774 0.846937 0.484352
0.952575 0.834211 0.589471
0.951247 0.922484 0.834455
0.936828 0.943603 0.924315
0.119173 0.936233 0.391699
0.119066 0.936248 0.39649
0.118898 0.936248 0.404257
0.118379 0.93579 0.440238
0.343847 0.927977 0.542062
0.731075 0.951858 0.696727
0.917311 0.935119 0.762631
0.929381 0.941482 0.823987
0.937087 0.943786 0.925216
0.683894 0.964645 0.852903
0.684199 0.964691 0.852995
0.685069 0.964706 0.853254
0.688685 0.964843 0.853971
0.776959 0.962829 0.855955
0.890654 0.94754 0.837919
0.929564 0.941543 0.830625
0.932006 0.942519 0.849851
0.937789 0.944778 0.928374
0.75378 0.967758 0.875029
0.764172 0.967025 0.874617
0.772274 0.966369 0.874067
0.80412 0.962936 0.871595
0.918669 0.94493 0.84921
0.932006 0.943038 0.844678
0.932845 0.943038 0.855161
0.934905 0.943252 0.89514
0.938094 0.945586 0.931105
0.0399786 0.236866 0.619516
0.0419623 0.234028 0.612467
0.0432593 0.231983 0.608347
0.0391394 0.261662 0.686412
0.292561 0.638682 0.320775
0.834852 0.0156558 0.778775
0.884504 0.0194247 0.760952
0.998749 0.815991 0.934447
0.948531 0.933944 0.93051
0.0369726 0.242786 0.630716
0.0388952 0.240101 0.623819
0.0417792 0.235966 0.61442
0.0353857 0.266316 0.694682
0.291951 0.640223 0.322515
0.835599 0.0159609 0.780224
0.885374 0.0209659 0.761624
0.998749 0.819364 0.934295
0.948104 0.934462 0.930373
0.0318303 0.252262 0.648478
0.0338903 0.249516 0.641855
0.0371557 0.245563 0.631952
0.0343938 0.266529 0.68864
0.289357 0.645914 0.382467
0.836728 0.0166781 0.783047
0.887938 0.0246586 0.763821
0.998749 0.824094 0.934051
0.947509 0.935271 0.930297
0.0220493 0.299489 0.711772
0.0223697 0.296361 0.707485
0.0224002 0.29044 0.698955
0.033753 0.270726 0.665415
0.743435 0.0455329 0.798947
0.842573 0.021149 0.794369
0.897337 0.0525216 0.773541
0.998367 0.842115 0.931579
0.945266 0.937636 0.929824
0.0531472 0.579583 0.802182
0.0522316 0.576944 0.800626
0.0506905 0.572259 0.798367
0.0416266 0.54789 0.788098
0.302235 0.44065 0.802991
0.864057 0.146548 0.821485
0.988678 0.40354 0.862119
0.983764 0.879225 0.924254
0.938796 0.943694 0.928847
0.111879 0.876417 0.816159
0.111833 0.877043 0.817227
0.111666 0.877714 0.81886
0.111589 0.879835 0.825315
0.183398 0.888792 0.849165
0.874937 0.870298 0.862211
0.975341 0.804547 0.795865
0.950942 0.924437 0.909529
0.937758 0.944823 0.92903
0.119615 0.9337 0.792355
0.119783 0.934005 0.792966
0.119982 0.934493 0.793927
0.120562 0.936126 0.797498
0.241382 0.940963 0.813199
0.753552 0.95082 0.857313
0.92694 0.935637 0.882048
0.933989 0.94168 0.907301
0.93785 0.945006 0.929595
0.683284 0.964675 0.923186
0.683619 0.964797 0.923384
0.68455 0.965148 0.923934
0.688457 0.965835 0.925719
0.778195 0.964508 0.92752
0.912123 0.944793 0.911635
0.93402 0.941985 0.910109
0.935607 0.942962 0.918349
0.937972 0.945434 0.930953
0.768734 0.966445 0.947906
0.767529 0.966476 0.947921
0.785626 0.965225 0.946807
0.822324 0.961166 0.943465
0.933318 0.945296 0.930602
0.937819 0.945281 0.9308
0.937881 0.945342 0.930861
0.937987 0.945449 0.930968
0.938094 0.945586 0.931105
0.00801099 0.357961 0.785779
0.00802625 0.357763 0.786175
0.00819409 0.357183 0.786877
0.00979629 0.35555 0.789563
0.179431 0.286748 0.800824
0.948775 0.697124 0.93193
0.884382 0.034287 0.829129
0.998749 0.815488 0.953063
0.947997 0.933959 0.932021
0.00840772 0.362371 0.786191
0.00842298 0.36202 0.786542
0.00862135 0.361532 0.787381
0.0101472 0.359777 0.790265
0.180835 0.289082 0.801709
0.949172 0.701701 0.93286
0.885786 0.0379644 0.830961
0.998749 0.817914 0.952728
0.948028 0.933928 0.932036
0.00915541 0.370321 0.787106
0.00915541 0.369741 0.787335
0.00933852 0.369299 0.788128
0.0107576 0.367269 0.791104
0.183322 0.292699 0.803525
0.376684 0.686336 0.37055
0.887999 0.0441596 0.833646
0.998749 0.823056 0.952544
0.947356 0.934783 0.931899
0.0116884 0.418814 0.790066
0.0116274 0.418021 0.790341
0.01178 0.416831 0.790906
0.0129549 0.413016 0.794156
0.199908 0.312459 0.80412
0.380789 0.71873 0.377584
0.893828 0.0747539 0.842161
0.995758 0.840818 0.950332
0.94522 0.937179 0.931594
0.0566415 0.62945 0.846006
0.0561532 0.628687 0.845914
0.0556039 0.627665 0.846067
0.0541695 0.62446 0.847913
0.260227 0.539254 0.856107
0.842664 0.1617 0.840543
0.979385 0.438361 0.934188
0.982651 0.877668 0.944274
0.939193 0.943832 0.930816
0.100847 0.876875 0.890822
0.100847 0.877104 0.891203
0.100816 0.877256 0.89163
0.101503 0.877638 0.894652
0.212146 0.869841 0.901717
0.812833 0.825727 0.93431
0.96939 0.814939 0.94081
0.95137 0.925963 0.93077
0.937911 0.945296 0.930831
0.485161 0.934035 0.907729
0.488594 0.934676 0.90837
0.494148 0.935958 0.909712
0.518044 0.943358 0.91722
0.594629 0.958495 0.933532
0.815595 0.95201 0.933898
0.932113 0.939727 0.925353
0.936584 0.943801 0.929412
0.937911 0.945327 0.930861
0.68394 0.963287 0.942535
0.684398 0.963485 0.942809
0.685405 0.963775 0.943267
0.689128 0.964538 0.94461
0.788098 0.962661 0.944457
0.91809 0.944564 0.929366
0.936538 0.943999 0.929564
0.937499 0.944839 0.930373
0.937987 0.945449 0.930953
0.765179 0.966751 0.94818
0.772381 0.966247 0.947753
0.775128 0.965957 0.947463
0.82594 0.960555 0.942885
0.934173 0.945327 0.930694
0.937835 0.945296 0.930816
0.937896 0.945357 0.930877
0.937987 0.945464 0.930983
0.938094 0.945586 0.931105
0.052369 0.620218 0.8477
0.0520485 0.619425 0.847623
0.0539864 0.621027 0.84976
0.0751354 0.633478 0.865782
0.487984 0.610254 0.877195
0.848188 0.172152 0.842115
0.9523 0.238056 0.907256
0.994705 0.848219 0.952804
0.947692 0.934417 0.931991
0.0551461 0.627146 0.850004
0.0549325 0.626474 0.849928
0.0559396 0.627314 0.851179
0.076463 0.639673 0.86775
0.486046 0.619669 0.877684
0.847532 0.174334 0.841901
0.96791 0.271122 0.922698
0.993881 0.850645 0.952392
0.947417 0.934783 0.931945
0.0595712 0.63949 0.853941
0.0594644 0.6392 0.854047
0.0593576 0.638529 0.854276
0.0757916 0.651087 0.870604
0.481956 0.634424 0.877943
0.846357 0.178622 0.841398
0.984039 0.314488 0.938949
0.992569 0.854322 0.951736
0.946975 0.935439 0.931899
0.0668498 0.68835 0.871382
0.0668498 0.687739 0.871244
0.0668498 0.687175 0.871305
0.0862135 0.697276 0.884886
0.465568 0.690745 0.877668
0.809522 0.192355 0.838865
0.976715 0.454154 0.934112
0.98819 0.867033 0.949371
0.945129 0.937346 0.931579
0.0791028 0.790921 0.898482
0.0790723 0.790738 0.898817
0.0790417 0.790463 0.89929
0.108202 0.793393 0.907027
0.4701 0.77052 0.898741
0.88101 0.565545 0.912535
0.953002 0.6598 0.916533
0.97528 0.894514 0.942977
0.93959 0.943496 0.930907
0.107927 0.89987 0.901183
0.108888 0.899992 0.901778
0.128283 0.904845 0.907576
0.235264 0.895018 0.901747
0.467994 0.888319 0.907454
0.816632 0.879469 0.924773
0.94995 0.886046 0.929305
0.947631 0.931197 0.930816
0.937926 0.945342 0.930877
0.641169 0.954681 0.933898
0.642054 0.955001 0.934295
0.643809 0.955566 0.934981
0.650965 0.957259 0.937209
0.670069 0.961028 0.942672
0.856474 0.949722 0.934569
0.933806 0.941741 0.928191
0.936919 0.944228 0.929854
0.937942 0.945373 0.930892
0.6869 0.964584 0.944274
0.687327 0.964691 0.944472
0.688212 0.964889 0.944808
0.691905 0.965515 0.94583
0.817929 0.960128 0.942428
0.926177 0.944045 0.929168
0.936919 0.94435 0.929946
0.937606 0.944976 0.930526
0.938003 0.945464 0.930983
0.769482 0.966476 0.947951
0.77467 0.966033 0.94757
0.782879 0.965515 0.947051
0.825437 0.960693 0.943023
0.933654 0.945388 0.930709
0.937881 0.945357 0.930877
0.937926 0.945403 0.930922
0.938003 0.945495 0.930999
0.938109 0.945602 0.931121
0.514076 0.9149 0.918715
0.516228 0.915938 0.919829
0.521523 0.918166 0.922789
0.553246 0.926467 0.932708
0.776654 0.929198 0.932662
0.909865 0.928939 0.928603
0.947341 0.927596 0.931868
0.948974 0.931487 0.931868
0.938338 0.945022 0.931014
0.518135 0.917708 0.92076
0.520897 0.919051 0.922377
0.525078 0.921218 0.924743
0.558129 0.928267 0.93341
0.776242 0.930373 0.932845
0.910048 0.929488 0.928725
0.947112 0.927932 0.931777
0.94844 0.931899 0.931685
0.938155 0.945129 0.931044
0.524239 0.922606 0.924178
0.525917 0.923186 0.925155
0.53135 0.924987 0.927855
0.567437 0.930861 0.934615
0.776242 0.932372 0.933577
0.910323 0.930388 0.928893
0.946426 0.928725 0.931456
0.947982 0.932418 0.93164
0.937972 0.945296 0.931029
0.552499 0.934585 0.932387
0.556817 0.934966 0.932906
0.561746 0.935393 0.933333
0.590616 0.93727 0.935332
0.775265 0.938766 0.936278
0.911376 0.932509 0.929366
0.944366 0.931212 0.930846
0.946471 0.934462 0.931411
0.937987 0.945434 0.930968
0.630228 0.948837 0.935836
0.631266 0.948898 0.935927
0.633783 0.949157 0.936385
0.644846 0.950744 0.938811
0.761807 0.952987 0.942672
0.911025 0.938399 0.930037
0.939864 0.937972 0.930877
0.941512 0.940017 0.930968
0.937987 0.945434 0.930968
0.66894 0.96054 0.941573
0.669444 0.960678 0.941726
0.670771 0.961013 0.942077
0.675914 0.962417 0.943923
0.74966 0.964004 0.947173
0.907057 0.944732 0.930755
0.935531 0.943358 0.929595
0.937362 0.944701 0.930312
0.937987 0.945434 0.930968
0.682933 0.963256 0.942916
0.683513 0.963455 0.94313
0.684276 0.963714 0.943526
0.688014 0.964523 0.944945
0.79176 0.962371 0.94461
0.920653 0.944305 0.929503
0.936553 0.944015 0.929702
0.93753 0.944869 0.930449
0.938003 0.945449 0.930983
0.692348 0.966278 0.946624
0.693049 0.966445 0.946899
0.69514 0.96672 0.947341
0.733761 0.967437 0.94844
0.881544 0.951324 0.934997
0.93727 0.944701 0.930297
0.937484 0.944884 0.930465
0.937804 0.94522 0.93077
0.938048 0.945525 0.931044
0.758953 0.967376 0.948714
0.767742 0.966628 0.948104
0.77911 0.965896 0.947463
0.820844 0.961563 0.943801
0.933577 0.945449 0.930785
0.937957 0.945449 0.930968
0.937987 0.94548 0.930999
0.938048 0.945541 0.93106
0.938109 0.945617 0.931136
