public/assets/luts/pointandshoot.cube
TITLE "Generated by Resolve"
LUT_3D_SIZE 65
0.10605 0.0693523 0.068925
0.106813 0.0693828 0.0690623
0.107347 0.0693523 0.068925
0.107897 0.0693065 0.0688029
0.108629 0.0691386 0.0687724
0.109316 0.0690623 0.0686656
0.109804 0.0690776 0.0686198
0.11043 0.0691081 0.0685588
0.11107 0.0691081 0.068513
0.11165 0.0691234 0.0684977
0.112291 0.0691234 0.0684672
0.113008 0.0690929 0.0684367
0.113832 0.0690929 0.0684062
0.114794 0.0690166 0.0682994
0.115938 0.0688945 0.0681621
0.118029 0.068452 0.0680247
0.120745 0.0675212 0.0687266
0.12343 0.0670634 0.0688182
0.13138 0.0658427 0.0680858
0.141497 0.0640421 0.0669413
0.156207 0.0612039 0.0645151
0.177401 0.0565042 0.0612192
0.205035 0.0507668 0.0574807
0.237385 0.0460975 0.0536812
0.2692 0.0426642 0.0519265
0.338796 0.0317388 0.0464332
0.408011 0.0238346 0.0402838
0.482322 0.0180209 0.0346075
0.560998 0.0155184 0.0291752
0.634974 0.0154574 0.0286259
0.735195 0.0153353 0.0274662
0.793805 0.0154421 0.0284886
0.80325 0.0154269 0.0210422
0.810178 0.0154421 0.0199588
0.816205 0.0154116 0.0192721
0.821195 0.0153353 0.0191196
0.8271 0.0153811 0.020325
0.833112 0.0154421 0.0287175
0.838987 0.0155032 0.0350195
0.844724 0.0154574 0.0405585
0.850904 0.0154421 0.0455177
0.857481 0.0155642 0.051194
0.864332 0.0157473 0.056733
0.871229 0.0158541 0.0661784
0.878569 0.0161746 0.0776837
0.887037 0.0168002 0.0933089
0.891142 0.0179446 0.123384
0.958144 0.163348 0.211841
0.988327 0.275654 0.27187
0.982284 0.363668 0.307149
0.985306 0.424872 0.358038
0.986496 0.477394 0.413123
0.983948 0.526528 0.468269
0.986786 0.607401 0.551919
0.998749 0.735897 0.744396
0.998749 0.78378 0.821302
0.998749 0.814725 0.854566
0.997925 0.838376 0.873137
0.993103 0.857267 0.886809
0.986801 0.875257 0.897368
0.979614 0.890883 0.906218
0.971633 0.905409 0.913375
0.963516 0.917494 0.918837
0.955154 0.927291 0.922759
0.947555 0.934966 0.925689
0.106416 0.069749 0.0690166
0.106508 0.0698863 0.0691386
0.107134 0.0698405 0.0691844
0.107652 0.0698711 0.0690013
0.108141 0.0698863 0.0689708
0.108598 0.0698558 0.068986
0.109209 0.0697948 0.068925
0.109697 0.0698405 0.0689555
0.110216 0.0698711 0.0689708
0.110826 0.0698711 0.0689555
0.111452 0.0698711 0.0689403
0.112108 0.0698711 0.0689097
0.112947 0.0697948 0.0688029
0.113924 0.0697032 0.0686351
0.115557 0.0693828 0.0686656
0.118059 0.0686503 0.0690013
0.120073 0.0682383 0.0694438
0.123186 0.0679179 0.0690013
0.130571 0.0669261 0.0684215
0.140414 0.0652171 0.0673228
0.154269 0.0625162 0.0653697
0.174609 0.0578622 0.0619974
0.20264 0.0520638 0.0582284
0.235492 0.0473182 0.0544137
0.267887 0.0438392 0.0525826
0.334813 0.0332189 0.0470283
0.404044 0.0246433 0.0408637
0.477577 0.0185245 0.0349737
0.55935 0.0155337 0.0290837
0.632547 0.0154574 0.0284428
0.731304 0.0153658 0.0274205
0.793835 0.0154421 0.0284886
0.803265 0.0154269 0.0210422
0.810178 0.0154421 0.0199435
0.81622 0.0154116 0.0192721
0.821195 0.0153353 0.0191196
0.827024 0.0153811 0.0201877
0.833005 0.0154269 0.0281224
0.83888 0.0155032 0.0347143
0.844694 0.0154574 0.0403906
0.850858 0.0154574 0.0452888
0.85742 0.0155795 0.0510414
0.864317 0.0157626 0.0566415
0.871229 0.0158694 0.0661784
0.878523 0.0161898 0.0775921
0.887037 0.016846 0.093431
0.891142 0.0179904 0.123507
0.958679 0.164569 0.212222
0.988418 0.276631 0.271687
0.982254 0.364889 0.306554
0.985443 0.426261 0.357824
0.986542 0.479423 0.412421
0.983902 0.527703 0.46772
0.986786 0.607553 0.552285
0.998749 0.736446 0.744488
0.998749 0.784375 0.821225
0.998749 0.815457 0.854429
0.997894 0.838514 0.873091
0.992874 0.857771 0.88661
0.986801 0.875257 0.897368
0.979583 0.890974 0.906172
0.971756 0.905241 0.913451
0.963561 0.917388 0.918853
0.955154 0.927291 0.922744
0.947601 0.93492 0.925704
0.105379 0.0704509 0.0690013
0.107012 0.070161 0.0694285
0.107103 0.0702678 0.0695048
0.107332 0.0704356 0.0693217
0.107759 0.0704356 0.0692912
0.108263 0.0704356 0.069276
0.108766 0.0704204 0.0692607
0.109346 0.0704356 0.0692302
0.109834 0.0704967 0.0692454
0.110414 0.0704967 0.0692149
0.11104 0.0704814 0.0691539
0.111711 0.0704051 0.0690623
0.11249 0.0703441 0.0689708
0.113802 0.0700694 0.0692302
0.115663 0.0696117 0.0695201
0.117433 0.0692454 0.0698711
0.119829 0.0690776 0.0695964
0.122377 0.068986 0.069276
0.129809 0.0679789 0.0687572
0.139269 0.0663005 0.0679637
0.152392 0.0637064 0.0661784
0.171817 0.0593271 0.0629587
0.199756 0.0535439 0.0590829
0.23357 0.0485847 0.0551461
0.267262 0.0450752 0.0532235
0.331182 0.0348058 0.0478523
0.400061 0.0255741 0.0414282
0.472663 0.0189517 0.0352636
0.55581 0.0155337 0.0291752
0.630488 0.0154574 0.0282292
0.726894 0.0154421 0.0274968
0.793835 0.0154421 0.0284886
0.803265 0.0154269 0.0210422
0.810178 0.0154421 0.0199435
0.81622 0.0154116 0.0192721
0.82121 0.0153353 0.0191348
0.826932 0.0153811 0.0200504
0.832898 0.0154269 0.0272221
0.838804 0.0155032 0.0344244
0.844648 0.0154574 0.0401617
0.850797 0.0154574 0.0450904
0.857389 0.0155795 0.0509346
0.864286 0.0157778 0.0565499
0.871199 0.0158846 0.0661631
0.878477 0.0162051 0.0773938
0.887037 0.0168917 0.0935683
0.891142 0.0180514 0.12369
0.95967 0.166827 0.212909
0.988312 0.278767 0.27071
0.982391 0.366247 0.305928
0.985489 0.427008 0.357733
0.986542 0.480293 0.412375
0.98381 0.528405 0.467414
0.986847 0.608881 0.551476
0.998749 0.736904 0.744457
0.998749 0.78439 0.821271
0.998749 0.815976 0.854383
0.997772 0.838972 0.872923
0.992737 0.857984 0.886488
0.986786 0.875319 0.897368
0.9794 0.891356 0.906065
0.971435 0.905684 0.913207
0.963211 0.917891 0.918669
0.955032 0.927428 0.922713
0.947494 0.935058 0.925673
0.104707 0.0708629 0.0686809
0.105364 0.0708324 0.0686198
0.10724 0.0708324 0.0694133
0.107301 0.0709544 0.0695048
0.107698 0.0709544 0.0696269
0.108125 0.0709697 0.0695659
0.108583 0.0709697 0.0695201
0.108919 0.0709697 0.0696727
0.109529 0.0710307 0.0694285
0.110018 0.0710307 0.069337
0.110628 0.0709697 0.0692912
0.111269 0.0709239 0.0696422
0.112291 0.0706951 0.06981
0.113924 0.0702831 0.0700236
0.115267 0.0701305 0.0702373
0.117067 0.0700847 0.0700694
0.119173 0.0700389 0.0698558
0.121584 0.0699779 0.0696574
0.128817 0.0689708 0.0692912
0.138048 0.0673228 0.068574
0.150683 0.0648966 0.0669566
0.169207 0.0607919 0.063859
0.19707 0.0549477 0.0601358
0.230991 0.0499123 0.0558785
0.267079 0.0462043 0.0538033
0.327016 0.0366979 0.0485542
0.396109 0.0266575 0.0421607
0.468055 0.0193484 0.035523
0.550134 0.0155032 0.0295872
0.628779 0.0154269 0.027985
0.722591 0.0154116 0.0275273
0.793851 0.0154421 0.0284886
0.803281 0.0154269 0.0210269
0.810193 0.0154421 0.0199435
0.81622 0.0154116 0.0192721
0.821164 0.0153353 0.019089
0.826841 0.0153811 0.0199283
0.832746 0.0154116 0.0238499
0.838697 0.0155032 0.0341192
0.844602 0.0154726 0.0399481
0.850767 0.0154574 0.0449531
0.857343 0.0155947 0.050782
0.864256 0.0157931 0.0564279
0.871153 0.0159152 0.0661479
0.878431 0.0162203 0.0773175
0.887037 0.0169223 0.0936751
0.891127 0.0180972 0.12372
0.960342 0.168688 0.213519
0.988327 0.279698 0.270497
0.982406 0.367178 0.305638
0.98558 0.428626 0.357443
0.986511 0.48159 0.411978
0.983764 0.529549 0.467079
0.986969 0.609918 0.551232
0.998749 0.737392 0.74461
0.998749 0.785046 0.821118
0.998749 0.81593 0.854398
0.997772 0.838941 0.872938
0.992355 0.85861 0.886137
0.986511 0.876005 0.8972
0.979278 0.891661 0.905989
0.971252 0.905928 0.913054
0.963012 0.918105 0.918563
0.955169 0.92726 0.922759
0.947509 0.935027 0.925689
0.104051 0.0713054 0.0683452
0.104799 0.0712902 0.0683146
0.105852 0.0713512 0.0686809
0.107607 0.0713817 0.0695964
0.107698 0.0714885 0.0697185
0.108064 0.0715038 0.0699168
0.108537 0.0714885 0.0699321
0.108995 0.0714427 0.0698253
0.109209 0.0714885 0.0700236
0.109712 0.0714885 0.0701152
0.110231 0.0714122 0.0702983
0.111177 0.0712291 0.0703288
0.11223 0.0709544 0.070573
0.113466 0.0709544 0.0704662
0.114717 0.071046 0.0704204
0.11632 0.0710307 0.0703288
0.118288 0.0709697 0.0702525
0.120638 0.0708782 0.0701762
0.127871 0.0699168 0.0698863
0.137072 0.0682231 0.0690776
0.149264 0.0658732 0.0675212
0.166979 0.0621042 0.0648356
0.193896 0.0565499 0.0610361
0.228275 0.0512093 0.0565194
0.267277 0.0471199 0.0542611
0.323278 0.0385443 0.0493629
0.392493 0.0278325 0.0429694
0.463279 0.019913 0.0359503
0.544625 0.0154879 0.0298772
0.626886 0.0154269 0.0278172
0.717968 0.0154269 0.0279393
0.793866 0.0154421 0.0284886
0.803281 0.0154269 0.0210269
0.810193 0.0154421 0.0199588
0.816236 0.0154116 0.0192721
0.821103 0.0153353 0.0190127
0.826749 0.0153811 0.0198062
0.832654 0.0154116 0.0227665
0.83859 0.0155032 0.0337835
0.844572 0.0154726 0.039704
0.850736 0.0154726 0.0447852
0.857313 0.01561 0.0506447
0.864225 0.0158083 0.0563516
0.871122 0.0159304 0.0661021
0.878386 0.0162509 0.0771954
0.887037 0.0169528 0.0937514
0.891081 0.0181888 0.12369
0.961059 0.170687 0.214084
0.988556 0.281376 0.270115
0.982376 0.36788 0.305394
0.985733 0.430198 0.357107
0.986542 0.482887 0.411536
0.983749 0.530251 0.466789
0.986954 0.610285 0.551186
0.998749 0.737697 0.74464
0.998749 0.78529 0.821088
0.998749 0.816419 0.854353
0.997681 0.839445 0.872847
0.992477 0.858366 0.886259
0.986511 0.876005 0.897215
0.979278 0.891661 0.906004
0.971237 0.905974 0.913039
0.963043 0.918074 0.918578
0.955093 0.927367 0.922728
0.947433 0.935149 0.925643
0.103578 0.0716716 0.0679942
0.104265 0.0717327 0.0680705
0.105318 0.0717937 0.0684367
0.106416 0.0719005 0.068986
0.107271 0.0720378 0.0695048
0.10808 0.0719615 0.0699779
0.108293 0.0719921 0.0704051
0.108644 0.0719768 0.070634
0.108934 0.0719615 0.0707713
0.109453 0.0719463 0.0709697
0.110246 0.0717632 0.0711223
0.110933 0.0717327 0.0710002
0.111757 0.0717632 0.0709697
0.112779 0.0717784 0.0709544
0.114046 0.0717937 0.0709392
0.115511 0.0718242 0.0709392
0.117479 0.0717784 0.0708324
0.119921 0.0716716 0.0707103
0.126864 0.0707866 0.0702983
0.136019 0.0692149 0.069688
0.147829 0.0668803 0.0680858
0.164889 0.0634165 0.0658122
0.191318 0.0579538 0.0617075
0.226978 0.0521248 0.0568704
0.267597 0.0478065 0.0545205
0.320256 0.0404212 0.0502785
0.389059 0.0291142 0.0438239
0.458961 0.0204929 0.0365301
0.538766 0.0154879 0.0302281
0.625101 0.0154269 0.0277562
0.713436 0.0153964 0.0280156
0.793881 0.0154421 0.0284886
0.803296 0.0154269 0.0210269
0.810193 0.0154421 0.0199435
0.816236 0.0154116 0.0192721
0.821042 0.0153353 0.0189364
0.826658 0.0153811 0.0197147
0.832563 0.0154116 0.0221866
0.838529 0.0155032 0.0333562
0.844511 0.0154879 0.0394293
0.850675 0.0154726 0.0446479
0.857298 0.0156252 0.0505074
0.864179 0.0158389 0.05626
0.871077 0.0159457 0.066041
0.87834 0.0162661 0.0770581
0.887037 0.0170138 0.093843
0.891051 0.0182345 0.1234
0.96144 0.17145 0.214343
0.988708 0.282689 0.269841
0.982422 0.368841 0.304891
0.985473 0.431266 0.356512
0.986374 0.484001 0.411032
0.983688 0.53164 0.466407
0.986816 0.610986 0.550698
0.998749 0.738094 0.744595
0.998749 0.785519 0.821027
0.998749 0.816434 0.854368
0.997696 0.839261 0.872862
0.99234 0.85864 0.886122
0.986465 0.876097 0.897185
0.979294 0.89163 0.905989
0.971099 0.906203 0.912947
0.962951 0.918166 0.918532
0.954849 0.927642 0.922637
0.947417 0.935164 0.925658
0.10309 0.0720531 0.0677043
0.103822 0.0721294 0.0678264
0.104799 0.072221 0.0681773
0.106111 0.0722972 0.0690929
0.106996 0.0723735 0.0699321
0.107317 0.0724346 0.0703746
0.1084 0.072282 0.0711376
0.108431 0.072343 0.0716411
0.108721 0.0724041 0.0716869
0.109194 0.0724804 0.0714733
0.109651 0.0725261 0.0714885
0.110185 0.0725261 0.071519
0.111086 0.0724804 0.0714427
0.112093 0.0724956 0.071458
0.11339 0.0725261 0.0714275
0.114855 0.0725719 0.0713664
0.116808 0.0725261 0.0711833
0.119387 0.0723583 0.0710765
0.126253 0.0715801 0.0707103
0.135393 0.0700694 0.0701152
0.147173 0.0677348 0.0686046
0.163912 0.0644083 0.0663767
0.190158 0.0588846 0.0621347
0.226123 0.0529793 0.0572061
0.267659 0.0485389 0.0546883
0.31899 0.0417487 0.050782
0.38732 0.0300298 0.0441901
0.455009 0.0211795 0.0368963
0.533333 0.0154726 0.0305486
0.62089 0.0154116 0.027512
0.708873 0.0153964 0.0281224
0.793881 0.0154421 0.0284886
0.803296 0.0154269 0.0210269
0.810193 0.0154421 0.0199435
0.81622 0.0154116 0.0192569
0.820981 0.0153353 0.0188754
0.826566 0.0153811 0.0196078
0.832471 0.0153964 0.0217136
0.838453 0.0155032 0.0329442
0.84448 0.0155032 0.0392004
0.850645 0.0154879 0.0445106
0.857282 0.0156405 0.0504158
0.864149 0.0158541 0.0561532
0.871031 0.0159609 0.0660105
0.878309 0.0162814 0.0769665
0.887053 0.0170596 0.0939956
0.891005 0.0183261 0.123278
0.963165 0.174838 0.215579
0.988647 0.284153 0.269306
0.982528 0.370474 0.304295
0.985595 0.432959 0.356146
0.986496 0.48539 0.410819
0.983642 0.532677 0.465934
0.986984 0.611582 0.550637
0.998749 0.738216 0.744701
0.998749 0.785901 0.820951
0.998749 0.817029 0.854154
0.997589 0.840055 0.87277
0.992111 0.859419 0.885924
0.986252 0.876448 0.897002
0.979156 0.891951 0.905913
0.970871 0.906645 0.912779
0.962951 0.918166 0.918532
0.954665 0.927871 0.922576
0.947417 0.93518 0.925643
0.10277 0.0724804 0.0675517
0.104234 0.0725414 0.0686656
0.105486 0.0725872 0.0695354
0.106218 0.0726787 0.0702678
0.106554 0.0728466 0.0708782
0.1066 0.0730602 0.071397
0.106722 0.0730755 0.0712596
0.107332 0.0729686 0.0711223
0.108949 0.0728466 0.0718395
0.109026 0.0730449 0.0718242
0.109453 0.0730755 0.0717784
0.109895 0.0731212 0.0717937
0.110735 0.0729992 0.071931
0.111742 0.0731365 0.0716564
0.113008 0.0731518 0.0715953
0.114549 0.073167 0.0715496
0.116426 0.073167 0.071458
0.119066 0.0729229 0.0713359
0.126024 0.0722057 0.0710307
0.135027 0.0708476 0.0704509
0.146761 0.0685435 0.0689708
0.163149 0.0652323 0.0668498
0.189197 0.0598459 0.0625925
0.225437 0.0538186 0.0574502
0.267857 0.0492561 0.0548409
0.317998 0.0429847 0.0511635
0.386038 0.0310369 0.0445716
0.453086 0.0216983 0.0370184
0.528313 0.0155947 0.0310826
0.615839 0.0154116 0.0273289
0.704753 0.0153658 0.0281987
0.793896 0.0154421 0.0284886
0.803311 0.0154269 0.0210117
0.810208 0.0154421 0.0199435
0.816129 0.0154116 0.0191958
0.82092 0.0153353 0.0188144
0.826474 0.0153811 0.0195163
0.83241 0.0154116 0.0214084
0.838346 0.0155032 0.0324712
0.844419 0.0155032 0.0389258
0.850584 0.0154879 0.044358
0.857252 0.0156558 0.050309
0.864103 0.0158694 0.0560616
0.87097 0.0159762 0.0659342
0.878248 0.0162966 0.0768292
0.887053 0.0171054 0.0941176
0.89102 0.0184939 0.123125
0.963684 0.176181 0.215915
0.98851 0.285435 0.268727
0.982635 0.372107 0.30367
0.985824 0.433646 0.356237
0.986465 0.486778 0.4103
0.983612 0.533867 0.465721
0.987152 0.6121 0.55053
0.998749 0.738582 0.744747
0.998749 0.786313 0.82089
0.998749 0.817349 0.854032
0.997589 0.840085 0.872786
0.992096 0.85951 0.885924
0.986252 0.876463 0.897017
0.978897 0.892561 0.90573
0.970886 0.906645 0.912795
0.962692 0.918746 0.918349
0.954894 0.927581 0.922652
0.947433 0.935164 0.925658
0.104814 0.0728771 0.0698405
0.105852 0.0729229 0.070573
0.106523 0.0729992 0.0712444
0.106432 0.0731518 0.0713207
0.10605 0.0733501 0.0711833
0.105669 0.0735637 0.0710307
0.106004 0.073518 0.0708324
0.106737 0.0734417 0.0707561
0.107851 0.0735332 0.0711986
0.109117 0.0735943 0.0719005
0.109361 0.0736553 0.0720989
0.109865 0.0736858 0.0721294
0.110491 0.0736248 0.0722515
0.111406 0.0737469 0.0719615
0.112627 0.0737774 0.0717479
0.114214 0.0737774 0.0716564
0.116014 0.0737621 0.0715496
0.118746 0.073579 0.0715496
0.12575 0.0728466 0.0713054
0.134661 0.0714427 0.0706798
0.146365 0.0693065 0.0693675
0.162509 0.0660868 0.0673228
0.188113 0.0607767 0.0630961
0.224689 0.0546426 0.0578622
0.267659 0.049958 0.0549325
0.317479 0.0439918 0.0514534
0.384894 0.0321202 0.0449836
0.451408 0.0223087 0.037171
0.523247 0.0155947 0.0314488
0.611078 0.0154269 0.0272374
0.70074 0.0153811 0.0282902
0.793896 0.0154421 0.0284886
0.803326 0.0154269 0.0210117
0.810208 0.0154421 0.0199435
0.816037 0.0154116 0.0191196
0.820844 0.0153353 0.0187533
0.826383 0.0153811 0.0194553
0.832334 0.0153964 0.0211185
0.838254 0.0155032 0.0319219
0.844373 0.0155184 0.0386816
0.850507 0.0155032 0.0442054
0.857206 0.015671 0.0502022
0.864057 0.0158846 0.0559854
0.870924 0.0159915 0.0658579
0.878187 0.0163272 0.0766918
0.887037 0.0171511 0.0941939
0.891066 0.0187839 0.123033
0.964416 0.177996 0.216648
0.98851 0.2869 0.268315
0.982666 0.373236 0.303304
0.986236 0.436118 0.355825
0.986465 0.487373 0.410193
0.983642 0.534356 0.465522
0.987259 0.612985 0.550484
0.998749 0.739162 0.744732
0.998749 0.786969 0.820813
0.998749 0.817517 0.853956
0.997467 0.840925 0.872709
0.99205 0.859876 0.885908
0.986068 0.876768 0.896864
0.978836 0.892699 0.905684
0.970825 0.906706 0.912764
0.962798 0.918471 0.918425
0.954589 0.927962 0.92256
0.94725 0.935439 0.925597
0.106584 0.0730755 0.0713817
0.106249 0.0732586 0.0712596
0.105852 0.0734722 0.071107
0.10547 0.0736706 0.0709239
0.105104 0.0738689 0.0707561
0.104753 0.074052 0.0705882
0.105303 0.0739757 0.0704662
0.106142 0.07393 0.0704509
0.107225 0.074052 0.0708171
0.108339 0.0741894 0.0714427
0.109453 0.0742199 0.0720989
0.109712 0.0743267 0.0723278
0.110414 0.0742809 0.0724498
0.111299 0.0742809 0.0722972
0.112474 0.0743725 0.0721141
0.113817 0.0743877 0.0717632
0.115663 0.0743725 0.0716411
0.118486 0.0742351 0.0716716
0.125475 0.0735027 0.071519
0.134325 0.0719768 0.0710307
0.145876 0.0699626 0.0696117
0.162005 0.0668803 0.0677195
0.186877 0.0617533 0.0636454
0.223896 0.0555123 0.0582284
0.267292 0.0505989 0.0549325
0.316777 0.044892 0.0518349
0.384375 0.0331121 0.045243
0.449912 0.0229343 0.0375372
0.520562 0.0155947 0.0315251
0.606332 0.0155184 0.0274052
0.6972 0.0153506 0.0285801
0.793912 0.0154421 0.0284886
0.803326 0.0154269 0.0210117
0.810193 0.0154421 0.019913
0.81593 0.0154116 0.0190433
0.820783 0.0153353 0.0187076
0.826307 0.0153811 0.019379
0.832242 0.0154116 0.0208896
0.838178 0.0155032 0.0314183
0.844327 0.0155337 0.0384222
0.850462 0.0155184 0.0440528
0.857176 0.0156863 0.0501259
0.864027 0.0158999 0.0559243
0.870878 0.0160067 0.0658122
0.878157 0.0163424 0.0766155
0.887037 0.0171817 0.0942702
0.891218 0.0195926 0.123095
0.96527 0.179904 0.217029
0.988434 0.288075 0.267826
0.982971 0.374807 0.302678
0.986297 0.436927 0.355795
0.986404 0.488807 0.40972
0.983795 0.535515 0.4654
0.987259 0.61387 0.550072
0.998749 0.739483 0.744884
0.998749 0.78703 0.820829
0.998749 0.817899 0.853742
0.997391 0.84123 0.872648
0.992035 0.859937 0.885893
0.985656 0.877485 0.896544
0.978546 0.893629 0.905562
0.970748 0.906813 0.912734
0.962661 0.918776 0.918349
0.954559 0.927977 0.922545
0.947188 0.935531 0.925582
0.105669 0.0735637 0.0710155
0.105272 0.0737774 0.0708324
0.104921 0.0739605 0.0706645
0.104555 0.0741588 0.0705119
0.104173 0.0743572 0.0703593
0.103975 0.0745098 0.070222
0.104646 0.0744182 0.0701152
0.105516 0.0744335 0.070161
0.106615 0.0745403 0.0704814
0.107805 0.0746929 0.0710765
0.108736 0.0748608 0.0716106
0.109819 0.0748913 0.0723125
0.110262 0.0749523 0.0726177
0.111177 0.0748913 0.0727398
0.112352 0.0749676 0.0726635
0.113787 0.0749218 0.0720531
0.115236 0.0750439 0.071809
0.118166 0.0749065 0.0717479
0.12517 0.0741741 0.0717021
0.133928 0.0725719 0.0712139
0.14551 0.0706645 0.0699321
0.161395 0.0676738 0.0680858
0.185931 0.0626078 0.0642863
0.222873 0.0564279 0.0585336
0.266957 0.0513161 0.0550393
0.31603 0.0459602 0.0522011
0.383597 0.0339818 0.0454566
0.448325 0.0236973 0.0378271
0.5187 0.0155795 0.0314946
0.601633 0.0154879 0.0273594
0.693141 0.0153811 0.0286564
0.793927 0.0154421 0.0284886
0.803342 0.0154269 0.0210269
0.810101 0.0154421 0.0197604
0.815839 0.0154269 0.018967
0.820676 0.0153353 0.0186465
0.8262 0.0153811 0.0193179
0.832151 0.0154116 0.020676
0.838087 0.0155032 0.0308843
0.844282 0.0155337 0.0381628
0.850416 0.0155184 0.0438392
0.857099 0.0157015 0.049958
0.863981 0.0159304 0.0558633
0.870832 0.016022 0.0657359
0.878111 0.0163577 0.0765393
0.887037 0.0172274 0.0944533
0.891402 0.022446 0.1234
0.966186 0.181643 0.217411
0.988525 0.289372 0.267674
0.983063 0.376287 0.302174
0.986404 0.438224 0.355642
0.986297 0.489738 0.409369
0.983719 0.536477 0.464942
0.987243 0.614313 0.550011
0.998749 0.739925 0.744839
0.998749 0.787579 0.820798
0.998749 0.81799 0.853681
0.99736 0.841382 0.872618
0.991775 0.860517 0.88571
0.985611 0.877592 0.896498
0.978653 0.893278 0.905608
0.970825 0.906706 0.912779
0.962707 0.9187 0.918364
0.954559 0.927993 0.922545
0.947204 0.935515 0.925582
0.104646 0.0741131 0.0705425
0.10425 0.0743267 0.0703899
0.103914 0.0745098 0.0702373
0.103609 0.0746777 0.0700542
0.103334 0.0748455 0.0698711
0.10338 0.0749218 0.0697337
0.103914 0.0749371 0.0697185
0.104845 0.0749828 0.0698253
0.105928 0.0750896 0.0701305
0.107103 0.0752422 0.0706188
0.108232 0.0754101 0.0713054
0.109209 0.0755932 0.0718547
0.110262 0.0756237 0.0725414
0.110964 0.0755627 0.0728923
0.112062 0.0754864 0.0729686
0.113695 0.0756237 0.0727245
0.115282 0.0756847 0.0721141
0.117739 0.0756847 0.0718547
0.124804 0.0749371 0.0718395
0.133486 0.0732586 0.0714122
0.145174 0.0714275 0.0702983
0.160769 0.0685588 0.0685588
0.184695 0.0636149 0.0648508
0.221454 0.0574197 0.0587625
0.265888 0.0522164 0.0551308
0.31516 0.0470741 0.0526589
0.382422 0.035172 0.0456855
0.446647 0.0246586 0.0381628
0.516381 0.0155795 0.0315251
0.59617 0.0154879 0.0274052
0.685542 0.0154574 0.0287633
0.793942 0.0154421 0.0284886
0.803342 0.0154269 0.0210117
0.81001 0.0154421 0.0196078
0.815747 0.0154269 0.0188907
0.820584 0.0153353 0.0186007
0.826108 0.0153811 0.0192416
0.832059 0.0154116 0.0204776
0.83798 0.0155184 0.0302129
0.844175 0.0155642 0.0380407
0.85034 0.0155337 0.0436103
0.857053 0.0157321 0.0497902
0.863935 0.0159457 0.055787
0.870771 0.0160372 0.0656596
0.87805 0.0163729 0.0764324
0.887022 0.0172732 0.0945907
0.891707 0.0293584 0.12398
0.966644 0.182818 0.217578
0.988586 0.291524 0.266835
0.982971 0.377066 0.301701
0.986496 0.439567 0.355306
0.986206 0.490913 0.409033
0.983612 0.537438 0.464424
0.987289 0.615274 0.549661
0.998749 0.740475 0.744945
0.998749 0.788006 0.820813
0.998749 0.818372 0.853437
0.99704 0.842268 0.872312
0.991806 0.860487 0.88574
0.985687 0.87744 0.896544
0.978531 0.893675 0.905547
0.970794 0.906767 0.912749
0.962661 0.918776 0.918349
0.95465 0.927886 0.922576
0.947188 0.935546 0.925582
0.103517 0.0747387 0.0699779
0.103212 0.0749065 0.06981
0.102892 0.0750896 0.0696422
0.102556 0.0752728 0.0694285
0.102251 0.0754559 0.0692149
0.10251 0.0755016 0.0691081
0.103258 0.0755016 0.0691234
0.104051 0.075639 0.0693675
0.105119 0.0757458 0.0697642
0.106279 0.0758984 0.0701915
0.107454 0.0760815 0.0707713
0.108629 0.0762951 0.071519
0.109621 0.0764477 0.0720531
0.110826 0.0764477 0.072755
0.11191 0.0763714 0.0733043
0.113466 0.0764324 0.0735332
0.115221 0.0765545 0.0729534
0.117952 0.0764172 0.0720989
0.124193 0.0757916 0.0720836
0.132982 0.0742046 0.0716716
0.144701 0.0723583 0.0707256
0.160021 0.0696117 0.0690776
0.183001 0.064683 0.0653544
0.219852 0.0587015 0.0592966
0.26537 0.0532998 0.0552224
0.314244 0.0483406 0.0531472
0.381262 0.0372015 0.0461433
0.444877 0.0258946 0.0385595
0.513756 0.0155947 0.0315404
0.592111 0.0154726 0.027451
0.677043 0.0154421 0.0287633
0.789624 0.0154116 0.0278172
0.803159 0.0154269 0.0206455
0.809888 0.0154421 0.0194705
0.815625 0.0154269 0.0188144
0.820478 0.0153353 0.0185245
0.825956 0.0153811 0.0191653
0.831937 0.0154116 0.0202487
0.837858 0.0155184 0.0295415
0.844022 0.0155947 0.0379339
0.850294 0.0155642 0.0433204
0.856977 0.0157473 0.049546
0.863859 0.0159609 0.0557412
0.870695 0.0160678 0.0655222
0.877989 0.0164034 0.0763256
0.886992 0.017319 0.094667
0.892424 0.03682 0.124544
0.967651 0.185077 0.217945
0.988663 0.293706 0.266239
0.982712 0.378943 0.300572
0.986419 0.442206 0.35433
0.986297 0.492546 0.40853
0.983352 0.538842 0.463539
0.98735 0.616541 0.549371
0.998749 0.741192 0.744823
0.998749 0.788525 0.820676
0.998749 0.818845 0.853132
0.997162 0.842084 0.87245
0.991653 0.860746 0.885618
0.985397 0.878233 0.896361
0.978561 0.893584 0.905547
0.970336 0.907546 0.912444
0.962692 0.91873 0.918349
0.95462 0.927916 0.922576
0.94725 0.935439 0.925597
0.10222 0.0754711 0.0691997
0.101915 0.075639 0.0689555
0.10161 0.0758221 0.0687266
0.10132 0.0759899 0.0684977
0.101015 0.0761578 0.0682841
0.101579 0.0761578 0.0683146
