public/assets/luts/pointandshoot.cube
TITLE "Generated by Resolve"
LUT_3D_SIZE 5
0.10605 0.0693523 0.068925
0.120745 0.0675212 0.0687266
0.80325 0.0154269 0.0210422
0.988327 0.275654 0.27187
0.947555 0.934966 0.925689
0.0971084 0.0784161 0.064744
0.113451 0.0821698 0.0733196
0.801572 0.0154269 0.0192416
0.988342 0.307103 0.260853
0.946838 0.936049 0.925521
0.0678264 0.388144 0.0173953
0.0679789 0.397559 0.0175326
0.449989 0.565789 0.0494087
0.990692 0.628916 0.134646
0.939529 0.942382 0.925185
0.12314 0.930831 0.130343
0.123171 0.931502 0.138857
0.426062 0.918883 0.297368
0.903136 0.931701 0.690578
0.937087 0.943771 0.9252
0.696376 0.967819 0.87335
0.703334 0.968292 0.873976
0.885237 0.951354 0.85832
0.932845 0.943053 0.854994
0.938094 0.945586 0.931105
0.102907 0.068986 0.0772106
0.123369 0.0641794 0.0813611
0.804501 0.0154574 0.0364233
0.988327 0.275715 0.27216
0.947417 0.93518 0.925643
0.100023 0.0834058 0.081178
0.114595 0.0822919 0.0819257
0.80325 0.0154879 0.0344091
0.988342 0.30695 0.261173
0.94699 0.935866 0.925536
0.0678416 0.371221 0.0177615
0.0677501 0.37554 0.0176547
0.459861 0.567452 0.0504311
0.990707 0.62884 0.134691
0.939513 0.942382 0.9252
0.123156 0.931029 0.132296
0.123156 0.93167 0.141375
0.429679 0.918822 0.29987
0.903151 0.931716 0.690593
0.937087 0.943771 0.9252
0.698512 0.967987 0.873549
0.707576 0.968231 0.874022
0.888579 0.950729 0.857389
0.932845 0.943053 0.854963
0.938094 0.945586 0.931105
0.0683604 0.145312 0.391562
0.0684367 0.14313 0.385901
0.791043 0.0135805 0.604044
0.880796 0.0172885 0.474479
0.948043 0.934493 0.925826
0.0670024 0.165362 0.443046
0.067689 0.159854 0.428214
0.790417 0.013611 0.585199
0.885969 0.0246128 0.47924
0.947036 0.93579 0.925566
0.0897688 0.566217 0.518151
0.0902876 0.572244 0.525902
0.581979 0.563149 0.567849
0.98323 0.56466 0.523339
0.939467 0.942397 0.925216
0.119173 0.936233 0.391699
0.118898 0.936248 0.404257
0.343847 0.927977 0.542062
0.917311 0.935119 0.762631
0.937087 0.943786 0.925216
0.75378 0.967758 0.875029
0.772274 0.966369 0.874067
0.918669 0.94493 0.84921
0.932845 0.943038 0.855161
0.938094 0.945586 0.931105
0.00801099 0.357961 0.785779
0.00819409 0.357183 0.786877
0.179431 0.286748 0.800824
0.884382 0.034287 0.829129
0.947997 0.933959 0.932021
0.00915541 0.370321 0.787106
0.00933852 0.369299 0.788128
0.183322 0.292699 0.803525
0.887999 0.0441596 0.833646
0.947356 0.934783 0.931899
0.0566415 0.62945 0.846006
0.0556039 0.627665 0.846067
0.260227 0.539254 0.856107
0.979385 0.438361 0.934188
0.939193 0.943832 0.930816
0.485161 0.934035 0.907729
0.494148 0.935958 0.909712
0.594629 0.958495 0.933532
0.932113 0.939727 0.925353
0.937911 0.945327 0.930861
0.765179 0.966751 0.94818
0.775128 0.965957 0.947463
0.934173 0.945327 0.930694
0.937896 0.945357 0.930877
0.938094 0.945586 0.931105
0.514076 0.9149 0.918715
0.521523 0.918166 0.922789
0.776654 0.929198 0.932662
0.947341 0.927596 0.931868
0.938338 0.945022 0.931014
0.524239 0.922606 0.924178
0.53135 0.924987 0.927855
0.776242 0.932372 0.933577
0.946426 0.928725 0.931456
0.937972 0.945296 0.931029
0.630228 0.948837 0.935836
0.633783 0.949157 0.936385
0.761807 0.952987 0.942672
0.939864 0.937972 0.930877
0.937987 0.945434 0.930968
0.682933 0.963256 0.942916
0.684276 0.963714 0.943526
0.79176 0.962371 0.94461
0.936553 0.944015 0.929702
0.938003 0.945449 0.930983
0.758953 0.967376 0.948714
0.77911 0.965896 0.947463
0.933577 0.945449 0.930785
0.937987 0.94548 0.930999
0.938109 0.945617 0.931136
