public/assets/luts/rangefinder.cube
TITLE "Generated by Resolve"
LUT_3D_SIZE 9
0.0618448 0.0631418 0.0628977
0.0666361 0.0630198 0.0626688
0.0781262 0.0619211 0.0625162
0.214069 0.0412299 0.0473793
0.822797 0.0327764 0.0336309
0.851453 0.0330816 0.033753
0.992508 0.290593 0.301122
0.996597 0.831891 0.901244
0.986709 0.802533 0.937896
0.0607156 0.0651408 0.0632029
0.0646982 0.0657511 0.0647898
0.0725567 0.0658122 0.0643931
0.204532 0.047364 0.0491951
0.822858 0.0327764 0.0336309
0.851209 0.0330968 0.033753
0.992111 0.304372 0.294743
0.996628 0.834592 0.901366
0.986831 0.802655 0.938125
0.0539406 0.0693828 0.060853
0.056672 0.070161 0.061387
0.0699474 0.0720073 0.0659648
0.191943 0.0590219 0.052018
0.82295 0.0327764 0.0336309
0.850752 0.0331426 0.033753
0.989487 0.325429 0.282124
0.996811 0.839536 0.901884
0.987152 0.802976 0.938659
0.0403754 0.109331 0.0443732
0.0393378 0.113146 0.0436713
0.037232 0.119341 0.0424353
0.127398 0.128389 0.0526894
0.675151 0.0345312 0.034226
0.849653 0.0334173 0.0336919
0.982986 0.433066 0.21265
0.996597 0.859632 0.902571
0.990707 0.811887 0.94313
0.0208133 0.390845 0.0214389
0.0198367 0.373922 0.0204623
0.0198062 0.373327 0.0204318
0.0368658 0.514519 0.0371099
0.481865 0.590661 0.0554818
0.952438 0.526833 0.0451057
0.989609 0.713008 0.121874
0.982483 0.914794 0.882399
0.992508 0.90547 0.954589
0.0756695 0.790784 0.075349
0.0767071 0.80029 0.0763714
0.0783856 0.814847 0.0780346
0.0828565 0.86453 0.0825208
0.0877699 0.89398 0.0842603
0.854673 0.884627 0.0883955
0.933104 0.861402 0.485359
0.95996 0.94963 0.877897
0.957061 0.958282 0.939544
0.0818036 0.939055 0.273671
0.0812695 0.938628 0.285359
0.108721 0.942702 0.307469
0.353353 0.921218 0.356527
0.603296 0.932418 0.504662
0.808621 0.951537 0.691371
0.932815 0.947768 0.792645
0.951003 0.95671 0.870985
0.957 0.958495 0.93991
0.823941 0.966232 0.831907
0.825742 0.966262 0.831983
0.829221 0.966415 0.832212
0.839246 0.966537 0.832532
0.869398 0.964767 0.830289
0.935973 0.956298 0.82089
0.946166 0.956573 0.830961
0.953231 0.957839 0.887419
0.957031 0.959213 0.941131
0.946838 0.957732 0.827619
0.946838 0.957732 0.827634
0.946838 0.957732 0.827649
0.946853 0.957748 0.827741
0.946914 0.957763 0.828107
0.947219 0.957855 0.829801
0.948699 0.958221 0.838895
0.953841 0.958587 0.886564
0.956786 0.959625 0.941482
0.0611276 0.0630808 0.0644846
0.0675822 0.0623484 0.0654154
0.0783398 0.0614939 0.063798
0.221805 0.0400854 0.0474098
0.822934 0.0327764 0.0336309
0.851484 0.0330816 0.033753
0.992493 0.290684 0.301167
0.996567 0.831769 0.901228
0.986572 0.802396 0.937621
0.0620279 0.065507 0.0655375
0.0646067 0.0658732 0.0656748
0.0748302 0.0656291 0.0651865
0.21062 0.0462043 0.0497444
0.82298 0.0327764 0.0336309
0.85124 0.0331121 0.033753
0.992142 0.304128 0.294972
0.996628 0.83447 0.901381
0.986816 0.80264 0.938109
0.0536049 0.0701457 0.0621347
0.0572671 0.0702831 0.0625925
0.0711681 0.071931 0.0674144
0.198428 0.0581979 0.0530404
0.823087 0.0327764 0.0336309
0.850797 0.0331426 0.033753
0.989487 0.32517 0.282445
0.996796 0.83946 0.901884
0.987198 0.803006 0.938735
0.0403143 0.109682 0.0445411
0.0393378 0.113283 0.0438544
0.0374151 0.119219 0.0431525
0.132265 0.127398 0.0559548
0.676326 0.0344091 0.0341344
0.849668 0.0334173 0.0336919
0.982986 0.433158 0.212634
0.996582 0.859449 0.902556
0.992111 0.815549 0.944793
0.0203403 0.382818 0.0209659
0.019913 0.369955 0.0205386
0.0197452 0.372717 0.0203708
0.0373388 0.516976 0.0375372
0.48574 0.590173 0.0555123
0.952438 0.52665 0.0450752
0.989609 0.713039 0.12192
0.982483 0.914809 0.882383
0.992493 0.90547 0.954589
0.0759899 0.793606 0.0756695
0.0770886 0.80296 0.0767376
0.0786145 0.816785 0.0782483
0.0829633 0.865827 0.0826276
0.0878004 0.893965 0.0842756
0.855024 0.884596 0.0884108
0.93312 0.861402 0.485695
0.95996 0.94963 0.877897
0.957061 0.958282 0.939544
0.0816663 0.938949 0.276768
0.081117 0.938521 0.288304
0.120211 0.942885 0.310964
0.358297 0.921126 0.358206
0.603983 0.932433 0.505364
0.808835 0.951537 0.6916
0.932815 0.947768 0.79266
0.951003 0.95671 0.871
0.957 0.958495 0.93991
0.824079 0.966232 0.831907
0.826398 0.966293 0.832044
0.829648 0.966415 0.832227
0.839567 0.966522 0.832517
0.869474 0.964752 0.830274
0.935973 0.956298 0.820874
0.946166 0.956573 0.830961
0.953231 0.957839 0.887419
0.957046 0.959228 0.941146
0.946838 0.957732 0.827634
0.946853 0.957732 0.827649
0.946838 0.957732 0.827649
0.946853 0.957748 0.827756
0.946914 0.957763 0.828107
0.947219 0.95787 0.829801
0.948699 0.958221 0.838895
0.953841 0.958587 0.886564
0.956786 0.959625 0.941482
0.059144 0.0630198 0.0681468
0.0630808 0.0619821 0.0691844
0.0809339 0.0596017 0.0704967
0.228504 0.0387274 0.0520943
0.822965 0.0327764 0.0336309
0.851881 0.0330663 0.033753
0.992477 0.291035 0.301305
0.996643 0.832227 0.901305
0.986725 0.802563 0.937942
0.0590372 0.0661479 0.0699779
0.0625315 0.0658122 0.0693065
0.0776379 0.0638132 0.0711376
0.226429 0.0417487 0.0526894
0.823011 0.0327764 0.0336309
0.851667 0.0330968 0.033753
0.992111 0.303197 0.295781
0.996628 0.83447 0.901396
0.986831 0.802655 0.938125
0.0558022 0.0724498 0.0709239
0.0602731 0.0725109 0.0710765
0.0719158 0.0721447 0.0719921
0.208652 0.0570382 0.0603342
0.823102 0.0327764 0.0336309
0.851194 0.0331426 0.033753
0.989502 0.325109 0.282719
0.99678 0.839261 0.901869
0.987137 0.80296 0.938659
0.0401312 0.111086 0.0459449
0.0397803 0.113054 0.0458839
0.0384375 0.117418 0.0462043
0.132494 0.126574 0.0703746
0.673869 0.034226 0.0341192
0.850065 0.033402 0.0337072
0.98294 0.432227 0.213565
0.996612 0.859693 0.902586
0.991363 0.813718 0.943847
0.0196078 0.360967 0.0202487
0.0197299 0.345983 0.0203708
0.0195468 0.349966 0.0201724
0.03682 0.513756 0.0370336
0.490486 0.591028 0.0556039
0.952605 0.525765 0.0455482
0.989639 0.712917 0.121843
0.982483 0.914687 0.882597
0.992615 0.905089 0.954665
0.0748455 0.787076 0.0749981
0.0760815 0.796536 0.0762493
0.0777752 0.811154 0.0779278
0.0824903 0.860914 0.0826581
0.0877852 0.894804 0.0844892
0.85568 0.884565 0.0884718
0.933165 0.861418 0.486351
0.959945 0.94963 0.877882
0.957061 0.958282 0.939544
0.0814069 0.93875 0.282155
0.0816205 0.938506 0.293721
0.137804 0.942687 0.31577
0.366903 0.920943 0.3608
0.605554 0.932631 0.507408
0.809125 0.951507 0.691936
0.932815 0.947768 0.792676
0.951003 0.95671 0.871015
0.957 0.958495 0.93991
0.825055 0.966232 0.831952
0.827329 0.966339 0.832105
0.83006 0.966445 0.832242
0.840253 0.966491 0.832517
0.869856 0.964706 0.830198
0.936202 0.956268 0.820813
0.946166 0.956573 0.830961
0.953231 0.957839 0.887434
0.957046 0.959228 0.941146
0.946838 0.957732 0.827634
0.946853 0.957732 0.827649
0.946853 0.957732 0.827665
0.946853 0.957732 0.827756
0.946914 0.957763 0.828122
0.947219 0.95787 0.829816
0.948699 0.958221 0.838895
0.953841 0.958587 0.886595
0.956786 0.959625 0.941482
0.0464179 0.0661173 0.106859
0.0490883 0.0648661 0.105486
0.0545052 0.0631418 0.105303
0.278859 0.0305333 0.115541
0.826596 0.0327153 0.0892042
0.85687 0.0329137 0.0996414
0.988342 0.24622 0.332738
0.996582 0.831785 0.901259
0.986694 0.802533 0.937896
0.0453193 0.0697642 0.110765
0.048127 0.0683604 0.109361
0.0537423 0.0662394 0.107851
0.264027 0.0320287 0.117189
0.82652 0.0327459 0.0879225
0.856962 0.0329595 0.0984054
0.990738 0.27097 0.337102
0.996551 0.834012 0.90132
0.986679 0.802502 0.937835
0.0426642 0.0776837 0.120073
0.0456855 0.075761 0.11667
0.0528115 0.0731365 0.113252
0.244068 0.0373693 0.121462
0.826352 0.0328374 0.0834058
0.857038 0.0330663 0.094255
0.990539 0.308217 0.338659
0.996796 0.839292 0.901915
0.987137 0.80296 0.938659
0.0287785 0.143359 0.131243
0.0291905 0.142199 0.130755
0.0300298 0.139422 0.129458
0.141421 0.128206 0.130388
0.757885 0.0333715 0.0545663
0.854856 0.0334783 0.0530861
0.982177 0.421317 0.271885
0.996582 0.859388 0.902602
0.990768 0.812085 0.943191
0.0199588 0.376242 0.0252384
0.0196841 0.353613 0.0250401
0.0198367 0.345907 0.0252842
0.0269474 0.449439 0.0322271
0.54873 0.574807 0.0638743
0.956191 0.516564 0.0600137
0.992004 0.71339 0.137133
0.982483 0.914702 0.882628
0.992325 0.905928 0.954498
0.0709239 0.764111 0.0760967
0.0725414 0.775097 0.0776837
0.0748455 0.791043 0.0799268
0.080415 0.84361 0.0856641
0.0882124 0.90071 0.0919814
0.864927 0.888212 0.0973373
0.938582 0.863783 0.5402
0.959976 0.94963 0.877958
0.957061 0.958282 0.939544
0.0800031 0.938781 0.347341
0.0796216 0.938384 0.35816
0.0943618 0.941436 0.378729
0.334798 0.923888 0.415
0.600809 0.935866 0.545037
0.81651 0.952682 0.71458
0.933013 0.947829 0.793652
0.951003 0.95671 0.871046
0.957 0.958495 0.93991
0.828672 0.9664 0.832181
0.830289 0.966476 0.832273
0.832822 0.966476 0.832319
0.842618 0.966278 0.83238
0.871 0.964614 0.83006
0.936767 0.956176 0.820676
0.946181 0.956573 0.830991
0.953231 0.957839 0.887449
0.957061 0.959213 0.941161
0.946838 0.957732 0.827649
0.946838 0.957732 0.82768
0.946853 0.957732 0.827665
0.946853 0.957748 0.827771
0.946914 0.957763 0.828153
0.947219 0.95787 0.829831
0.948714 0.958236 0.838956
0.953841 0.958587 0.88658
0.956786 0.959625 0.941482
0.0344396 0.113161 0.321859
0.0343481 0.113725 0.323537
0.0339666 0.116152 0.332128
0.0389563 0.129396 0.543862
0.81442 0.0170901 0.631708
0.846311 0.0153506 0.558175
0.864591 0.0163272 0.518288
0.998032 0.830503 0.912734
0.986542 0.802365 0.937591
0.0327916 0.118807 0.341451
0.0334478 0.11725 0.3355
0.0336156 0.116823 0.333989
0.0355993 0.13257 0.493645
0.814466 0.0171664 0.635035
0.846448 0.0153811 0.552346
0.864851 0.0168765 0.518608
0.998215 0.83331 0.9131
0.986709 0.802548 0.937911
0.00877394 0.137682 0.395499
0.0146639 0.133867 0.384604
0.0271 0.12842 0.371969
0.0356603 0.121416 0.385199
0.814466 0.0171054 0.630396
0.846647 0.0156405 0.550225
0.865583 0.0185092 0.519249
0.998474 0.83827 0.913527
0.98703 0.802869 0.938506
0 0.216403 0.534722
0 0.211368 0.523644
0 0.203159 0.50576
0.0339971 0.174228 0.457404
0.812833 0.0186313 0.527077
0.846845 0.0175021 0.536538
0.960388 0.15761 0.608698
0.997848 0.858732 0.914321
0.990753 0.811994 0.943175
0.0492714 0.577935 0.534417
0.0495003 0.580331 0.536919
0.0500649 0.584756 0.542702
0.0520638 0.599344 0.564111
0.604578 0.567681 0.571405
0.96875 0.323461 0.43679
0.970169 0.608896 0.530327
0.98172 0.916564 0.902037
0.992721 0.904509 0.954681
0.0801251 0.843412 0.195193
0.0801709 0.844724 0.199649
0.0802472 0.84651 0.205921
0.0806897 0.8598 0.21004
0.0885328 0.897002 0.235599
0.869352 0.866346 0.552743
0.95906 0.858686 0.653742
0.960143 0.94963 0.890776
0.957061 0.958282 0.939544
0.0783246 0.938781 0.550286
0.0783856 0.938888 0.5561
0.0784314 0.938827 0.566476
0.154162 0.944045 0.603998
0.557458 0.939574 0.657618
0.839231 0.955184 0.799588
0.942351 0.949798 0.846983
0.951827 0.956573 0.883803
0.957 0.958495 0.93991
0.84979 0.969497 0.900877
0.851316 0.969421 0.900862
0.854856 0.969162 0.900771
0.866529 0.968124 0.900053
0.895247 0.964858 0.895827
0.947112 0.956451 0.883772
0.951797 0.956771 0.884947
0.953414 0.957809 0.890578
0.957076 0.959213 0.941161
0.946853 0.957748 0.827771
0.946853 0.957732 0.827787
0.946868 0.957748 0.827817
0.946868 0.957748 0.827878
0.946929 0.957763 0.828244
0.947234 0.95787 0.829938
0.94873 0.958236 0.839078
0.953857 0.958587 0.886687
0.956786 0.959625 0.941482
0 0.223133 0.615991
0 0.219287 0.606226
0 0.213581 0.591577
0 0.248737 0.685023
0.192859 0.777356 0.205859
0.83978 0.0203708 0.799313
0.865003 0.0209049 0.775174
0.996292 0.829572 0.940459
0.985397 0.802075 0.938445
0 0.230823 0.630213
0 0.226902 0.620325
0 0.22092 0.60531
0 0.252003 0.686931
0.192462 0.778302 0.206958
0.840009 0.0205234 0.799924
0.865293 0.0211337 0.77467
0.996887 0.832822 0.941421
0.98558 0.802228 0.93875
0 0.242924 0.652018
0 0.239063 0.643046
0 0.233127 0.628153
0 0.249561 0.672129
0.175647 0.774685 0.558541
0.840238 0.0207828 0.800671
0.866224 0.0226139 0.774807
0.997467 0.837873 0.942367
0.985824 0.802457 0.939071
0 0.293477 0.72697
0 0.289311 0.720531
0 0.282475 0.709651
0 0.254826 0.66009
0.788312 0.0352483 0.807858
0.843839 0.0243381 0.807095
0.873121 0.036347 0.780224
0.998611 0.858946 0.945647
0.988479 0.807507 0.942641
0 0.604593 0.833204
0 0.600885 0.831098
0 0.594858 0.828046
0 0.564752 0.813596
0.334508 0.423835 0.82237
0.927108 0.177127 0.88922
0.970062 0.475166 0.857023
0.983352 0.919676 0.939574
0.993851 0.898299 0.957092
0.0789807 0.907973 0.846952
0.0789807 0.908034 0.847623
0.0790417 0.908049 0.848798
0.079057 0.906569 0.852369
0.288182 0.895827 0.856046
0.898787 0.88806 0.87628
0.983505 0.837217 0.807019
0.958984 0.950042 0.930816
0.956512 0.959274 0.941146
0.084062 0.940002 0.830167
0.0841535 0.94023 0.830762
0.0949569 0.943694 0.834363
0.242359 0.941512 0.834424
0.523919 0.937545 0.838926
0.84976 0.953445 0.887968
0.946883 0.950103 0.914641
0.95317 0.957046 0.933242
0.956542 0.959319 0.941207
0.845533 0.970367 0.943862
0.847166 0.970352 0.943877
0.850889 0.970077 0.943648
0.864668 0.969177 0.943023
0.906111 0.963607 0.938048
0.951034 0.956405 0.933089
0.953323 0.956878 0.935454
0.956481 0.957549 0.938521
0.956634 0.959457 0.941329
0.956436 0.959274 0.941131
0.956436 0.959274 0.941131
0.956436 0.959274 0.941131
0.956436 0.959274 0.941131
0.956436 0.959274 0.941131
0.956466 0.959304 0.941161
0.956527 0.959365 0.941222
0.956634 0.959487 0.941344
0.956786 0.959625 0.941482
0 0.343481 0.796551
0 0.34313 0.796643
0 0.342718 0.796979
0 0.342229 0.802976
0.716381 0.0392767 0.821759
0.968185 0.81944 0.945083
0.862257 0.0243076 0.819394
0.994553 0.83125 0.947936
0.985473 0.802136 0.938567
0 0.347738 0.796948
0 0.347341 0.797147
0 0.346807 0.797498
0 0.346548 0.803967
0.595544 0.0414588 0.843015
0.96875 0.822492 0.945785
0.863188 0.0256657 0.820462
0.995041 0.833906 0.948653
0.98555 0.802213 0.938704
0 0.356359 0.798276
0 0.355734 0.798383
0 0.355016 0.798672
0 0.354788 0.805432
0.267506 0.104524 0.855528
0.239734 0.802152 0.232227
0.865019 0.0286412 0.822675
0.99559 0.839063 0.949676
0.985885 0.802533 0.939162
0 0.418189 0.802182
0 0.417395 0.802426
0 0.416098 0.80267
0 0.41239 0.808545
0.180041 0.247959 0.812573
0.218769 0.823926 0.869566
0.871885 0.0452735 0.831388
0.997086 0.860807 0.95346
0.988708 0.808011 0.942931
0.0245823 0.678996 0.876143
0.0243687 0.678233 0.875975
0.0239109 0.676814 0.875547
0.0192874 0.66479 0.87219
0.342824 0.537224 0.868269
0.840681 0.0840009 0.829221
0.964645 0.524208 0.928161
0.982834 0.919997 0.948028
0.993683 0.899123 0.957015
0.0700847 0.910582 0.907286
0.0699626 0.910414 0.907515
0.069749 0.909987 0.90782
0.0701305 0.908095 0.909972
0.359197 0.877928 0.899428
0.854414 0.847654 0.950454
0.967407 0.857069 0.938231
0.960021 0.95111 0.939025
0.956527 0.959289 0.941176
0.653101 0.960235 0.930877
0.65832 0.960967 0.931624
0.66688 0.961807 0.932494
0.697826 0.962631 0.935103
0.757458 0.962722 0.938796
0.894911 0.956634 0.93669
0.950256 0.95314 0.935378
0.955093 0.957641 0.939605
0.956542 0.959335 0.941207
0.855528 0.969665 0.949264
0.857313 0.969573 0.949157
0.860807 0.969284 0.948928
0.873137 0.967956 0.947814
0.91075 0.962936 0.943526
0.953719 0.957229 0.939193
0.955139 0.957855 0.939773
0.9561 0.958801 0.940688
0.956634 0.959472 0.941329
0.956451 0.959304 0.941161
0.956451 0.959289 0.941161
0.956451 0.959304 0.941161
0.956466 0.959304 0.941161
0.956466 0.959304 0.941176
0.956481 0.959335 0.941192
0.956542 0.959396 0.941253
0.956649 0.959503 0.94136
0.956786 0.95964 0.941482
0.0302739 0.53698 0.849821
0.0395361 0.535744 0.852674
0.0943618 0.532723 0.855955
0.307851 0.511788 0.867277
0.674235 0.395636 0.949798
0.936889 0.576303 0.914839
0.8719 0.053666 0.833036
0.996262 0.847379 0.953307
0.985763 0.802396 0.938964
0.0301213 0.551888 0.850538
0.0356451 0.550927 0.852552
0.0872969 0.547997 0.855756
0.306386 0.525505 0.866545
0.668345 0.414801 0.947417
0.851316 0.0690471 0.831632
0.871992 0.0558175 0.833417
0.996658 0.850141 0.954009
0.985901 0.802548 0.939162
0.0298009 0.574395 0.85417
0.0322423 0.574975 0.855009
0.0779278 0.572442 0.856123
0.2981 0.550057 0.864515
0.656321 0.447471 0.943008
0.851011 0.0721294 0.831891
0.87216 0.0591135 0.83415
0.99675 0.854612 0.954345
0.986267 0.802915 0.939605
0.0289158 0.661891 0.882078
0.0339208 0.662135 0.883055
0.0729686 0.661189 0.882536
0.279896 0.651759 0.873259
0.618387 0.600504 0.922759
0.847227 0.0851911 0.830671
0.99025 0.298253 0.952087
0.996262 0.875471 0.956191
0.989578 0.810712 0.943984
0.0563973 0.825055 0.918288
0.0843671 0.827588 0.921935
0.123995 0.825208 0.921752
0.30074 0.79646 0.901198
0.595026 0.789853 0.906157
0.92253 0.526696 0.918959
0.957427 0.713268 0.925643
0.979324 0.929061 0.948333
0.992111 0.904433 0.956222
0.295445 0.914916 0.907485
0.325277 0.911254 0.90486
0.365026 0.907866 0.902831
0.465248 0.905745 0.90576
0.609033 0.912245 0.92401
0.86746 0.905959 0.930007
0.957168 0.926299 0.937804
0.95874 0.954147 0.940261
0.956558 0.95935 0.941222
0.789151 0.964889 0.944564
0.789792 0.965026 0.944732
0.790875 0.96524 0.944991
0.794812 0.965881 0.945983
0.804868 0.967056 0.947784
0.924819 0.95642 0.938994
0.952499 0.955825 0.938125
0.955535 0.958114 0.940093
0.956573 0.959396 0.941253
0.88278 0.967666 0.947738
0.884382 0.967468 0.94757
0.887419 0.967102 0.947204
0.897429 0.965637 0.945983
0.926543 0.961227 0.942229
0.955001 0.957794 0.939757
0.95555 0.958251 0.940185
0.956207 0.958953 0.940841
0.956649 0.959503 0.94136
0.956512 0.95935 0.941222
0.956512 0.95935 0.941222
0.956512 0.95935 0.941222
0.956512 0.95935 0.941222
0.956512 0.959365 0.941222
0.956527 0.959381 0.941238
0.956573 0.959426 0.941299
0.956664 0.959533 0.94139
0.956786 0.95964 0.941497
0.74107 0.761608 0.919432
0.744198 0.762585 0.92137
0.751995 0.761471 0.927062
0.784833 0.747631 0.948119
0.871992 0.728023 0.935027
0.966842 0.818296 0.954086
0.98143 0.9131 0.951507
0.991791 0.902052 0.955795
0.989044 0.809323 0.943374
0.737911 0.775784 0.924269
0.742809 0.774807 0.925032
0.750561 0.774731 0.927138
0.783062 0.761746 0.949889
0.874525 0.742443 0.944976
0.956527 0.84181 0.946166
0.981079 0.914717 0.951324
0.991028 0.90486 0.955306
0.990127 0.812345 0.944732
0.733288 0.797162 0.93077
0.73962 0.794812 0.931624
0.748837 0.792615 0.933303
0.780606 0.784695 0.944854
0.876051 0.762997 0.956741
0.950347 0.870665 0.94229
0.978943 0.919738 0.95024
0.990051 0.908858 0.954833
0.991836 0.81709 0.946715
0.725063 0.859815 0.942229
0.730739 0.858946 0.942184
0.735775 0.859983 0.94229
0.763333 0.8598 0.941054
0.855528 0.88278 0.931762
0.948272 0.917922 0.943465
0.971756 0.933059 0.946365
0.982635 0.924575 0.951064
0.995468 0.835538 0.951843
0.82768 0.950973 0.943389
0.829984 0.950957 0.943343
0.834531 0.950866 0.943236
0.852323 0.950439 0.942962
0.899168 0.94873 0.941085
0.945693 0.948806 0.939742
0.958999 0.950118 0.940749
0.962692 0.951659 0.941619
0.984833 0.923049 0.952453
0.833249 0.969223 0.950545
0.835248 0.969177 0.95053
0.838514 0.969116 0.950515
0.852888 0.968353 0.949935
0.896452 0.963287 0.945235
0.949523 0.956649 0.939849
0.954147 0.957153 0.939635
0.955962 0.958618 0.940581
0.956619 0.959457 0.941329
0.870375 0.968383 0.94844
0.871946 0.968185 0.948302
0.875059 0.96788 0.948058
0.886 0.966598 0.94696
0.918914 0.9617 0.942657
0.954406 0.95729 0.939406
0.9552 0.957931 0.939941
0.95613 0.958846 0.94078
0.956649 0.959487 0.94136
0.941466 0.959976 0.941283
0.942107 0.959854 0.941207
0.943023 0.959686 0.941085
0.945647 0.959228 0.940734
0.952926 0.958633 0.940444
0.955917 0.958648 0.940597
0.956115 0.958877 0.940795
0.95642 0.959228 0.941115
0.95671 0.959564 0.941421
0.956588 0.959457 0.941329
0.956588 0.959457 0.941329
0.956588 0.959457 0.941329
0.956588 0.959457 0.941329
0.956603 0.959472 0.941329
0.956603 0.959472 0.941344
0.956649 0.959503 0.941375
0.95671 0.959579 0.941436
0.956817 0.959655 0.941512
