public/assets/luts/rangefinder.cube
TITLE "Generated by Resolve"
LUT_3D_SIZE 5
0.0618448 0.0631418 0.0628977
0.0781262 0.0619211 0.0625162
0.822797 0.0327764 0.0336309
0.992508 0.290593 0.301122
0.986709 0.802533 0.937896
0.0539406 0.0693828 0.060853
0.0699474 0.0720073 0.0659648
0.82295 0.0327764 0.0336309
0.989487 0.325429 0.282124
0.987152 0.802976 0.938659
0.0208133 0.390845 0.0214389
0.0198062 0.373327 0.0204318
0.481865 0.590661 0.0554818
0.989609 0.713008 0.121874
0.992508 0.90547 0.954589
0.0818036 0.939055 0.273671
0.108721 0.942702 0.307469
0.603296 0.932418 0.504662
0.932815 0.947768 0.792645
0.957 0.958495 0.93991
0.946838 0.957732 0.827619
0.946838 0.957732 0.827649
0.946914 0.957763 0.828107
0.948699 0.958221 0.838895
0.956786 0.959625 0.941482
0.059144 0.0630198 0.0681468
0.0809339 0.0596017 0.0704967
0.822965 0.0327764 0.0336309
0.992477 0.291035 0.301305
0.986725 0.802563 0.937942
0.0558022 0.0724498 0.0709239
0.0719158 0.0721447 0.0719921
0.823102 0.0327764 0.0336309
0.989502 0.325109 0.282719
0.987137 0.80296 0.938659
0.0196078 0.360967 0.0202487
0.0195468 0.349966 0.0201724
0.490486 0.591028 0.0556039
0.989639 0.712917 0.121843
0.992615 0.905089 0.954665
0.0814069 0.93875 0.282155
0.137804 0.942687 0.31577
0.605554 0.932631 0.507408
0.932815 0.947768 0.792676
0.957 0.958495 0.93991
0.946838 0.957732 0.827634
0.946853 0.957732 0.827665
0.946914 0.957763 0.828122
0.948699 0.958221 0.838895
0.956786 0.959625 0.941482
0.0344396 0.113161 0.321859
0.0339666 0.116152 0.332128
0.81442 0.0170901 0.631708
0.864591 0.0163272 0.518288
0.986542 0.802365 0.937591
0.00877394 0.137682 0.395499
0.0271 0.12842 0.371969
0.814466 0.0171054 0.630396
0.865583 0.0185092 0.519249
0.98703 0.802869 0.938506
0.0492714 0.577935 0.534417
0.0500649 0.584756 0.542702
0.604578 0.567681 0.571405
0.970169 0.608896 0.530327
0.992721 0.904509 0.954681
0.0783246 0.938781 0.550286
0.0784314 0.938827 0.566476
0.557458 0.939574 0.657618
0.942351 0.949798 0.846983
0.957 0.958495 0.93991
0.946853 0.957748 0.827771
0.946868 0.957748 0.827817
0.946929 0.957763 0.828244
0.94873 0.958236 0.839078
0.956786 0.959625 0.941482
0 0.343481 0.796551
0 0.342718 0.796979
0.716381 0.0392767 0.821759
0.862257 0.0243076 0.819394
0.985473 0.802136 0.938567
0 0.356359 0.798276
0 0.355016 0.798672
0.267506 0.104524 0.855528
0.865019 0.0286412 0.822675
0.985885 0.802533 0.939162
0.0245823 0.678996 0.876143
0.0239109 0.676814 0.875547
0.342824 0.537224 0.868269
0.964645 0.524208 0.928161
0.993683 0.899123 0.957015
0.653101 0.960235 0.930877
0.66688 0.961807 0.932494
0.757458 0.962722 0.938796
0.950256 0.95314 0.935378
0.956542 0.959335 0.941207
0.956451 0.959304 0.941161
0.956451 0.959304 0.941161
0.956466 0.959304 0.941176
0.956542 0.959396 0.941253
0.956786 0.95964 0.941482
0.74107 0.761608 0.919432
0.751995 0.761471 0.927062
0.871992 0.728023 0.935027
0.98143 0.9131 0.951507
0.989044 0.809323 0.943374
0.733288 0.797162 0.93077
0.748837 0.792615 0.933303
0.876051 0.762997 0.956741
0.978943 0.919738 0.95024
0.991836 0.81709 0.946715
0.82768 0.950973 0.943389
0.834531 0.950866 0.943236
0.899168 0.94873 0.941085
0.958999 0.950118 0.940749
0.984833 0.923049 0.952453
0.870375 0.968383 0.94844
0.875059 0.96788 0.948058
0.918914 0.9617 0.942657
0.9552 0.957931 0.939941
0.956649 0.959487 0.94136
0.956588 0.959457 0.941329
0.956588 0.959457 0.941329
0.956603 0.959472 0.941329
0.956649 0.959503 0.941375
0.956817 0.959655 0.941512
