public/assets/luts/rangefinder.cube
TITLE "Generated by Resolve"
LUT_3D_SIZE 65
0.0618448 0.0631418 0.0628977
0.0624857 0.0631418 0.0629282
0.0629435 0.0631418 0.0628672
0.0635538 0.0630655 0.0628519
0.0641794 0.0630198 0.0627909
0.0648051 0.0630198 0.0627451
0.0654307 0.0630198 0.0627146
0.0659953 0.063035 0.0626993
0.0666361 0.0630198 0.0626688
0.0671855 0.063035 0.0626841
0.0677806 0.063035 0.0626688
0.0685283 0.0630198 0.0626383
0.0694743 0.062974 0.0625772
0.0705882 0.0629435 0.0625162
0.0720531 0.0628672 0.0623941
0.074342 0.0626383 0.0623789
0.0781262 0.0619211 0.0625162
0.0814527 0.0615396 0.0624094
0.0858778 0.0611582 0.0618296
0.0913863 0.0605631 0.0610361
0.0985275 0.0595712 0.0601511
0.112291 0.057557 0.0586404
0.139574 0.0525521 0.0557107
0.174426 0.0469062 0.0516213
0.214069 0.0412299 0.0473793
0.260838 0.0357824 0.0410925
0.339986 0.035523 0.0357366
0.448951 0.035111 0.0352331
0.555657 0.0335546 0.0347753
0.670298 0.0323644 0.034226
0.790204 0.0326543 0.0337224
0.817395 0.0328069 0.0336919
0.822797 0.0327764 0.0336309
0.826596 0.0328222 0.0336461
0.830045 0.0328222 0.0336309
0.83331 0.0328679 0.0336461
0.836835 0.0328832 0.0336309
0.840208 0.0328985 0.0336461
0.843656 0.0329747 0.0337072
0.84744 0.0330205 0.0337377
0.851453 0.0330816 0.033753
0.855604 0.0330205 0.0336461
0.8598 0.0331121 0.0336767
0.864759 0.0332189 0.0336767
0.869871 0.033402 0.0364691
0.875135 0.0332189 0.0885786
0.877943 0.0331121 0.115755
0.966369 0.173022 0.228595
0.992508 0.290593 0.301122
0.980575 0.356497 0.340627
0.975647 0.388846 0.391302
0.973495 0.408209 0.440772
0.971664 0.418418 0.485206
0.977157 0.661875 0.641962
0.989136 0.77966 0.816403
0.993591 0.817182 0.874464
0.996597 0.831891 0.901244
0.997986 0.836988 0.91548
0.998703 0.838315 0.925673
0.998703 0.837201 0.93225
0.998306 0.832441 0.937057
0.996887 0.825574 0.939818
0.993683 0.815503 0.940215
0.989593 0.806088 0.938582
0.986709 0.802533 0.937896
0.0621805 0.0633555 0.0629892
0.0622416 0.0634318 0.0630503
0.0627909 0.0634165 0.0629892
0.0632029 0.063447 0.062974
0.0636149 0.0634165 0.0630198
0.0641489 0.0634318 0.0629587
0.0647135 0.063447 0.0629587
0.0652934 0.063447 0.0629435
0.0658579 0.063447 0.0629435
0.0664988 0.063447 0.0629282
0.0671092 0.063447 0.0629129
0.0677501 0.063447 0.0628824
0.0686961 0.0634012 0.0628214
0.0698558 0.0633707 0.0627451
0.0717021 0.0632029 0.0627756
0.0745556 0.0627756 0.0629129
0.0773938 0.0623789 0.0630198
0.0809339 0.0621195 0.0626535
0.0852979 0.0617685 0.0621805
0.0903182 0.0611887 0.0613718
0.0971084 0.0603342 0.0605631
0.109758 0.0584421 0.0592813
0.135897 0.0539559 0.056672
0.171099 0.0478981 0.0522927
0.213062 0.0418097 0.0476539
0.257145 0.0357977 0.0418708
0.333776 0.0356756 0.0358892
0.443854 0.035111 0.0352178
0.55227 0.0336004 0.0347753
0.665431 0.0324102 0.0342718
0.786572 0.032639 0.0337377
0.817411 0.0328069 0.0336919
0.822797 0.0327764 0.0336309
0.826596 0.0328222 0.0336461
0.83006 0.0328222 0.0336309
0.83331 0.0328679 0.0336461
0.836774 0.0328832 0.0336309
0.840146 0.0328985 0.0336461
0.84361 0.0329747 0.0337072
0.847395 0.0330205 0.0337377
0.851423 0.0330816 0.033753
0.855558 0.0330205 0.0336461
0.85977 0.0331121 0.0336767
0.864698 0.0332189 0.0336767
0.869795 0.0333867 0.0362402
0.875135 0.0332189 0.088777
0.877928 0.0331121 0.115984
0.9673 0.174884 0.229206
0.992523 0.292973 0.300069
0.980392 0.358572 0.339818
0.975631 0.390417 0.390936
0.973495 0.413931 0.441871
0.972137 0.422568 0.486336
0.977218 0.662104 0.642023
0.989242 0.780011 0.816556
0.993622 0.81767 0.87451
0.996597 0.832715 0.901244
0.998032 0.837781 0.915587
0.998703 0.838865 0.925811
0.998703 0.837247 0.93225
0.998428 0.832975 0.93724
0.996918 0.825315 0.939834
0.993606 0.81532 0.940093
0.989593 0.806088 0.938582
0.986679 0.802502 0.937835
0.0612955 0.0636912 0.0628672
0.0627146 0.0635843 0.0631418
0.0627756 0.0636606 0.0631876
0.0629892 0.0637369 0.0631418
0.063386 0.0637369 0.0631418
0.0638285 0.0637217 0.0632334
0.0643778 0.0637675 0.0630961
0.0649424 0.0637675 0.0630808
0.0655375 0.0637675 0.0630503
0.0661326 0.0637675 0.0630198
0.066804 0.0637675 0.0629892
0.0673991 0.0637827 0.062974
0.0682689 0.0637827 0.0629435
0.0696727 0.0636759 0.0631876
0.0720073 0.0633555 0.0632944
0.0741131 0.0630961 0.0634623
0.0769055 0.0629435 0.0631876
0.0800793 0.0627909 0.0628977
0.0842298 0.0623941 0.0624399
0.0891432 0.0618143 0.0618753
0.095613 0.0610666 0.0609751
0.107637 0.0594492 0.0598154
0.132631 0.0552377 0.0575723
0.167147 0.0491798 0.0532845
0.211826 0.0425269 0.0479133
0.254047 0.0358434 0.0428016
0.327169 0.0356603 0.0359045
0.434989 0.0351415 0.0352331
0.549035 0.0336614 0.0347906
0.661036 0.032517 0.0344091
0.783612 0.0326085 0.0337377
0.817426 0.0328069 0.0336919
0.822812 0.0327764 0.0336309
0.826596 0.0328222 0.0336461
0.83006 0.0328222 0.0336309
0.83331 0.0328679 0.0336461
0.836698 0.0328832 0.0336309
0.840085 0.0328985 0.0336461
0.843565 0.0329747 0.0337072
0.847364 0.0330205 0.0337377
0.851392 0.0330816 0.033753
0.855528 0.0330358 0.0336461
0.859739 0.0331121 0.0336767
0.864637 0.0332189 0.0336767
0.869688 0.0333867 0.0359503
0.875135 0.0332189 0.0889754
0.877913 0.0331121 0.116045
0.967727 0.17615 0.229328
0.992325 0.294377 0.299245
0.980209 0.361303 0.338872
0.975525 0.392432 0.390143
0.973602 0.415686 0.442313
0.971954 0.425788 0.486671
0.97734 0.662745 0.641703
0.989273 0.78027 0.816617
0.993637 0.817838 0.87454
0.996582 0.832868 0.901228
0.998016 0.837995 0.915587
0.998703 0.839124 0.925872
0.998703 0.83714 0.932219
0.998474 0.833692 0.937377
0.997024 0.826535 0.940063
0.993988 0.816571 0.940627
0.989593 0.806088 0.938582
0.986694 0.802533 0.937881
0.0607309 0.06392 0.0626841
0.0613107 0.0639353 0.0626841
0.0628824 0.0639658 0.0631876
0.0629587 0.0640269 0.0632486
0.0633402 0.0640421 0.0633249
0.0637217 0.0640421 0.0633555
0.0641794 0.0640726 0.0632792
0.064683 0.0640879 0.0632181
0.0651865 0.0641031 0.0631418
0.0657969 0.0641031 0.0631266
0.0664225 0.0641031 0.0631266
0.0670939 0.0641184 0.0633555
0.06804 0.0640726 0.0635843
0.0699016 0.0638437 0.0637064
0.0717021 0.0636606 0.0637675
0.073518 0.0636606 0.0636606
0.076051 0.0635691 0.0634623
0.0791485 0.0634012 0.0632486
0.0829938 0.062974 0.0627604
0.0879225 0.0624399 0.0622263
0.0943923 0.0617533 0.0615244
0.105638 0.0603952 0.0603952
0.129168 0.056611 0.0583963
0.163485 0.0507973 0.0541848
0.209613 0.0433814 0.0480812
0.252369 0.0377966 0.0441596
0.320882 0.0356603 0.0359045
0.428046 0.0351568 0.0352178
0.546136 0.0336767 0.0347753
0.65658 0.032517 0.0344091
0.780789 0.0325628 0.0337072
0.817426 0.0327916 0.0336919
0.822812 0.0327764 0.0336309
0.826596 0.0328222 0.0336461
0.83006 0.0328222 0.0336309
0.83331 0.0328679 0.0336461
0.836652 0.0328832 0.0336309
0.840024 0.0328985 0.0336461
0.843519 0.0329747 0.0337072
0.847318 0.0330205 0.0337377
0.851362 0.0330816 0.033753
0.855512 0.0330358 0.0336461
0.859693 0.0331121 0.0336767
0.864576 0.0332189 0.0336767
0.869596 0.0333715 0.0356298
0.875135 0.0332189 0.0891432
0.877958 0.0331121 0.116213
0.969024 0.179034 0.230213
0.992508 0.296376 0.298604
0.98024 0.362737 0.338552
0.975662 0.394812 0.389593
0.973816 0.419837 0.443
0.972671 0.430655 0.48809
0.977539 0.663447 0.641718
0.989258 0.780758 0.816541
0.993667 0.818372 0.874586
0.996582 0.832822 0.901244
0.998032 0.838117 0.915602
0.998703 0.839933 0.926116
0.998703 0.838254 0.932494
0.998474 0.833692 0.937377
0.997177 0.827497 0.940337
0.993988 0.816556 0.940642
0.989532 0.805875 0.938491
0.986679 0.802502 0.937835
0.0601816 0.0641794 0.0624857
0.0608682 0.0641794 0.062501
0.0616617 0.064271 0.0627451
0.0632334 0.0642863 0.0632944
0.0633097 0.0643626 0.0633555
0.0636454 0.0643626 0.0634623
0.0640574 0.0643778 0.0634928
0.0646067 0.0643778 0.063447
0.0650492 0.0644236 0.0634928
0.0654765 0.0644541 0.0636149
0.0660258 0.0644541 0.0638132
0.0669718 0.0643931 0.0639506
0.0682536 0.0642405 0.0641337
0.0694743 0.0642405 0.0640574
0.0709697 0.0642405 0.0639811
0.072755 0.06421 0.0639048
0.0750286 0.0641489 0.0638285
0.0781262 0.06392 0.0635386
0.0818647 0.0635386 0.0630961
0.0867475 0.0630961 0.0626078
0.0930343 0.0625162 0.0619821
0.104143 0.0612192 0.0608377
0.126162 0.0580453 0.0589456
0.161913 0.0517433 0.0545357
0.207919 0.0441749 0.0484169
0.248692 0.0391241 0.0450294
0.314992 0.0356756 0.0359503
0.421576 0.035172 0.0352178
0.541711 0.033753 0.0347906
0.652216 0.0325017 0.0344091
0.778058 0.0325475 0.0337072
0.817441 0.0327916 0.0336919
0.822828 0.0327764 0.0336309
0.826612 0.0328222 0.0336461
0.83006 0.0328222 0.0336309
0.833326 0.0328679 0.0336461
0.836591 0.0328832 0.0336309
0.839979 0.0328985 0.0336461
0.843458 0.0329747 0.0337072
0.847288 0.0330358 0.0337377
0.851331 0.0330968 0.033753
0.855482 0.0330358 0.0336461
0.859663 0.0331273 0.0336767
0.86453 0.0332189 0.0336767
0.869535 0.0333715 0.0354467
0.875151 0.0332189 0.0893568
0.878172 0.0331426 0.116533
0.969894 0.180774 0.230701
0.992309 0.298192 0.297642
0.979782 0.36466 0.337545
0.975525 0.397192 0.388815
0.974014 0.424262 0.444038
0.972671 0.430488 0.488121
0.977554 0.663615 0.641886
0.989319 0.781155 0.816541
0.993729 0.818708 0.874632
0.996597 0.833295 0.901289
0.998093 0.838575 0.915709
0.998703 0.84004 0.926146
0.998703 0.838331 0.932509
0.998474 0.833692 0.937377
0.997116 0.827008 0.940215
0.994171 0.817258 0.940856
0.989532 0.80589 0.938491
0.986831 0.802655 0.938125
0.059617 0.0644388 0.0622873
0.0603799 0.0644541 0.0623178
0.0612345 0.0645151 0.0625315
0.0620737 0.064622 0.0628672
0.0635691 0.064622 0.063386
0.0636454 0.0646982 0.0634775
0.063859 0.064744 0.0637827
0.0642252 0.0647593 0.0639811
0.0645762 0.064744 0.0641642
0.0651255 0.0647593 0.0642557
0.0660258 0.0646982 0.064332
0.066743 0.0647288 0.064332
0.0675212 0.0647593 0.0643473
0.0686351 0.0647746 0.064332
0.0700389 0.0647746 0.0643015
0.0718395 0.0647288 0.0642252
0.0740368 0.0646982 0.0641184
0.0770428 0.0644388 0.0637675
0.080705 0.0641031 0.063386
0.0856947 0.0637369 0.062974
0.0919661 0.0631876 0.0624094
0.102937 0.0619669 0.0613413
0.125154 0.0587167 0.0592966
0.160372 0.0525216 0.0547494
0.20705 0.0448005 0.0486915
0.246601 0.0400244 0.0455024
0.311879 0.0356603 0.0359503
0.414801 0.0352483 0.0352941
0.533639 0.0340124 0.0349432
0.648035 0.0324865 0.0344091
0.775204 0.0326085 0.0337987
0.817456 0.0327916 0.0336919
0.822828 0.0327764 0.0336309
0.826612 0.0328222 0.0336461
0.83006 0.0328222 0.0336309
0.833326 0.0328679 0.0336461
0.83653 0.0328832 0.0336309
0.839918 0.0328985 0.0336461
0.843397 0.0329747 0.0337072
0.847257 0.0330358 0.0337224
0.851301 0.0330968 0.033753
0.855467 0.0330358 0.0336461
0.859632 0.0331273 0.0336767
0.864469 0.0332189 0.0336767
0.869474 0.0333715 0.0352483
0.875151 0.0332341 0.0895705
0.878782 0.0332189 0.117144
0.971084 0.183337 0.231662
0.99205 0.299519 0.296803
0.979522 0.367102 0.336721
0.975479 0.399298 0.388312
0.974044 0.426474 0.444541
0.972869 0.435187 0.489006
0.977752 0.664363 0.641749
0.989563 0.781735 0.816739
0.993683 0.819089 0.874617
0.996567 0.833677 0.901259
0.998093 0.838636 0.915724
0.998703 0.840513 0.926223
0.998703 0.838987 0.932662
0.998505 0.83389 0.937438
0.997177 0.828061 0.940383
0.994064 0.816907 0.940734
0.989975 0.806973 0.93904
0.986847 0.802686 0.938186
0.0590829 0.0646982 0.062089
0.0598611 0.0647135 0.06215
0.0607767 0.0647746 0.0623484
0.061799 0.0648661 0.0628977
0.0626078 0.0649424 0.0634165
0.063859 0.0649424 0.0640574
0.0639353 0.0650034 0.0643015
0.0641184 0.0650339 0.0646372
0.064332 0.0651408 0.0646067
0.0648661 0.0651408 0.0645762
0.0654459 0.0651102 0.064622
0.0661173 0.065156 0.0645762
0.0669718 0.0651865 0.0645914
0.0679637 0.0652323 0.0645914
0.0694285 0.0652171 0.0645304
0.0712139 0.0652018 0.0644541
0.0733501 0.0651408 0.0643015
0.0762798 0.0648661 0.06392
0.0801556 0.0646067 0.0635996
0.0852522 0.0642405 0.0632029
0.0916457 0.0637064 0.062623
0.102525 0.062501 0.0616312
0.124269 0.0592508 0.0596628
0.159197 0.0533303 0.0550698
0.206043 0.045655 0.0489357
0.245548 0.0407416 0.0457465
0.309773 0.0356603 0.0359808
0.408331 0.0353552 0.0354162
0.525338 0.0341192 0.0349432
0.643824 0.0325017 0.0344244
0.772427 0.032639 0.0338445
0.817472 0.0327916 0.0336919
0.822843 0.0327764 0.0336309
0.826627 0.0328222 0.0336461
0.830076 0.0328222 0.0336309
0.833326 0.0328679 0.0336461
0.836469 0.0328832 0.0336309
0.839872 0.0329137 0.0336461
0.843351 0.03299 0.0337072
0.847227 0.0330358 0.0337224
0.85127 0.0330968 0.033753
0.855451 0.0330358 0.0336461
0.859586 0.0331273 0.0336767
0.864424 0.0332189 0.0336767
0.869398 0.0333715 0.03505
0.875166 0.0332189 0.0898451
0.879179 0.0332799 0.11751
0.972091 0.186587 0.232441
0.992004 0.300633 0.296391
0.9794 0.368231 0.336294
0.975525 0.400671 0.388144
0.974258 0.428763 0.445121
0.973327 0.439918 0.490272
0.977951 0.665034 0.641672
0.989517 0.781735 0.8168
0.993698 0.819226 0.874632
0.996551 0.83386 0.901259
0.998169 0.839628 0.915908
0.998703 0.840604 0.926238
0.998703 0.838911 0.932647
0.998688 0.834806 0.937728
0.997177 0.828077 0.940383
0.994278 0.817914 0.941009
0.990127 0.807202 0.939147
0.986831 0.802655 0.938125
0.0587472 0.0649577 0.0620127
0.0602731 0.0649424 0.0625772
0.061326 0.0650034 0.0630961
0.0619059 0.0651102 0.0635691
0.0621805 0.0652323 0.0640269
0.0622568 0.0654154 0.0644083
0.0623941 0.0654307 0.064332
0.0643015 0.0653697 0.0646677
0.0644083 0.0654612 0.064744
0.0647288 0.0654917 0.0648051
0.0652171 0.0654765 0.0648356
0.0658274 0.0655375 0.064744
0.0666514 0.0655528 0.064683
0.0676432 0.0655985 0.0646677
0.0690623 0.0656138 0.064622
0.0708476 0.0656138 0.0645762
0.0729381 0.065507 0.0644236
0.0758221 0.0652628 0.0640879
0.0797436 0.0650797 0.0638132
0.0848554 0.0647288 0.0634165
0.0912947 0.06421 0.0628672
0.102098 0.0630198 0.0619211
0.123476 0.0599222 0.060029
0.158068 0.054139 0.055375
0.205432 0.0465553 0.0491188
0.244923 0.0414282 0.0457771
0.308141 0.0356756 0.0360113
0.404105 0.0353552 0.0354009
0.517082 0.034226 0.0349279
0.639567 0.0324865 0.0344244
0.768963 0.0326238 0.0338445
0.817487 0.0327916 0.0336919
0.822843 0.0327764 0.0336309
0.826627 0.0328222 0.0336461
0.830076 0.0328222 0.0336309
0.833326 0.0328679 0.0336461
0.836408 0.0328832 0.0336309
0.839811 0.0329137 0.0336461
0.843305 0.03299 0.0336919
0.847196 0.0330358 0.0337224
0.85124 0.0330968 0.033753
0.855436 0.0330358 0.0336461
0.859556 0.0331273 0.0336767
0.864363 0.0332189 0.0336767
0.869322 0.0333715 0.0349126
0.875166 0.0332341 0.0900435
0.880125 0.0333715 0.118318
0.973159 0.188403 0.233143
0.99205 0.30277 0.295521
0.979339 0.37023 0.33576
0.975509 0.402747 0.387396
0.974578 0.433234 0.446204
0.973816 0.443961 0.491356
0.978012 0.665263 0.641779
0.989776 0.782223 0.817029
0.993698 0.819516 0.874678
0.996612 0.834318 0.90135
0.998154 0.839551 0.915877
0.998703 0.841459 0.926375
0.998703 0.838895 0.932647
0.998703 0.835096 0.937835
0.997177 0.828061 0.940398
0.994263 0.818021 0.940993
0.98999 0.806989 0.93904
0.986831 0.802655 0.938125
0.0607156 0.0651408 0.0632029
0.0615396 0.0652323 0.0637522
0.0621653 0.0653544 0.0642863
0.0621042 0.0654765 0.0643626
0.0617685 0.0655985 0.0642557
0.0614786 0.0657054 0.0641337
0.061799 0.0657054 0.0640726
0.062562 0.0657359 0.0641184
0.0646982 0.0657511 0.0647898
0.0648051 0.0658427 0.0648661
0.0651255 0.0658732 0.0649729
0.0656443 0.0659037 0.0649882
0.0665446 0.0659342 0.0649119
0.0673686 0.06598 0.0647746
0.0686656 0.0660258 0.064744
0.0704356 0.06598 0.0646372
0.0725567 0.0658122 0.0643931
0.0754101 0.0657206 0.0642405
0.0793164 0.0655528 0.0640116
0.0844587 0.0652171 0.0636606
0.090837 0.064683 0.0630961
0.101747 0.0635691 0.062211
0.122454 0.0605325 0.0603037
0.157214 0.054902 0.0558022
0.204532 0.047364 0.0491951
0.244434 0.0420996 0.0459449
0.306767 0.0356756 0.0360571
0.401358 0.0353552 0.0354314
0.509117 0.0343023 0.0349279
0.635416 0.0325017 0.0344396
0.765469 0.0325933 0.0338598
0.817487 0.0327916 0.0336767
0.822858 0.0327764 0.0336309
0.826627 0.0328222 0.0336461
0.830076 0.0328222 0.0336309
0.83328 0.0328679 0.0336461
0.836347 0.0328832 0.0336309
0.83975 0.0329137 0.0336309
0.843259 0.03299 0.0336919
0.847166 0.0330358 0.0337224
0.851209 0.0330968 0.033753
0.855406 0.0330358 0.0336461
0.859525 0.0331273 0.0336767
0.864317 0.0332189 0.0336767
0.869245 0.0333715 0.0347753
0.875181 0.0332341 0.0902419
0.881788 0.0335241 0.119677
0.974075 0.190829 0.233494
0.992111 0.304372 0.294743
0.97911 0.372763 0.334813
0.975525 0.405493 0.386709
0.974685 0.435004 0.446677
0.973999 0.445029 0.491783
0.978103 0.665843 0.641642
0.989883 0.782681 0.817212
0.993713 0.820081 0.874678
0.996628 0.834592 0.901366
0.998367 0.840238 0.916167
0.998703 0.841382 0.926345
0.998703 0.839506 0.932738
0.998703 0.835691 0.937972
0.997101 0.828351 0.940337
0.994278 0.817929 0.941009
0.990173 0.807279 0.939193
0.986831 0.802655 0.938125
0.0622568 0.0654154 0.0644083
0.0619364 0.0655375 0.0643168
0.0616159 0.0656596 0.06421
0.0613413 0.0657511 0.0640726
0.0610971 0.0658579 0.0639506
0.0607614 0.06598 0.0638285
0.0612955 0.06598 0.0638132
0.0620432 0.066041 0.0639048
0.0630503 0.0661326 0.06421
0.0651102 0.0661479 0.0648966
0.0652171 0.0662394 0.0649729
0.0655985 0.0662852 0.0651102
0.0663462 0.0662699 0.0651713
0.0673381 0.0663767 0.0651102
0.0685588 0.066392 0.0648203
0.0699779 0.066331 0.0646677
0.0721752 0.0662089 0.0644694
0.0750591 0.0661784 0.0643473
0.0789349 0.066041 0.0641642
0.0840314 0.0657206 0.0638743
0.090425 0.0651713 0.0633249
0.101305 0.0641337 0.0624857
0.121706 0.0610819 0.0605783
0.156146 0.0556802 0.0561837
0.203815 0.0481727 0.0492866
0.243961 0.04271 0.0462196
0.305715 0.0356909 0.0361028
0.39852 0.0353704 0.0354467
0.501564 0.0343786 0.0349279
0.62797 0.032517 0.0344396
0.760861 0.0325628 0.0338293
0.817502 0.0327916 0.0336919
0.822858 0.0327764 0.0336309
0.826627 0.0328222 0.0336461
0.830076 0.0328222 0.0336309
0.833219 0.0328679 0.0336461
0.836286 0.0328832 0.0336309
0.839689 0.0329137 0.0336309
0.843214 0.03299 0.0336919
0.847135 0.033051 0.0337224
0.851179 0.0331121 0.033753
0.85539 0.033051 0.0336461
0.859495 0.0331273 0.0336767
0.864256 0.0332036 0.0336767
0.8692 0.0333562 0.0346685
0.875181 0.0332341 0.090486
0.882643 0.0335699 0.120287
0.97499 0.193515 0.234012
0.991806 0.305501 0.293919
0.978851 0.374411 0.33402
0.975677 0.40763 0.386435
0.974746 0.43856 0.447684
0.973953 0.448615 0.492134
0.978134 0.666316 0.641489
0.989929 0.783093 0.817243
0.993759 0.820539 0.874739
0.996628 0.834699 0.901396
0.998398 0.840345 0.916213
0.998703 0.84152 0.92639
0.998703 0.840391 0.933028
0.998703 0.83653 0.938109
0.997177 0.828931 0.940444
0.994537 0.81912 0.941329
0.990463 0.807858 0.939391
0.986877 0.802701 0.938216
0.0614633 0.0657054 0.0641337
0.0612039 0.0658122 0.0640116
0.0608835 0.065919 0.0638895
0.0606088 0.0660258 0.0637675
0.0602579 0.0661479 0.0636606
0.0600748 0.0662547 0.0635538
0.0607614 0.0662547 0.0635538
0.0615244 0.066331 0.0636759
0.062501 0.0664378 0.0639811
0.0635843 0.0665599 0.0643778
0.0644999 0.0666819 0.0647135
0.0656596 0.0666667 0.065095
0.0662089 0.0666972 0.0653086
0.0671855 0.066743 0.0654459
0.0684062 0.0666972 0.0651102
0.0699168 0.0666056 0.0646525
0.0717479 0.0666514 0.0646067
0.0746471 0.0666361 0.0644999
0.078584 0.0665141 0.0642557
0.0836347 0.0661936 0.0640269
0.0899977 0.0656901 0.0635538
0.100893 0.0646677 0.0627756
0.121019 0.0617227 0.0609293
0.155062 0.0563821 0.0565957
0.202701 0.049134 0.0493477
0.243275 0.0434424 0.0463874
0.304875 0.0356756 0.0361791
0.396139 0.0353552 0.0354314
0.496315 0.0345617 0.0350347
0.62034 0.032639 0.0345312
0.755688 0.0325017 0.033814
0.817517 0.0327916 0.0336767
0.822873 0.0327764 0.0336309
0.826642 0.0328222 0.0336461
0.830091 0.0328222 0.0336309
0.833158 0.0328679 0.0336461
0.83621 0.0328832 0.0336156
0.839628 0.0329137 0.0336309
0.843168 0.03299 0.0336919
0.847105 0.033051 0.0337224
0.851148 0.0331121 0.033753
0.85536 0.033051 0.0336461
0.859464 0.0331273 0.0336767
0.86421 0.0332036 0.0336767
0.869139 0.0333562 0.0345617
0.875196 0.0332341 0.0906233
0.884703 0.0335546 0.121996
0.975982 0.196124 0.234638
0.991669 0.306996 0.293095
0.978866 0.377203 0.333196
0.97557 0.410391 0.385565
0.975006 0.440681 0.448005
0.974594 0.453819 0.493385
0.978363 0.666972 0.641505
0.989944 0.783352 0.817273
0.993805 0.820661 0.874784
0.996658 0.835264 0.901473
0.998367 0.840803 0.916243
0.998703 0.841794 0.926421
0.998703 0.840406 0.933028
0.998703 0.836469 0.938094
0.997147 0.828779 0.940414
0.994354 0.818631 0.941115
0.99025 0.807416 0.939269
0.986938 0.802762 0.938323
0.0606546 0.0660105 0.063798
0.0603342 0.0661326 0.0636759
0.0599985 0.0662547 0.0635691
0.0596475 0.0663767 0.063447
0.0593118 0.0665141 0.0633249
0.0593423 0.0665904 0.0632486
0.0601358 0.0665904 0.0632792
0.0610208 0.0666514 0.0634012
0.0619059 0.0667887 0.0637217
0.0630045 0.0669108 0.0641337
0.0640726 0.0670329 0.0645914
0.0650645 0.0671397 0.0649424
0.0661936 0.0671092 0.0653086
0.0669566 0.0670329 0.065507
0.0682231 0.0670481 0.0655833
0.0699321 0.0670329 0.0651255
0.0719158 0.0670481 0.0647746
0.0742046 0.067155 0.0647288
0.0782635 0.0670176 0.0644694
0.0831159 0.0667124 0.0641947
0.0895552 0.0662699 0.0637827
0.10045 0.0652628 0.0631266
0.120119 0.0624247 0.0612802
0.153719 0.0574655 0.057023
0.201846 0.0500801 0.0496681
0.242695 0.0441596 0.0465095
0.304784 0.0356603 0.0368811
0.393088 0.0353704 0.0354467
0.492546 0.0346532 0.0350805
0.611582 0.0327611 0.0346075
0.74966 0.0324865 0.033814
0.817533 0.0327916 0.0336767
0.822873 0.0327764 0.0336309
0.826642 0.0328222 0.0336461
0.830091 0.0328222 0.0336309
0.833082 0.0328679 0.0336461
0.836149 0.0328832 0.0336156
0.839567 0.0329137 0.0336309
0.843107 0.0330053 0.0336919
0.847074 0.033051 0.0337224
0.851118 0.0331121 0.033753
0.855344 0.033051 0.0336461
0.859434 0.0331426 0.0336767
0.864149 0.0332189 0.0336767
0.869062 0.0333562 0.0344396
0.875212 0.0332341 0.0908675
0.887449 0.0335546 0.124224
0.977142 0.199069 0.235264
0.991562 0.308415 0.292424
0.978821 0.379202 0.332555
0.975692 0.412161 0.385397
0.97499 0.442924 0.447517
0.974685 0.45539 0.493828
0.978531 0.667521 0.641474
0.990066 0.783871 0.81738
0.993942 0.821241 0.874891
0.996658 0.83563 0.901503
0.998291 0.841581 0.916243
0.998703 0.841825 0.926421
0.998703 0.840558 0.933074
0.998703 0.836774 0.938109
0.997147 0.828779 0.940414
0.994461 0.818967 0.941253
0.990311 0.807523 0.939315
0.986877 0.802716 0.938231
0.0595254 0.0664378 0.0634012
0.0591745 0.0665599 0.0632792
0.0588846 0.0666819 0.0631723
0.0585794 0.0667887 0.0630808
0.0582742 0.0669261 0.0629892
0.0586252 0.0669566 0.0629587
0.0594034 0.0669871 0.0630198
0.0603799 0.0670481 0.0631723
0.0613413 0.067155 0.0634928
0.0623331 0.0673075 0.0639048
0.0634928 0.0674296 0.0643778
0.0645609 0.0675822 0.0647898
0.0655985 0.0675822 0.0650339
0.0667735 0.0675212 0.0654002
0.0679484 0.0675059 0.0658122
0.0698253 0.0676127 0.0658122
0.0719615 0.0676127 0.0652628
0.074342 0.0676738 0.0649271
0.0775769 0.0676432 0.0647135
0.0826123 0.0673838 0.0644694
0.0889906 0.0669566 0.0641184
0.0997787 0.0659342 0.0633707
0.119173 0.0632792 0.0616922
0.152087 0.0585489 0.0575875
0.200641 0.0512245 0.0501717
0.242084 0.0450599 0.0465705
0.303273 0.0356451 0.0379187
0.389883 0.0353704 0.0354772
0.488655 0.0346838 0.0350805
0.601938 0.0328374 0.0346227
0.742336 0.0324254 0.033814
0.817548 0.0327916 0.0336767
0.822889 0.0327764 0.0336309
0.826642 0.0328222 0.0336461
0.830091 0.0328222 0.0336309
0.833005 0.0328679 0.0336461
0.836072 0.0328985 0.0336156
0.839475 0.0329137 0.0336309
0.84303 0.0330053 0.0336919
0.847044 0.033051 0.0337224
0.851087 0.0331273 0.033753
0.855299 0.033051 0.0336461
0.859403 0.0331426 0.0336767
0.864088 0.0332036 0.0336767
0.869062 0.0333562 0.0345006
0.875227 0.0332341 0.0912032
0.891768 0.0343023 0.127749
0.977935 0.202228 0.235599
0.991318 0.311376 0.2907
0.9785 0.381338 0.331701
0.975662 0.414908 0.384588
0.975631 0.446769 0.447196
0.975067 0.461723 0.49543
0.978714 0.668238 0.641611
0.990204 0.784482 0.817578
0.993973 0.821836 0.874952
0.996735 0.836423 0.90164
0.998306 0.841489 0.916259
0.998703 0.843198 0.926635
0.998703 0.841566 0.933272
0.998703 0.836942 0.938125
0.99733 0.830121 0.940719
