public/assets/luts/V1.cube
TITLE "Generated by Resolve"
LUT_3D_SIZE 5
# Smoothened 3D LUT with ColourMatch: blur=1.03, achrom=2.38, thresh=0.03, lum_range=[0.0-1.0], falloff=[0.0-0.0]
0.065508 0.130015 0.088933
0.151459 0.162228 0.121731
0.459184 0.172221 0.165272
0.982959 0.127530 0.150578
0.999900 0.982107 0.233700
0.109977 0.245044 0.151662
0.203706 0.216642 0.128713
0.811129 0.141117 0.133676
0.984002 0.133764 0.132208
0.999925 0.984872 0.234322
0.139060 0.690202 0.139071
0.139088 0.730506 0.139093
0.936343 0.775179 0.159579
1.000000 0.865378 0.188346
1.000000 0.999377 0.237746
0.190249 1.000000 0.181186
0.190249 1.000000 0.181186
0.941692 1.000000 0.229358
1.000000 1.000000 0.238814
1.000000 1.000000 0.238834
0.190249 1.000000 0.181240
0.194944 1.000000 0.181343
0.999954 1.000000 0.238616
1.000000 1.000000 0.238834
1.000000 1.000000 0.238834
0.123287 0.176984 0.142110
0.191434 0.180783 0.153672
0.556246 0.165440 0.216815
0.982883 0.127418 0.232136
0.999857 0.988065 0.236461
0.120567 0.271324 0.230069
0.226723 0.235076 0.214414
0.899695 0.128625 0.172453
0.984130 0.157961 0.144803
0.999953 0.991234 0.236048
0.139855 0.772866 0.393185
0.139927 0.782962 0.222671
0.938193 0.815646 0.168786
1.000000 0.924384 0.205383
1.000000 0.999981 0.238443
0.195795 1.000000 0.435091
0.193023 1.000000 0.327035
0.981086 1.000000 0.342272
1.000000 1.000000 0.400075
1.000000 1.000000 0.241107
0.205694 1.000000 0.711884
0.223914 1.000000 0.679075
1.000000 1.000000 0.708953
1.000000 1.000000 0.736974
1.000000 1.000000 0.238834
0.238110 0.256649 0.335646
0.306690 0.251592 0.374495
0.767170 0.200097 0.595052
0.998916 0.208066 0.756481
0.999988 0.959752 0.686150
0.140744 0.397130 0.622757
0.302391 0.390184 0.753202
0.994342 0.265669 0.845140
0.999292 0.491439 0.809211
1.000000 0.980363 0.685562
0.180084 0.919483 0.961547
0.176586 0.912253 0.943547
0.968362 0.953872 0.937304
1.000000 0.999424 0.942061
1.000000 1.000000 0.695282
0.219403 1.000000 0.993978
0.219012 1.000000 0.985427
0.999968 1.000000 0.998380
1.000000 1.000000 0.999272
1.000000 1.000000 0.690908
0.220288 1.000000 1.000000
0.518211 1.000000 1.000000
1.000000 1.000000 1.000000
1.000000 1.000000 1.000000
1.000000 1.000000 0.999998
0.523396 0.575156 0.822309
0.601076 0.555826 0.910987
0.998069 0.531642 0.997012
1.000000 0.694828 0.999977
1.000000 0.998887 1.000000
0.239171 0.671663 0.988549
0.609213 0.682123 0.999604
0.999858 0.749779 0.999744
1.000000 0.895245 0.999995
1.000000 0.999532 1.000000
0.217225 0.998573 1.000000
0.357922 0.998519 1.000000
1.000000 1.000000 1.000000
1.000000 1.000000 1.000000
1.000000 0.999997 1.000000
0.220020 1.000000 1.000000
0.741276 1.000000 1.000000
1.000000 1.000000 1.000000
1.000000 1.000000 1.000000
1.000000 1.000000 1.000000
0.438573 1.000000 1.000000
0.861125 1.000000 1.000000
1.000000 1.000000 1.000000
1.000000 1.000000 1.000000
1.000000 1.000000 1.000000
1.000000 1.000000 1.000000
1.000000 1.000000 1.000000
1.000000 0.999999 1.000000
1.000000 1.000000 1.000000
1.000000 1.000000 1.000000
0.999999 1.000000 1.000000
1.000000 1.000000 1.000000
1.000000 1.000000 1.000000
1.000000 1.000000 1.000000
1.000000 1.000000 1.000000
0.999997 1.000000 1.000000
0.999999 1.000000 1.000000
1.000000 1.000000 1.000000
1.000000 1.000000 1.000000
1.000000 1.000000 1.000000
0.999997 1.000000 1.000000
1.000000 1.000000 1.000000
1.000000 1.000000 1.000000
1.000000 1.000000 1.000000
1.000000 1.000000 1.000000
0.989822 1.000000 1.000000
0.999991 1.000000 1.000000
1.000000 1.000000 1.000000
1.000000 1.000000 1.000000
1.000000 1.000000 1.000000
