public/assets/luts/V1.cube
TITLE "Generated by Resolve"
LUT_3D_SIZE 65
# Smoothened 3D LUT with ColourMatch: blur=1.03, achrom=2.38, thresh=0.03, lum_range=[0.0-1.0], falloff=[0.0-0.0]
0.065508 0.130015 0.088933
0.066715 0.130090 0.089000
0.068183 0.130239 0.089173
0.070356 0.130602 0.089658
0.073875 0.131351 0.090699
0.078596 0.132556 0.092373
0.083950 0.134179 0.094566
0.089460 0.136160 0.097119
0.094731 0.138383 0.099803
0.099667 0.140765 0.102447
0.104533 0.143336 0.105048
0.109674 0.146101 0.107630
0.115486 0.149048 0.110235
0.122414 0.152177 0.112933
0.130712 0.155451 0.115753
0.140410 0.158817 0.118690
0.151459 0.162228 0.121731
0.163638 0.165597 0.124822
0.176456 0.168779 0.127855
0.189345 0.171652 0.130740
0.201905 0.174229 0.133506
0.214010 0.176666 0.136335
0.225674 0.178999 0.139372
0.236862 0.181001 0.142546
0.247892 0.182554 0.145837
0.259391 0.183636 0.149278
0.271922 0.183949 0.152550
0.286441 0.183107 0.155086
0.304986 0.181328 0.156926
0.330324 0.179192 0.158639
0.365205 0.176883 0.160499
0.410000 0.174476 0.162690
0.459184 0.172221 0.165272
0.506429 0.170130 0.167873
0.552100 0.167727 0.169992
0.598013 0.164385 0.171145
0.644022 0.159603 0.171108
0.689377 0.153057 0.170125
0.733365 0.144907 0.168585
0.776327 0.136725 0.166815
0.819838 0.131082 0.165077
0.865092 0.128673 0.163415
0.910583 0.127918 0.161688
0.949350 0.127567 0.159837
0.972638 0.127386 0.157917
0.981034 0.127342 0.156032
0.982654 0.127368 0.154329
0.982864 0.127438 0.152617
0.982959 0.127530 0.150578
0.983044 0.127598 0.148722
0.983093 0.127636 0.147691
0.983133 0.127771 0.146842
0.983230 0.128875 0.145511
0.983503 0.134218 0.143671
0.983986 0.147783 0.142496
0.984535 0.168806 0.143647
0.985101 0.194258 0.146862
0.985739 0.223999 0.152365
0.986442 0.256989 0.160624
0.987214 0.289019 0.167352
0.988466 0.338225 0.169213
0.991605 0.483360 0.174839
0.996287 0.730078 0.194820
0.999168 0.915056 0.219836
0.999900 0.982107 0.233700
0.067062 0.131347 0.090484
0.069152 0.131632 0.090840
0.071639 0.131992 0.091306
0.074599 0.132511 0.092006
0.078599 0.133396 0.093203
0.083331 0.134731 0.094963
0.088351 0.136492 0.097172
0.093465 0.138613 0.099677
0.098434 0.140932 0.102237
0.103190 0.143336 0.104695
0.108065 0.145890 0.107123
0.113439 0.148617 0.109583
0.119665 0.151502 0.112108
0.127005 0.154508 0.114721
0.135433 0.157543 0.117387
0.144849 0.160560 0.120086
0.155412 0.163618 0.122877
0.167115 0.166694 0.125757
0.179473 0.169626 0.128611
0.191876 0.172277 0.131339
0.204002 0.174695 0.133998
0.215824 0.177031 0.136781
0.227329 0.179251 0.139788
0.238489 0.181120 0.142939
0.249636 0.182527 0.146215
0.261360 0.183405 0.149591
0.274220 0.183417 0.152660
0.289315 0.182294 0.154946
0.308856 0.180415 0.156677
0.335594 0.178321 0.158376
0.372258 0.176114 0.160254
0.419223 0.173664 0.162418
0.470734 0.171038 0.164806
0.519841 0.168397 0.167087
0.566453 0.165366 0.168783
0.612694 0.161284 0.169455
0.658725 0.155670 0.169040
0.703733 0.148462 0.167867
0.747029 0.140511 0.166309
0.789108 0.133813 0.164649
0.831743 0.129951 0.163011
0.876130 0.128454 0.161316
0.920101 0.127909 0.159455
0.955742 0.127606 0.157451
0.975314 0.127469 0.155330
0.981681 0.127463 0.153158
0.982846 0.127507 0.151101
0.983033 0.127582 0.148978
0.983148 0.127678 0.146603
0.983244 0.127757 0.144585
0.983298 0.127814 0.143420
0.983341 0.127941 0.142484
0.983436 0.128865 0.141159
0.983677 0.133485 0.139639
0.984088 0.145818 0.139206
0.984569 0.165431 0.140682
0.985081 0.189042 0.143620
0.985660 0.216088 0.148200
0.986299 0.244706 0.154026
0.987032 0.273811 0.158931
0.988330 0.326336 0.162268
0.991559 0.478138 0.171217
0.996285 0.729090 0.193725
0.999170 0.915138 0.219691
0.999900 0.982184 0.233703
0.068486 0.133022 0.092237
0.071522 0.133675 0.092963
0.075589 0.134495 0.093941
0.079707 0.135302 0.094985
0.083682 0.136217 0.096188
0.087853 0.137512 0.097800
0.092399 0.139322 0.099903
0.097273 0.141594 0.102364
0.102303 0.144150 0.104938
0.107388 0.146823 0.107444
0.112729 0.149566 0.109887
0.118719 0.152379 0.112332
0.125716 0.155268 0.114838
0.133809 0.158182 0.117404
0.142700 0.160982 0.119939
0.152133 0.163622 0.122406
0.162372 0.166238 0.124911
0.173552 0.168861 0.127492
0.185189 0.171325 0.130035
0.196701 0.173527 0.132466
0.208020 0.175610 0.134925
0.219325 0.177713 0.137617
0.230540 0.179687 0.140556
0.241615 0.181288 0.143649
0.252884 0.182419 0.146869
0.264873 0.182940 0.150078
0.278218 0.182505 0.152800
0.294282 0.181056 0.154760
0.315421 0.179140 0.156391
0.344184 0.177199 0.158111
0.382924 0.175127 0.159977
0.432086 0.172443 0.161937
0.486459 0.169077 0.163884
0.538540 0.165488 0.165620
0.587002 0.161443 0.166683
0.633955 0.156203 0.166705
0.680026 0.149478 0.165823
0.724537 0.141952 0.164450
0.766903 0.135279 0.162930
0.807803 0.130970 0.161419
0.849198 0.129019 0.159847
0.892063 0.128288 0.158053
0.933149 0.127907 0.155974
0.963826 0.127666 0.153671
0.978490 0.127596 0.151140
0.982474 0.127643 0.148466
0.983142 0.127715 0.145874
0.983307 0.127802 0.143338
0.983426 0.127901 0.140940
0.983513 0.127987 0.139140
0.983559 0.128055 0.138069
0.983598 0.128163 0.137165
0.983675 0.128820 0.136127
0.983851 0.132310 0.135301
0.984172 0.142555 0.135459
0.984588 0.160133 0.136860
0.985042 0.181483 0.139137
0.985548 0.204947 0.142344
0.986106 0.229264 0.146224
0.986763 0.255605 0.150273
0.988047 0.309914 0.155047
0.991368 0.467918 0.166756
0.996212 0.725336 0.191978
0.999155 0.914462 0.219342
0.999898 0.982135 0.233670
0.070807 0.135608 0.094661
0.074213 0.136486 0.095508
0.078684 0.137567 0.096624
0.083017 0.138500 0.097712
0.086943 0.139366 0.098822
0.090877 0.140530 0.100252
0.095162 0.142240 0.102174
0.099898 0.144495 0.104511
0.105020 0.147146 0.107052
0.110432 0.149998 0.109611
0.116219 0.152896 0.112108
0.122752 0.155801 0.114583
0.130404 0.158734 0.117115
0.139231 0.161657 0.119706
0.148935 0.164447 0.122275
0.159186 0.167029 0.124760
0.169946 0.169450 0.127193
0.181129 0.171702 0.129574
0.192285 0.173672 0.131822
0.203065 0.175381 0.133967
0.213722 0.177075 0.136254
0.224580 0.178839 0.138865
0.235507 0.180419 0.141726
0.246469 0.181595 0.144732
0.257803 0.182295 0.147821
0.270011 0.182310 0.150713
0.283969 0.181387 0.152984
0.301346 0.179737 0.154671
0.324349 0.177937 0.156268
0.355029 0.176204 0.157979
0.395264 0.174119 0.159678
0.446025 0.170938 0.161214
0.503440 0.166602 0.162539
0.559372 0.161774 0.163542
0.610396 0.156343 0.163810
0.658292 0.149734 0.163140
0.704378 0.142358 0.161850
0.748289 0.135800 0.160380
0.789514 0.131481 0.158971
0.828956 0.129418 0.157581
0.868790 0.128621 0.155984
0.909481 0.128224 0.154001
0.946290 0.127926 0.151610
0.970792 0.127765 0.148876
0.980826 0.127774 0.145828
0.983094 0.127869 0.142737
0.983458 0.127961 0.139970
0.983590 0.128049 0.137627
0.983679 0.128131 0.135854
0.983730 0.128202 0.134711
0.983755 0.128258 0.134023
0.983777 0.128325 0.133480
0.983818 0.128727 0.133006
0.983926 0.131133 0.132827
0.984173 0.139230 0.133259
0.984549 0.154885 0.134461
0.984976 0.174900 0.136253
0.985438 0.196322 0.138579
0.985949 0.218528 0.141568
0.986551 0.243235 0.145071
0.987798 0.297160 0.150005
0.991178 0.458738 0.163206
0.996134 0.721499 0.190482
0.999139 0.913575 0.219000
0.999896 0.982005 0.233622
0.074092 0.139797 0.098232
0.077572 0.140675 0.098955
0.081921 0.141657 0.099812
0.086024 0.142452 0.100617
0.089782 0.143184 0.101511
0.093554 0.144154 0.102729
0.097629 0.145614 0.104407
0.102157 0.147632 0.106500
0.107138 0.150103 0.108841
0.112533 0.152842 0.111269
0.118440 0.155671 0.113692
0.125197 0.158520 0.116120
0.133149 0.161399 0.118617
0.142367 0.164276 0.121190
0.152644 0.167056 0.123780
0.163643 0.169641 0.126316
0.175041 0.171970 0.128748
0.186500 0.173994 0.131030
0.197682 0.175691 0.133144
0.208522 0.177183 0.135222
0.219316 0.178687 0.137529
0.230252 0.180172 0.140176
0.241215 0.181365 0.143038
0.252283 0.182107 0.146011
0.263826 0.182326 0.148954
0.276385 0.181786 0.151462
0.291141 0.180438 0.153294
0.309929 0.178723 0.154792
0.334519 0.177057 0.156318
0.366466 0.175344 0.157838
0.407627 0.172973 0.159177
0.459900 0.169185 0.160214
0.520723 0.163863 0.160869
0.581068 0.157578 0.160974
0.634955 0.150542 0.160323
0.683797 0.142983 0.159005
0.729769 0.136269 0.157435
0.772889 0.131853 0.155951
0.812774 0.129743 0.154611
0.850494 0.128922 0.153246
0.888368 0.128531 0.151547
0.926220 0.128225 0.149298
0.957867 0.127991 0.146524
0.976026 0.127919 0.143409
0.982267 0.127993 0.140211
0.983495 0.128105 0.137395
0.983696 0.128190 0.135281
0.983771 0.128252 0.133839
0.983811 0.128297 0.132986
0.983829 0.128331 0.132526
0.983837 0.128357 0.132258
0.983843 0.128385 0.132085
0.983857 0.128600 0.131987
0.983919 0.130240 0.132055
0.984114 0.136845 0.132537
0.984470 0.151112 0.133651
0.984894 0.170246 0.135271
0.985346 0.190868 0.137271
0.985844 0.212501 0.139771
0.986434 0.236914 0.142678
0.987683 0.291398 0.147523
0.991103 0.455248 0.161618
0.996106 0.720324 0.189924
0.999133 0.913370 0.218897
0.999896 0.981987 0.233612
0.078231 0.145606 0.102710
0.081705 0.146346 0.103235
0.085792 0.147026 0.103727
0.089476 0.147498 0.104119
0.092928 0.147997 0.104665
0.096552 0.148745 0.105597
0.100490 0.149900 0.106986
0.104813 0.151553 0.108771
0.109568 0.153666 0.110822
0.114817 0.156098 0.113013
0.120724 0.158684 0.115263
0.127581 0.161323 0.117554
0.135656 0.163989 0.119918
0.144996 0.166641 0.122352
0.155423 0.169193 0.124811
0.166622 0.171554 0.127230
0.178215 0.173647 0.129548
0.189812 0.175428 0.131718
0.201179 0.176941 0.133769
0.212383 0.178351 0.135885
0.223607 0.179780 0.138298
0.234880 0.181092 0.141044
0.246163 0.182046 0.143994
0.257649 0.182516 0.147027
0.269707 0.182358 0.149871
0.282936 0.181366 0.152061
0.298687 0.179723 0.153573
0.318751 0.177956 0.154890
0.344565 0.176256 0.156205
0.377542 0.174322 0.157398
0.419817 0.171552 0.158369
0.474039 0.167222 0.158971
0.538595 0.160895 0.158886
0.603576 0.152973 0.157893
0.660405 0.144590 0.156238
0.710138 0.137256 0.154343
0.755823 0.132406 0.152558
0.797881 0.130101 0.151006
0.836212 0.129229 0.149614
0.872052 0.128837 0.148180
0.907607 0.128541 0.146354
0.941682 0.128275 0.143922
0.967363 0.128108 0.141030
0.979767 0.128102 0.138082
0.983179 0.128193 0.135557
0.983731 0.128279 0.133800
0.983814 0.128329 0.132775
0.983840 0.128356 0.132238
0.983850 0.128370 0.131994
0.983853 0.128379 0.131889
0.983854 0.128385 0.131835
0.983855 0.128393 0.131807
0.983860 0.128514 0.131804
0.983899 0.129730 0.131893
0.984060 0.135376 0.132327
0.984397 0.148468 0.133362
0.984825 0.166778 0.134897
0.985284 0.187108 0.136777
0.985781 0.208820 0.139031
0.986379 0.233798 0.141706
0.987634 0.289113 0.146669
0.991055 0.453908 0.161193
0.996078 0.720178 0.189914
0.999126 0.913656 0.218991
0.999895 0.982125 0.233653
0.082880 0.152620 0.107576
0.086378 0.153226 0.107963
0.090322 0.153652 0.108229
0.093666 0.153821 0.108332
0.096749 0.154040 0.108529
0.100116 0.154508 0.109062
0.103887 0.155312 0.110039
0.108036 0.156527 0.111439
0.112603 0.158172 0.113154
0.117744 0.160174 0.115066
0.123678 0.162387 0.117085
0.130635 0.164680 0.119167
0.138789 0.166991 0.121315
0.148149 0.169261 0.123516
0.158540 0.171408 0.125732
0.169684 0.173359 0.127916
0.181240 0.175059 0.130024
0.192859 0.176495 0.132034
0.204354 0.177755 0.134008
0.215805 0.179011 0.136150
0.227323 0.180314 0.138655
0.238866 0.181449 0.141492
0.250470 0.182200 0.144524
0.262387 0.182436 0.147581
0.274985 0.181940 0.150259
0.288987 0.180607 0.152148
0.305834 0.178803 0.153439
0.327144 0.176993 0.154584
0.354202 0.175188 0.155662
0.388497 0.173018 0.156608
0.432388 0.169937 0.157348
0.488928 0.165139 0.157551
0.557251 0.157735 0.156555
0.626805 0.148253 0.154232
0.686553 0.139374 0.151505
0.737106 0.133435 0.149061
0.782379 0.130600 0.147014
0.823223 0.129563 0.145311
0.859800 0.129143 0.143852
0.893553 0.128847 0.142421
0.926267 0.128573 0.140670
0.955347 0.128344 0.138510
0.974352 0.128239 0.136234
0.981971 0.128260 0.134268
0.983629 0.128320 0.132934
0.983828 0.128360 0.132240
0.983850 0.128378 0.131949
0.983854 0.128384 0.131837
0.983856 0.128387 0.131798
0.983856 0.128388 0.131786
0.983856 0.128389 0.131781
0.983856 0.128392 0.131779
0.983859 0.128483 0.131785
0.983890 0.129502 0.131862
0.984035 0.134537 0.132249
0.984360 0.146823 0.133221
0.984792 0.164775 0.134718
0.985252 0.184811 0.136531
0.985737 0.205995 0.138642
0.986332 0.231092 0.141248
0.987584 0.286847 0.146289
0.990999 0.452412 0.161032
0.996045 0.720091 0.190032
0.999118 0.914074 0.219142
0.999894 0.982319 0.233711
0.087861 0.160646 0.112640
0.091438 0.161168 0.112953
0.095409 0.161447 0.113124
0.098592 0.161408 0.113088
0.101344 0.161363 0.113042
0.104351 0.161513 0.113177
0.107831 0.161921 0.113645
0.111767 0.162650 0.114540
0.116190 0.163754 0.115836
0.121296 0.165217 0.117419
0.127317 0.166933 0.119160
0.134395 0.168751 0.120977
0.142613 0.170575 0.122845
0.151947 0.172332 0.124744
0.162239 0.173947 0.126650
0.173262 0.175367 0.128537
0.184739 0.176569 0.130385
0.196361 0.177576 0.132203
0.207952 0.178506 0.134089
0.219589 0.179529 0.136262
0.231326 0.180618 0.138858
0.243081 0.181500 0.141774
0.254937 0.181973 0.144845
0.267170 0.181881 0.147815
0.280223 0.181006 0.150203
0.295014 0.179407 0.151770
0.312999 0.177546 0.152876
0.335584 0.175737 0.153867
0.364008 0.173863 0.154783
0.399882 0.171549 0.155617
0.445695 0.168261 0.156218
0.504676 0.163021 0.155960
0.576547 0.154561 0.153829
0.650429 0.144005 0.149969
0.713152 0.135612 0.146153
0.764552 0.131421 0.143252
0.809297 0.129955 0.141065
0.848783 0.129437 0.139403
0.883378 0.129122 0.138148
0.914607 0.128838 0.137036
0.943534 0.128581 0.135777
0.966557 0.128396 0.134425
0.979070 0.128333 0.133253
0.983090 0.128349 0.132438
0.983789 0.128373 0.132007
0.983852 0.128384 0.131842
0.983856 0.128388 0.131794
0.983856 0.128389 0.131781
0.983856 0.128389 0.131778
0.983856 0.128389 0.131777
0.983856 0.128389 0.131777
0.983856 0.128392 0.131777
0.983859 0.128474 0.131783
0.983889 0.129418 0.131855
0.984030 0.134196 0.132223
0.984354 0.146223 0.133176
0.984789 0.164176 0.134669
0.985243 0.184017 0.136449
0.985717 0.204747 0.138489
0.986308 0.229772 0.141066
0.987561 0.285768 0.146143
0.990977 0.451725 0.160960
0.996033 0.719954 0.190048
0.999115 0.914164 0.219177
0.999893 0.982369 0.233725
0.092944 0.169570 0.117873
0.096624 0.170056 0.118152
0.100796 0.170271 0.118287
0.104007 0.170091 0.118174
0.106522 0.169812 0.117961
0.109161 0.169653 0.117801
0.112262 0.169675 0.117808
0.115892 0.169918 0.118130
0.120143 0.170439 0.118877
0.125243 0.171274 0.120021
0.131384 0.172368 0.121415
0.138593 0.173580 0.122912
0.146859 0.174786 0.124445
0.156140 0.175908 0.125992
0.166320 0.176884 0.127545
0.177233 0.177685 0.129099
0.188665 0.178321 0.130665
0.200320 0.178838 0.132276
0.212026 0.179381 0.134078
0.223854 0.180104 0.136303
0.235788 0.180892 0.138999
0.247732 0.181442 0.141992
0.259820 0.181561 0.145069
0.272356 0.181064 0.147858
0.285923 0.179805 0.149888
0.301619 0.178027 0.151157
0.320784 0.176179 0.152093
0.344624 0.174397 0.152942
0.374424 0.172479 0.153765
0.411952 0.170065 0.154557
0.459783 0.166607 0.155014
0.521163 0.160952 0.154177
0.596190 0.151678 0.150757
0.674040 0.140748 0.145385
0.739915 0.133381 0.140779
0.792293 0.130550 0.137899
0.836309 0.129728 0.136093
0.874152 0.129346 0.134919
0.906477 0.129033 0.134163
0.934527 0.128756 0.133578
0.958345 0.128538 0.132985
0.974619 0.128412 0.132445
0.981809 0.128376 0.132078
0.983600 0.128381 0.131884
0.983839 0.128387 0.131805
0.983855 0.128389 0.131783
0.983856 0.128389 0.131778
0.983856 0.128389 0.131777
0.983856 0.128389 0.131777
0.983856 0.128389 0.131777
0.983856 0.128389 0.131777
0.983856 0.128392 0.131777
0.983859 0.128477 0.131784
0.983890 0.129444 0.131857
0.984035 0.134319 0.132234
0.984364 0.146571 0.133208
0.984805 0.164962 0.134746
0.985268 0.185509 0.136601
0.985747 0.206669 0.138691
0.986333 0.231413 0.141255
0.987586 0.287055 0.146320
0.991003 0.452748 0.161126
0.996047 0.720571 0.190168
0.999118 0.914402 0.219231
0.999894 0.982429 0.233740
0.097700 0.179045 0.123129
0.101422 0.179518 0.123379
0.105966 0.179721 0.123497
0.109431 0.179462 0.123330
0.111843 0.179006 0.122993
0.114194 0.178598 0.122633
0.116935 0.178304 0.122321
0.120207 0.178127 0.122148
0.124199 0.178095 0.122274
0.129214 0.178264 0.122826
0.135418 0.178643 0.123745
0.142726 0.179127 0.124848
0.151031 0.179597 0.126000
0.160283 0.179986 0.127165
0.170410 0.180250 0.128348
0.181296 0.180376 0.129564
0.192765 0.180392 0.130841
0.204536 0.180366 0.132246
0.216446 0.180469 0.133976
0.228525 0.180822 0.136270
0.240678 0.181223 0.139080
0.252823 0.181372 0.142156
0.265155 0.181079 0.145203
0.278062 0.180140 0.147738
0.292297 0.178543 0.149394
0.309034 0.176679 0.150407
0.329422 0.174883 0.151192
0.354522 0.173123 0.151931
0.385710 0.171158 0.152712
0.424931 0.168649 0.153473
0.474804 0.165014 0.153717
0.538446 0.158988 0.152184
0.616143 0.149283 0.147558
0.697496 0.138557 0.141218
0.766582 0.132186 0.136611
0.820022 0.130138 0.134419
0.863120 0.129541 0.133386
0.899008 0.129174 0.132811
0.928547 0.128862 0.132469
0.952359 0.128618 0.132230
0.969922 0.128465 0.132030
0.979703 0.128400 0.131886
0.983122 0.128387 0.131814
0.983786 0.128388 0.131787
0.983853 0.128389 0.131779
0.983856 0.128389 0.131777
0.983856 0.128389 0.131777
0.983856 0.128389 0.131777
0.983856 0.128389 0.131777
0.983856 0.128389 0.131777
0.983856 0.128389 0.131777
0.983856 0.128394 0.131777
0.983860 0.128503 0.131786
0.983897 0.129661 0.131875
0.984060 0.135179 0.132304
0.984407 0.148309 0.133355
0.984858 0.167492 0.134980
0.985344 0.189424 0.137000
0.985847 0.211928 0.139271
0.986449 0.236961 0.141940
0.987719 0.292598 0.147106
0.991118 0.457592 0.161936
0.996101 0.723705 0.190814
0.999130 0.915727 0.219553
0.999895 0.982787 0.233835
0.101852 0.188584 0.128146
0.105531 0.189032 0.128353
0.110498 0.189230 0.128446
0.114342 0.188950 0.128239
0.116766 0.188412 0.127814
0.118936 0.187851 0.127320
0.121408 0.187333 0.126807
0.124353 0.186836 0.126296
0.128011 0.186352 0.125888
0.132767 0.185920 0.125775
0.138854 0.185577 0.126063
0.146171 0.185282 0.126656
0.154533 0.184964 0.127385
0.163845 0.184581 0.128164
0.174051 0.184104 0.128984
0.185080 0.183531 0.129870
0.196772 0.182898 0.130869
0.208850 0.182290 0.132078
0.221146 0.181889 0.133755
0.233622 0.181783 0.136138
0.246102 0.181710 0.139084
0.258531 0.181381 0.142255
0.271184 0.180607 0.145232
0.284609 0.179223 0.147460
0.299721 0.177373 0.148755
0.317630 0.175485 0.149530
0.339293 0.173731 0.150176
0.365718 0.171961 0.150855
0.398403 0.169932 0.151628
0.439436 0.167313 0.152321
0.491451 0.163453 0.152221
0.557296 0.157041 0.149885
0.637168 0.147199 0.144436
0.721302 0.137061 0.138119
0.793254 0.131486 0.134302
0.847702 0.129821 0.132941
0.889778 0.129294 0.132461
0.923255 0.128942 0.132198
0.948826 0.128668 0.132024
0.966801 0.128492 0.131905
0.977640 0.128411 0.131830
0.982381 0.128390 0.131792
0.983651 0.128388 0.131780
0.983841 0.128389 0.131778
0.983856 0.128389 0.131777
0.983856 0.128389 0.131777
0.983856 0.128389 0.131777
0.983856 0.128389 0.131777
0.983856 0.128389 0.131777
0.983856 0.128389 0.131777
0.983856 0.128390 0.131777
0.983857 0.128403 0.131778
0.983864 0.128605 0.131794
0.983920 0.130291 0.131925
0.984119 0.137258 0.132472
0.984494 0.151958 0.133659
0.984946 0.171705 0.135361
0.985450 0.194565 0.137531
0.985996 0.218470 0.140017
0.986627 0.243998 0.142833
0.987926 0.300201 0.148198
0.991312 0.464929 0.163130
0.996201 0.728295 0.191684
0.999154 0.917405 0.219926
0.999898 0.983183 0.233934
0.105486 0.198049 0.132855
0.109096 0.198436 0.132995
0.114323 0.198567 0.133013
0.118438 0.198252 0.132736
0.120892 0.197673 0.132229
0.122949 0.197020 0.131623
0.125234 0.196343 0.130957
0.127916 0.195609 0.130222
0.131213 0.194786 0.129448
0.135536 0.193884 0.128763
0.141253 0.192925 0.128354
0.148406 0.191914 0.128303
0.156808 0.190848 0.128533
0.166276 0.189724 0.128915
0.176744 0.188536 0.129386
0.188182 0.187297 0.129966
0.200429 0.186037 0.130708
0.213157 0.184837 0.131733
0.226152 0.183874 0.133364
0.239305 0.183204 0.135858
0.252378 0.182549 0.138985
0.265334 0.181637 0.142277
0.278544 0.180299 0.145141
0.292767 0.178473 0.147005
0.309033 0.176436 0.147935
0.328287 0.174525 0.148476
0.351341 0.172753 0.149010
0.379253 0.170923 0.149672
0.413660 0.168798 0.150430
0.456754 0.166022 0.150949
0.511130 0.161832 0.150296
0.579205 0.154910 0.147080
0.660663 0.145039 0.141363
0.746403 0.135755 0.135999
0.820287 0.130947 0.133292
0.875331 0.129514 0.132471
0.915924 0.129023 0.132186
0.945770 0.128713 0.132008
0.965513 0.128515 0.131890
0.976636 0.128421 0.131823
0.981755 0.128392 0.131791
0.983464 0.128388 0.131780
0.983814 0.128389 0.131777
0.983854 0.128389 0.131777
0.983856 0.128389 0.131777
0.983856 0.128389 0.131777
0.983856 0.128389 0.131777
0.983856 0.128389 0.131777
0.983856 0.128389 0.131777
0.983856 0.128389 0.131777
0.983856 0.128395 0.131777
0.983859 0.128456 0.131782
0.983879 0.128965 0.131822
0.983972 0.131749 0.132039
0.984221 0.140755 0.132754
0.984618 0.157197 0.134103
0.985077 0.177785 0.135932
0.985623 0.202070 0.138339
0.986227 0.227486 0.141094
0.986858 0.252437 0.143935
0.988151 0.308042 0.149361
0.991551 0.472878 0.164409
0.996343 0.732873 0.192432
0.999191 0.918546 0.220111
0.999903 0.983319 0.233955
0.108408 0.207512 0.137278
0.111951 0.207784 0.137322
0.117268 0.207761 0.137204
0.121515 0.207352 0.136809
0.123991 0.206726 0.136200
0.125973 0.205996 0.135477
0.128124 0.205186 0.134667
0.130599 0.204259 0.133753
0.133560 0.203181 0.132730
0.137369 0.201934 0.131648
0.142504 0.200514 0.130642
0.149242 0.198926 0.129892
0.157529 0.197207 0.129501
0.167160 0.195412 0.129419
0.178037 0.193587 0.129544
0.190151 0.191762 0.129844
0.203320 0.189957 0.130352
0.217138 0.188218 0.131197
0.231295 0.186687 0.132768
0.245596 0.185395 0.135384
0.259755 0.184071 0.138749
0.273768 0.182480 0.142201
0.288111 0.180516 0.144906
0.303664 0.178243 0.146325
0.321433 0.175989 0.146855
0.342244 0.173962 0.147185
0.366906 0.172067 0.147651
0.396614 0.170101 0.148300
0.433120 0.167819 0.148958
0.478634 0.164796 0.149097
0.535541 0.160122 0.147664
0.605517 0.152533 0.143731
0.687453 0.142646 0.138412
0.773088 0.134393 0.134472
0.847468 0.130430 0.132790
0.902100 0.129221 0.132266
0.939675 0.128785 0.132039
0.963704 0.128546 0.131898
0.976388 0.128432 0.131822
0.981649 0.128396 0.131790
0.983370 0.128389 0.131780
0.983786 0.128389 0.131777
0.983850 0.128389 0.131777
0.983856 0.128389 0.131777
0.983856 0.128389 0.131777
0.983856 0.128389 0.131777
0.983856 0.128389 0.131777
0.983856 0.128389 0.131777
0.983856 0.128390 0.131777
0.983856 0.128395 0.131777
0.983858 0.128441 0.131781
0.983870 0.128757 0.131805
0.983924 0.130295 0.131926
0.984082 0.135453 0.132334
0.984388 0.147193 0.133285
0.984806 0.165253 0.134818
0.985296 0.187270 0.136871
0.985911 0.213676 0.139633
0.986584 0.240873 0.142753
0.987199 0.264901 0.145602
0.988424 0.317797 0.150811
0.991788 0.480940 0.165726
0.996477 0.737261 0.193165
0.999225 0.919626 0.220289
0.999907 0.983446 0.233975
0.110122 0.216916 0.141357
0.113600 0.217028 0.141281
0.118959 0.216796 0.140995
0.123327 0.216266 0.140461
0.125867 0.215604 0.139749
0.127826 0.214826 0.138912
0.129901 0.213910 0.137963
0.132248 0.212828 0.136887
0.134961 0.211552 0.135673
0.138308 0.210059 0.134330
0.142784 0.208315 0.132910
0.148883 0.206300 0.131556
0.156809 0.204063 0.130483
0.166480 0.201703 0.129823
0.177785 0.199322 0.129546
0.190697 0.196989 0.129568
0.205028 0.194722 0.129858
0.220306 0.192532 0.130524
0.236097 0.190505 0.131996
0.252106 0.188637 0.134702
0.268031 0.186671 0.138335
0.283951 0.184426 0.141970
0.300421 0.181874 0.144470
0.318180 0.179139 0.145389
0.337987 0.176529 0.145511
0.360686 0.174191 0.145659
0.387327 0.172018 0.146057
0.419282 0.169801 0.146603
0.458322 0.167243 0.146959
0.506505 0.163816 0.146457
0.565640 0.158504 0.144240
0.636407 0.150204 0.140224
0.717104 0.140346 0.136030
0.800719 0.133107 0.133483
0.873891 0.129945 0.132488
0.926310 0.128965 0.132117
0.958440 0.128610 0.131929
0.975024 0.128454 0.131830
