public/assets/luts/V1.cube
TITLE "Generated by Resolve"
LUT_3D_SIZE 9
# Smoothened 3D LUT with ColourMatch: blur=1.03, achrom=2.38, thresh=0.03, lum_range=[0.0-1.0], falloff=[0.0-0.0]
0.065508 0.130015 0.088933
0.094731 0.138383 0.099803
0.151459 0.162228 0.121731
0.247892 0.182554 0.145837
0.459184 0.172221 0.165272
0.819838 0.131082 0.165077
0.982959 0.127530 0.150578
0.985101 0.194258 0.146862
0.999900 0.982107 0.233700
0.092944 0.169570 0.117873
0.120143 0.170439 0.118877
0.188665 0.178321 0.130665
0.285923 0.179805 0.149888
0.596190 0.151678 0.150757
0.958345 0.128538 0.132985
0.983856 0.128389 0.131777
0.984805 0.164962 0.134746
0.999894 0.982429 0.233740
0.109977 0.245044 0.151662
0.132729 0.238824 0.143487
0.203706 0.216642 0.128713
0.406317 0.190219 0.141640
0.811129 0.141117 0.133676
0.983856 0.128401 0.131778
0.984002 0.133764 0.132208
0.988032 0.293153 0.149772
0.999925 0.984872 0.234322
0.138431 0.380627 0.171044
0.138602 0.388998 0.154448
0.151545 0.400537 0.138826
0.528008 0.415724 0.141975
0.974989 0.389222 0.166904
0.990215 0.364126 0.162073
0.993827 0.480160 0.180159
0.998350 0.649971 0.166010
0.999998 0.991851 0.235483
0.139060 0.690202 0.139071
0.139064 0.706842 0.139060
0.139088 0.730506 0.139093
0.306794 0.762320 0.139646
0.936343 0.775179 0.159579
0.999973 0.770529 0.165386
1.000000 0.865378 0.188346
1.000000 0.940434 0.210158
1.000000 0.999377 0.237746
0.163883 0.932391 0.159517
0.165630 0.938369 0.160964
0.169162 0.949740 0.163861
0.177017 0.963237 0.167560
0.863124 0.973644 0.205909
1.000000 0.989595 0.225964
1.000000 0.998992 0.230980
1.000000 1.000000 0.235926
1.000000 1.000000 0.238734
0.190249 1.000000 0.181186
0.190249 1.000000 0.181186
0.190249 1.000000 0.181186
0.240693 1.000000 0.182976
0.941692 1.000000 0.229358
1.000000 1.000000 0.238578
1.000000 1.000000 0.238814
1.000000 1.000000 0.238834
1.000000 1.000000 0.238834
0.190249 1.000000 0.181186
0.190249 1.000000 0.181186
0.190249 1.000000 0.181186
0.541493 1.000000 0.197103
0.993948 1.000000 0.236210
1.000000 1.000000 0.238834
1.000000 1.000000 0.238834
1.000000 1.000000 0.238834
1.000000 1.000000 0.238834
0.190249 1.000000 0.181240
0.190250 1.000000 0.181242
0.194944 1.000000 0.181343
0.765804 1.000000 0.212742
0.999954 1.000000 0.238616
1.000000 1.000000 0.238834
1.000000 1.000000 0.238834
1.000000 1.000000 0.238834
1.000000 1.000000 0.238834
0.090351 0.144936 0.111016
0.108606 0.150112 0.115978
0.174042 0.170967 0.133276
0.262636 0.182567 0.152489
0.505030 0.165780 0.173957
0.857406 0.128332 0.173300
0.982090 0.126943 0.165845
0.983765 0.191664 0.172136
0.999896 0.984652 0.234623
0.108226 0.182062 0.133793
0.134203 0.185659 0.136673
0.211323 0.180092 0.138400
0.313829 0.173741 0.152156
0.680794 0.136889 0.159888
0.977210 0.127826 0.144982
0.983821 0.128345 0.132547
0.985044 0.176895 0.136093
0.999899 0.985005 0.234471
0.113720 0.252623 0.165588
0.125329 0.251141 0.156997
0.204687 0.217470 0.140112
0.423884 0.185448 0.150196
0.862780 0.134132 0.133448
0.983856 0.128399 0.131778
0.984110 0.137605 0.132531
0.989037 0.325757 0.155125
0.999940 0.987583 0.235072
0.138889 0.411753 0.201072
0.138867 0.409425 0.175371
0.146703 0.406620 0.142028
0.525653 0.415852 0.142175
0.978487 0.392944 0.167430
0.990588 0.374642 0.164083
0.994483 0.506592 0.180944
0.999215 0.688933 0.161966
1.000000 0.993835 0.236029
0.139099 0.722489 0.169815
0.139066 0.730593 0.140202
0.139176 0.747210 0.139154
0.284874 0.773335 0.139909
0.936417 0.792580 0.163166
0.999991 0.794204 0.170329
1.000000 0.887693 0.194646
1.000000 0.958440 0.215713
1.000000 0.999837 0.238010
0.167305 0.943994 0.162374
0.168796 0.948562 0.163565
0.172008 0.958542 0.166266
0.180476 0.971662 0.170091
0.873316 0.981595 0.209330
1.000000 0.995227 0.228438
1.000000 0.999844 0.232795
1.000000 1.000000 0.236966
1.000000 1.000000 0.238790
0.190249 1.000000 0.181190
0.190249 1.000000 0.181186
0.190249 1.000000 0.181186
0.276242 1.000000 0.184387
0.958637 1.000000 0.231278
1.000000 1.000000 0.238742
1.000000 1.000000 0.238831
1.000000 1.000000 0.238834
1.000000 1.000000 0.238834
0.190323 1.000000 0.188876
0.190269 1.000000 0.184207
0.190256 1.000000 0.182017
0.624316 1.000000 0.202306
0.998033 1.000000 0.237434
1.000000 1.000000 0.239092
1.000000 1.000000 0.239331
1.000000 1.000000 0.239659
1.000000 1.000000 0.238834
0.192574 1.000000 0.309537
0.192304 1.000000 0.301256
0.205875 1.000000 0.271473
0.828768 1.000000 0.268144
0.999997 1.000000 0.292774
1.000000 1.000000 0.317058
1.000000 1.000000 0.316294
1.000000 1.000000 0.243497
1.000000 1.000000 0.238834
0.123287 0.176984 0.142110
0.138182 0.179771 0.146356
0.191434 0.180783 0.153672
0.284071 0.177254 0.164257
0.556246 0.165440 0.216815
0.911064 0.128251 0.216478
0.982883 0.127418 0.232136
0.980873 0.210190 0.282344
0.999857 0.988065 0.236461
0.133421 0.202008 0.162757
0.147893 0.199599 0.171673
0.226309 0.187302 0.171131
0.345980 0.170600 0.171845
0.714619 0.137908 0.205018
0.981357 0.126568 0.181489
0.981688 0.126656 0.183146
0.982800 0.212055 0.200517
0.999895 0.988780 0.235952
0.120567 0.271324 0.230069
0.127570 0.273377 0.240156
0.226723 0.235076 0.214414
0.467717 0.178825 0.176436
0.899695 0.128625 0.172453
0.982880 0.127521 0.151643
0.984130 0.157961 0.144803
0.991211 0.398636 0.172866
0.999953 0.991234 0.236048
0.138993 0.459929 0.344099
0.138981 0.465488 0.312775
0.141073 0.444995 0.225659
0.529554 0.422515 0.158878
0.981935 0.379526 0.166266
0.991238 0.396425 0.168730
0.995896 0.563459 0.177597
0.999911 0.759726 0.164436
1.000000 0.996759 0.236897
0.139855 0.772866 0.393185
0.139741 0.775075 0.317415
0.139927 0.782962 0.222671
0.240244 0.804388 0.143652
0.938193 0.815646 0.168786
0.999997 0.810265 0.173936
1.000000 0.924384 0.205383
1.000000 0.983333 0.223838
1.000000 0.999981 0.238443
0.176717 0.964040 0.333691
0.176369 0.966465 0.269237
0.177841 0.973599 0.204709
0.188575 0.984956 0.182382
0.892705 0.991560 0.216726
1.000000 0.998608 0.235261
1.000000 0.999999 0.240769
1.000000 1.000000 0.264198
1.000000 1.000000 0.240680
0.195795 1.000000 0.435091
0.194339 1.000000 0.383087
0.193023 1.000000 0.327035
0.380136 1.000000 0.304633
0.981086 1.000000 0.342272
1.000000 1.000000 0.371905
1.000000 1.000000 0.400075
1.000000 1.000000 0.239182
1.000000 1.000000 0.241107
0.200395 1.000000 0.577377
0.199686 1.000000 0.556537
0.198861 1.000000 0.531065
0.739489 1.000000 0.531036
0.999825 1.000000 0.557549
1.000000 1.000000 0.579262
1.000000 1.000000 0.601491
1.000000 1.000000 0.470945
1.000000 1.000000 0.238834
0.205694 1.000000 0.711884
0.205557 1.000000 0.707593
0.223914 1.000000 0.679075
0.896021 1.000000 0.699172
1.000000 1.000000 0.708953
1.000000 1.000000 0.728405
1.000000 1.000000 0.736974
1.000000 1.000000 0.397325
1.000000 1.000000 0.238834
0.154495 0.205583 0.191074
0.166763 0.201205 0.189604
0.202324 0.199455 0.196689
0.338736 0.197638 0.255496
0.610830 0.179685 0.337649
0.978541 0.132232 0.368135
0.994052 0.135818 0.444767
0.996963 0.301875 0.549429
0.999959 0.989991 0.264464
0.156536 0.223072 0.223606
0.174875 0.218384 0.238155
0.246966 0.211996 0.261663
0.422361 0.198407 0.316605
0.753760 0.153307 0.375344
0.989190 0.132089 0.369254
0.992477 0.136028 0.421418
0.991189 0.330111 0.490898
0.999924 0.991096 0.264873
0.138900 0.310810 0.383842
0.155149 0.311658 0.421195
0.271183 0.284928 0.452405
0.539064 0.223147 0.429418
0.942037 0.136894 0.413775
0.989252 0.134720 0.369750
0.985166 0.262244 0.389530
0.989226 0.526768 0.452414
0.999947 0.994058 0.266063
0.139026 0.543710 0.602702
0.139012 0.545230 0.600262
0.139617 0.546470 0.593055
0.556753 0.497798 0.518123
0.982031 0.346620 0.382400
0.987137 0.462791 0.377343
0.997179 0.681678 0.414579
0.999999 0.863872 0.467292
1.000000 0.999124 0.270178
0.150168 0.840011 0.728469
0.149115 0.838336 0.690503
0.147865 0.836485 0.625685
0.209274 0.856540 0.511965
0.946952 0.862774 0.391256
1.000000 0.864652 0.327869
1.000000 0.972932 0.528923
1.000000 0.999186 0.614161
1.000000 1.000000 0.279830
0.198998 0.989042 0.731795
0.197722 0.989323 0.693976
0.196516 0.991410 0.637281
0.218270 0.995595 0.591547
0.922155 0.998935 0.553457
1.000000 0.999953 0.609615
1.000000 1.000000 0.635321
1.000000 1.000000 0.773712
1.000000 1.000000 0.290852
0.211218 1.000000 0.836924
0.210101 1.000000 0.813472
0.208935 1.000000 0.786569
0.581539 1.000000 0.783081
0.997005 1.000000 0.815737
1.000000 1.000000 0.845688
1.000000 1.000000 0.862680
1.000000 1.000000 0.840442
1.000000 1.000000 0.293863
0.215162 1.000000 0.915941
0.214725 1.000000 0.908299
0.217466 1.000000 0.898594
0.863533 1.000000 0.909798
0.999998 1.000000 0.926302
1.000000 1.000000 0.939231
1.000000 1.000000 0.948779
1.000000 1.000000 0.944200
1.000000 1.000000 0.243698
0.217826 1.000000 0.965367
0.226596 1.000000 0.961134
0.369762 1.000000 0.958734
0.963841 1.000000 0.970791
1.000000 1.000000 0.977904
1.000000 1.000000 0.983108
1.000000 1.000000 0.986935
1.000000 1.000000 0.509193
1.000000 1.000000 0.440612
0.238110 0.256649 0.335646
0.260178 0.257403 0.351087
0.306690 0.251592 0.374495
0.365142 0.254652 0.373353
0.767170 0.200097 0.595052
0.998604 0.139050 0.662398
0.998916 0.208066 0.756481
0.999115 0.444295 0.850458
0.999988 0.959752 0.686150
0.230635 0.286954 0.405291
0.251791 0.288396 0.464909
0.339103 0.274435 0.513857
0.403236 0.247524 0.415966
0.917200 0.173135 0.707076
0.998643 0.140962 0.723052
0.998932 0.262458 0.777576
0.999332 0.502433 0.845615
0.999990 0.964981 0.685635
0.140744 0.397130 0.622757
0.148973 0.404017 0.694073
0.302391 0.390184 0.753202
0.562263 0.264304 0.652748
0.994342 0.265669 0.845140
0.998986 0.312435 0.795637
0.999292 0.491439 0.809211
0.999987 0.702077 0.854826
1.000000 0.980363 0.685562
0.139193 0.655209 0.877964
0.139196 0.663725 0.900584
0.140157 0.665717 0.918739
0.649021 0.663925 0.951106
0.999937 0.696367 0.935340
0.999940 0.681683 0.843889
0.999994 0.833426 0.849655
1.000000 0.952888 0.905949
1.000000 0.998867 0.690732
0.180084 0.919483 0.961547
0.179017 0.917559 0.955366
0.176586 0.912253 0.943547
0.384550 0.917002 0.937669
0.968362 0.953872 0.937304
0.999990 0.964738 0.887031
1.000000 0.999424 0.942061
1.000000 1.000000 0.963429
1.000000 1.000000 0.695282
0.217160 0.999754 0.967732
0.216678 0.999712 0.959588
0.215845 0.999642 0.945815
0.364354 0.999565 0.935543
0.969066 0.999975 0.946928
1.000000 1.000000 0.957117
1.000000 1.000000 0.972418
1.000000 1.000000 0.995838
1.000000 1.000000 0.692883
0.219403 1.000000 0.993978
0.219147 1.000000 0.990684
0.219012 1.000000 0.985427
0.805424 1.000000 0.991628
0.999968 1.000000 0.998380
1.000000 1.000000 0.998810
1.000000 1.000000 0.999272
1.000000 1.000000 0.991925
1.000000 1.000000 0.690908
0.220042 1.000000 0.999919
0.220010 1.000000 0.999803
0.322585 1.000000 0.999416
0.958154 1.000000 0.999984
1.000000 1.000000 0.999999
1.000000 1.000000 1.000000
1.000000 1.000000 1.000000
1.000000 1.000000 0.999826
1.000000 1.000000 0.698941
0.220288 1.000000 1.000000
0.240677 1.000000 1.000000
0.518211 1.000000 1.000000
0.996189 1.000000 1.000000
1.000000 1.000000 1.000000
1.000000 1.000000 1.000000
1.000000 1.000000 1.000000
1.000000 1.000000 0.832369
1.000000 1.000000 0.999998
0.356575 0.382114 0.560933
0.376513 0.385749 0.595066
0.439098 0.381792 0.672705
0.620588 0.364458 0.783781
0.640209 0.440496 0.691458
0.998925 0.293829 0.935054
0.999198 0.452347 0.976497
0.999998 0.612269 0.995653
1.000000 0.972390 0.999904
0.316688 0.427791 0.676505
0.336004 0.426275 0.763925
0.473941 0.419068 0.866746
0.779047 0.397858 0.939329
0.682287 0.416709 0.719810
0.999018 0.366729 0.973353
0.999648 0.521057 0.988834
1.000000 0.687658 0.997695
1.000000 0.980365 0.999940
0.139249 0.553660 0.900556
0.148481 0.565517 0.955271
0.454951 0.578873 0.990681
0.890493 0.594950 0.997924
0.910704 0.329840 0.871892
0.999936 0.602625 0.996569
1.000000 0.734094 0.997627
1.000000 0.864422 0.999651
1.000000 0.989771 0.999990
0.149581 0.803822 0.998565
0.152504 0.818821 0.999852
0.266115 0.835836 0.999979
0.893108 0.874276 1.000000
1.000000 0.838775 1.000000
1.000000 0.904380 0.999956
1.000000 0.966314 0.999974
1.000000 0.997076 0.999998
1.000000 0.999992 1.000000
0.205685 0.979402 1.000000
0.206491 0.981354 1.000000
0.207883 0.980850 1.000000
0.808099 0.987607 1.000000
0.999952 0.999370 0.999992
1.000000 0.999891 1.000000
1.000000 1.000000 1.000000
1.000000 1.000000 1.000000
1.000000 1.000000 1.000000
0.220021 1.000000 1.000000
0.220030 1.000000 1.000000
0.220361 1.000000 1.000000
0.802596 1.000000 1.000000
0.999968 1.000000 1.000000
1.000000 1.000000 1.000000
1.000000 1.000000 1.000000
1.000000 1.000000 1.000000
1.000000 1.000000 1.000000
0.220020 1.000000 1.000000
0.220020 1.000000 1.000000
0.315497 1.000000 1.000000
0.956297 1.000000 1.000000
1.000000 1.000000 1.000000
1.000000 1.000000 1.000000
1.000000 1.000000 1.000000
1.000000 1.000000 1.000000
1.000000 1.000000 1.000000
0.220020 1.000000 1.000000
0.221314 1.000000 1.000000
0.689185 1.000000 1.000000
0.998023 1.000000 1.000000
1.000000 1.000000 1.000000
1.000000 1.000000 1.000000
1.000000 1.000000 1.000000
1.000000 1.000000 1.000000
1.000000 1.000000 1.000000
0.228441 1.000000 1.000000
0.342822 1.000000 1.000000
0.853799 1.000000 1.000000
0.999983 1.000000 1.000000
1.000000 1.000000 1.000000
1.000000 1.000000 1.000000
1.000000 1.000000 1.000000
1.000000 1.000000 1.000000
1.000000 1.000000 1.000000
0.523396 0.575156 0.822309
0.529927 0.569267 0.852904
0.601076 0.555826 0.910987
0.809899 0.535446 0.967682
0.998069 0.531642 0.997012
0.951572 0.715050 0.911323
1.000000 0.694828 0.999977
1.000000 0.813113 1.000000
1.000000 0.998887 1.000000
0.469111 0.589235 0.891866
0.490225 0.581509 0.929349
0.618512 0.571707 0.976777
0.887290 0.560764 0.999222
0.998986 0.577042 0.999104
0.953949 0.717473 0.913694
1.000000 0.752078 0.999982
1.000000 0.850864 1.000000
1.000000 0.999154 1.000000
0.239171 0.671663 0.988549
0.342182 0.674719 0.998432
0.609213 0.682123 0.999604
0.946918 0.703034 1.000000
0.999858 0.749779 0.999744
0.960712 0.718754 0.919601
1.000000 0.895245 0.999995
1.000000 0.930679 1.000000
1.000000 0.999532 1.000000
0.163044 0.862878 0.999999
0.165498 0.871034 1.000000
0.490119 0.884793 1.000000
0.943603 0.913850 1.000000
1.000000 0.953321 1.000000
0.997618 0.675849 0.980345
1.000000 0.997633 1.000000
1.000000 0.984009 1.000000
1.000000 0.999985 1.000000
0.217225 0.998573 1.000000
0.217473 0.998893 1.000000
0.357922 0.998519 1.000000
0.938578 0.999736 1.000000
1.000000 1.000000 1.000000
1.000000 0.999880 1.000000
1.000000 1.000000 1.000000
1.000000 0.999886 1.000000
1.000000 0.999997 1.000000
0.220020 1.000000 1.000000
0.220020 1.000000 1.000000
0.457015 1.000000 1.000000
0.976001 1.000000 1.000000
1.000000 1.000000 1.000000
1.000000 1.000000 1.000000
1.000000 1.000000 1.000000
1.000000 1.000000 1.000000
1.000000 1.000000 1.000000
0.220020 1.000000 1.000000
0.220105 1.000000 1.000000
0.741276 1.000000 1.000000
0.999170 1.000000 1.000000
1.000000 1.000000 1.000000
1.000000 1.000000 1.000000
1.000000 1.000000 1.000000
1.000000 1.000000 1.000000
1.000000 1.000000 1.000000
0.220156 1.000000 1.000000
0.325012 1.000000 1.000000
0.897207 1.000000 1.000000
0.999999 1.000000 1.000000
1.000000 1.000000 1.000000
1.000000 1.000000 1.000000
1.000000 1.000000 1.000000
1.000000 1.000000 1.000000
1.000000 1.000000 1.000000
0.438573 1.000000 1.000000
0.590661 1.000000 1.000000
0.861125 1.000000 1.000000
1.000000 1.000000 1.000000
1.000000 1.000000 1.000000
1.000000 1.000000 1.000000
1.000000 1.000000 1.000000
1.000000 1.000000 1.000000
1.000000 1.000000 1.000000
0.866847 0.853755 0.988896
0.869056 0.841011 0.995284
0.913223 0.821998 0.999667
0.996577 0.808856 1.000000
1.000000 0.811987 1.000000
1.000000 0.838689 0.999984
1.000000 0.999036 1.000000
1.000000 0.946879 1.000000
1.000000 1.000000 1.000000
0.822254 0.842891 0.998682
0.835925 0.830037 0.999840
0.906490 0.815726 1.000000
0.999189 0.810723 1.000000
1.000000 0.825742 1.000000
1.000000 0.863491 0.999985
1.000000 0.999082 1.000000
1.000000 0.962615 1.000000
1.000000 1.000000 1.000000
0.692360 0.867494 1.000000
0.744357 0.862981 1.000000
0.878920 0.861401 1.000000
0.999585 0.875187 1.000000
1.000000 0.906073 1.000000
1.000000 0.946743 0.999987
1.000000 0.999149 1.000000
1.000000 0.989493 1.000000
1.000000 1.000000 1.000000
0.296109 0.961613 1.000000
0.499833 0.963211 1.000000
0.809093 0.967681 1.000000
0.997988 0.981252 1.000000
1.000000 0.996883 1.000000
1.000000 0.999646 0.999997
1.000000 0.999389 1.000000
1.000000 0.994297 1.000000
1.000000 1.000000 1.000000
0.220180 1.000000 1.000000
0.246465 1.000000 1.000000
0.783655 1.000000 1.000000
0.998368 1.000000 1.000000
1.000000 1.000000 1.000000
1.000000 0.999956 1.000000
1.000000 0.997579 1.000000
1.000000 0.998931 1.000000
1.000000 0.999997 1.000000
0.220183 1.000000 1.000000
0.244582 1.000000 1.000000
0.843528 1.000000 1.000000
0.999941 1.000000 1.000000
1.000000 1.000000 1.000000
1.000000 1.000000 1.000000
1.000000 0.999869 1.000000
1.000000 1.000000 1.000000
1.000000 1.000000 1.000000
0.220236 1.000000 1.000000
0.473751 1.000000 1.000000
0.935458 1.000000 1.000000
1.000000 1.000000 1.000000
1.000000 1.000000 1.000000
1.000000 1.000000 1.000000
1.000000 1.000000 1.000000
1.000000 1.000000 1.000000
1.000000 1.000000 1.000000
0.290518 1.000000 1.000000
0.751589 1.000000 1.000000
0.986711 1.000000 1.000000
0.999994 1.000000 1.000000
1.000000 1.000000 1.000000
1.000000 1.000000 1.000000
1.000000 1.000000 1.000000
1.000000 1.000000 1.000000
1.000000 1.000000 1.000000
0.366643 1.000000 1.000000
0.454892 1.000000 1.000000
0.489953 1.000000 1.000000
0.430593 1.000000 1.000000
0.990467 1.000000 1.000000
1.000000 1.000000 1.000000
1.000000 1.000000 1.000000
1.000000 1.000000 1.000000
1.000000 1.000000 1.000000
1.000000 1.000000 1.000000
1.000000 1.000000 1.000000
1.000000 1.000000 1.000000
1.000000 0.999999 1.000000
1.000000 0.999999 1.000000
1.000000 0.999999 1.000000
1.000000 1.000000 1.000000
1.000000 1.000000 1.000000
1.000000 1.000000 1.000000
1.000000 1.000000 1.000000
1.000000 1.000000 1.000000
1.000000 0.999999 1.000000
1.000000 0.999999 1.000000
1.000000 0.999999 1.000000
1.000000 1.000000 1.000000
1.000000 1.000000 1.000000
1.000000 1.000000 1.000000
1.000000 1.000000 1.000000
0.999999 1.000000 1.000000
0.999999 1.000000 1.000000
1.000000 1.000000 1.000000
1.000000 1.000000 1.000000
1.000000 1.000000 1.000000
1.000000 1.000000 1.000000
1.000000 1.000000 1.000000
1.000000 1.000000 1.000000
1.000000 1.000000 1.000000
0.999998 1.000000 1.000000
0.999999 1.000000 1.000000
1.000000 1.000000 1.000000
1.000000 1.000000 1.000000
1.000000 1.000000 1.000000
1.000000 1.000000 1.000000
1.000000 1.000000 1.000000
1.000000 1.000000 1.000000
1.000000 1.000000 1.000000
0.999997 1.000000 1.000000
0.999998 1.000000 1.000000
0.999999 1.000000 1.000000
1.000000 1.000000 1.000000
1.000000 1.000000 1.000000
1.000000 1.000000 1.000000
1.000000 1.000000 1.000000
1.000000 1.000000 1.000000
1.000000 1.000000 1.000000
0.999997 1.000000 1.000000
0.999998 1.000000 1.000000
1.000000 1.000000 1.000000
1.000000 1.000000 1.000000
1.000000 0.999972 1.000000
1.000000 0.999995 1.000000
1.000000 0.999999 1.000000
1.000000 0.999723 1.000000
1.000000 1.000000 1.000000
0.999997 1.000000 1.000000
0.999999 1.000000 1.000000
1.000000 1.000000 1.000000
1.000000 1.000000 1.000000
1.000000 1.000000 1.000000
1.000000 0.999996 1.000000
1.000000 1.000000 1.000000
1.000000 1.000000 1.000000
1.000000 1.000000 1.000000
0.999998 1.000000 1.000000
0.999999 1.000000 1.000000
1.000000 1.000000 1.000000
1.000000 1.000000 1.000000
1.000000 1.000000 1.000000
1.000000 1.000000 1.000000
1.000000 1.000000 1.000000
1.000000 1.000000 1.000000
1.000000 1.000000 1.000000
0.989822 1.000000 1.000000
0.986512 1.000000 1.000000
0.999991 1.000000 1.000000
1.000000 1.000000 1.000000
1.000000 1.000000 1.000000
1.000000 1.000000 1.000000
1.000000 1.000000 1.000000
1.000000 1.000000 1.000000
1.000000 1.000000 1.000000
